;Generated with Cura_SteamEngine 14.09
; Default start code
G28 ; Home extruder
G1 Z15 F1200
M107 ; Turn off fan
G90 ; Absolute positioning
M82 ; Extruder in absolute mode
M190 S50
; Activate all used extruder
M104 T0 S210
G92 E0 ; Reset extruder position
; Wait for all used extruders to reach temperature
M109 T0 S210
;Layer count: 62
;LAYER:0
M107
G0 F9000 X47.598 Y55.098 Z0.300
;TYPE:SKIRT
G1 F1800 X-47.598 Y55.098 E4.73747
G1 X-47.598 Y-55.098 E10.22143
G1 X47.598 Y-55.098 E14.95891
G1 X47.598 Y55.098 E20.44286
G1 F2400 E16.44286
G0 F9000 X43.402 Y50.902
;TYPE:WALL-INNER
G1 F2400 E20.44286
G1 F1800 X-43.402 Y50.902 E24.76270
G1 X-43.402 Y-50.902 E29.82903
G1 X-31.396 Y-50.902 E30.42651
G1 X-31.396 Y-33.253 E31.30482
G1 X-17.402 Y-33.253 E32.00124
G1 X-17.402 Y-37.253 E32.20030
G1 X-13.114 Y-37.253 E32.41370
G1 X-13.114 Y-41.247 E32.61246
G1 X-17.402 Y-41.247 E32.82586
G1 X-17.402 Y-50.902 E33.30634
G1 X-2.397 Y-50.902 E34.05307
G1 X-2.397 Y-33.253 E34.93138
G1 X11.597 Y-33.253 E35.62780
G1 X11.597 Y-50.902 E36.50611
G1 X17.303 Y-50.902 E36.79007
G1 X17.303 Y-39.253 E37.36979
G1 X34.796 Y-39.253 E38.24034
G1 X34.796 Y-50.902 E38.82006
G1 X43.402 Y-50.902 E39.24834
G1 X43.402 Y50.902 E44.31466
G0 F9000 X-22.502 Y-2.253
G1 F1800 X-22.502 Y-8.247 E44.61296
G1 X-29.497 Y-8.247 E44.96107
G1 X-29.497 Y-2.253 E45.25936
G1 X-22.502 Y-2.253 E45.60747
G0 F9000 X-36.540 Y9.835
G1 F1800 X-36.741 Y9.511 E45.62645
G1 X-37.019 Y9.195 E45.64739
G1 X-37.358 Y8.921 E45.66908
G1 X-37.761 Y8.707 E45.69179
G1 X-38.119 Y8.580 E45.71070
G1 X-38.520 Y8.511 E45.73094
G1 X-38.783 Y8.502 E45.74404
G1 X-39.041 Y8.520 E45.75691
G1 X-39.424 Y8.595 E45.77633
G1 X-39.780 Y8.722 E45.79514
G1 X-40.149 Y8.928 E45.81618
G1 X-40.487 Y9.201 E45.83780
G1 X-40.780 Y9.548 E45.86040
G1 X-40.987 Y9.880 E45.87987
G1 X-41.150 Y10.311 E45.90280
G1 X-41.229 Y10.683 E45.92173
G1 X-41.248 Y11.115 E45.94325
G1 X-41.180 Y11.579 E45.96658
G1 X-41.046 Y11.983 E45.98777
G1 X-40.853 Y12.345 E46.00818
G1 X-40.628 Y12.652 E46.02712
G1 X-40.319 Y12.946 E46.04835
G1 X-39.960 Y13.189 E46.06992
G1 X-39.541 Y13.368 E46.09260
G1 X-39.172 Y13.464 E46.11157
G1 X-38.741 Y13.500 E46.13310
G1 X-38.286 Y13.454 E46.15585
G1 X-37.908 Y13.355 E46.17530
G1 X-37.494 Y13.159 E46.19810
G1 X-37.170 Y12.940 E46.21756
G1 X-36.837 Y12.609 E46.24092
G1 X-36.593 Y12.260 E46.26212
G1 X-36.417 Y11.890 E46.28251
G1 X-36.305 Y11.527 E46.30141
G1 X-36.250 Y11.095 E46.32308
G1 X-36.279 Y10.640 E46.34577
G1 X-36.360 Y10.259 E46.36516
G1 X-36.540 Y9.835 E46.38808
G0 F9000 X-22.959 Y-2.710
G0 X11.140 Y-33.710
G0 X11.603 Y-39.253
G1 F1800 X15.922 Y-39.253 E46.60302
G1 X15.922 Y-43.247 E46.80178
G1 X11.603 Y-43.247 E47.01672
G1 X11.603 Y-39.253 E47.21548
G0 F9000 X12.002 Y-39.652
G1 F1800 X15.523 Y-39.652 E47.39071
G1 X15.523 Y-42.848 E47.54976
G1 X12.002 Y-42.848 E47.72498
G1 X12.002 Y-39.652 E47.88403
G0 F9000 X17.702 Y-39.652
G1 F1800 X34.397 Y-39.652 E48.71487
G1 X34.397 Y-50.848 E49.27204
G1 X17.702 Y-50.848 E50.10287
G1 X17.702 Y-39.652 E50.66005
G0 F9000 X11.198 Y-33.652
G1 F1800 X11.198 Y-50.848 E51.51582
G1 X-1.998 Y-50.848 E52.17252
G1 X-1.998 Y-33.652 E53.02829
G1 X11.198 Y-33.652 E53.68499
G0 F9000 X-1.940 Y-33.710
G0 X-13.513 Y-37.652
G1 F1800 X-13.513 Y-40.848 E53.84404
G1 X-17.801 Y-40.848 E54.05744
G1 X-17.801 Y-50.848 E54.55509
G1 X-30.997 Y-50.848 E55.21180
G1 X-30.997 Y-33.652 E56.06757
G1 X-17.801 Y-33.652 E56.72427
G1 X-17.801 Y-37.652 E56.92333
G1 X-13.513 Y-37.652 E57.13673
G0 F9000 X-22.901 Y-7.848
G1 F1800 X-29.098 Y-7.848 E57.44512
G1 X-29.098 Y-2.652 E57.70370
G1 X-22.901 Y-2.652 E58.01210
G1 X-22.901 Y-7.848 E58.27068
G0 F9000 X-22.959 Y-2.710
G0 X-37.062 Y9.750
G1 F1800 X-37.297 Y9.484 E58.28835
G1 X-37.579 Y9.256 E58.30639
G1 X-37.922 Y9.073 E58.32574
G1 X-38.220 Y8.967 E58.34148
G1 X-38.561 Y8.909 E58.35869
G1 X-38.776 Y8.901 E58.36940
G1 X-38.989 Y8.916 E58.38003
G1 X-39.318 Y8.981 E58.39672
G1 X-39.615 Y9.086 E58.41239
G1 X-39.925 Y9.260 E58.43009
G1 X-40.207 Y9.488 E58.44813
G1 X-40.457 Y9.783 E58.46738
G1 X-40.627 Y10.057 E58.48342
G1 X-40.766 Y10.424 E58.50295
G1 X-40.832 Y10.733 E58.51868
G1 X-40.848 Y11.094 E58.53666
G1 X-40.790 Y11.487 E58.55643
G1 X-40.678 Y11.825 E58.57415
G1 X-40.515 Y12.132 E58.59145
G1 X-40.327 Y12.387 E58.60721
G1 X-40.068 Y12.635 E58.62506
G1 X-39.768 Y12.837 E58.64306
G1 X-39.411 Y12.989 E58.66237
G1 X-39.104 Y13.070 E58.67817
G1 X-38.745 Y13.100 E58.69610
G1 X-38.358 Y13.060 E58.71546
G1 X-38.045 Y12.978 E58.73156
G1 X-37.693 Y12.812 E58.75093
G1 X-37.425 Y12.631 E58.76702
G1 X-37.144 Y12.351 E58.78676
G1 X-36.939 Y12.058 E58.80456
G1 X-36.789 Y11.745 E58.82183
G1 X-36.696 Y11.442 E58.83761
G1 X-36.651 Y11.082 E58.85566
G1 X-36.675 Y10.695 E58.87496
G1 X-36.742 Y10.379 E58.89103
G1 X-36.895 Y10.020 E58.91045
G1 X-37.062 Y9.750 E58.92625
G0 F9000 X-36.696 Y11.442
G0 X-43.801 Y51.301
G1 F1800 X-43.801 Y-51.301 E64.03229
G1 X43.801 Y-51.301 E68.39184
G1 X43.801 Y51.301 E73.49788
G1 X-43.801 Y51.301 E77.85744
G0 F9000 X-44.200 Y51.700
;TYPE:WALL-OUTER
G1 F1800 X-44.200 Y-51.700 E83.00319
G1 X44.200 Y-51.700 E87.40246
G1 X44.200 Y51.700 E92.54821
G1 X-44.200 Y51.700 E96.94747
G0 F9000 X-43.990 Y51.400
G0 X-39.359 Y12.899
G0 X-39.282 Y12.611
G1 F1800 X-39.037 Y12.675 E96.96008
G1 X-38.748 Y12.699 E96.97451
G1 X-38.429 Y12.666 E96.99047
G1 X-38.182 Y12.602 E97.00317
G1 X-37.891 Y12.464 E97.01919
G1 X-37.680 Y12.321 E97.03188
G1 X-37.450 Y12.093 E97.04800
G1 X-37.285 Y11.857 E97.06233
G1 X-37.162 Y11.599 E97.07655
G1 X-37.088 Y11.358 E97.08910
G1 X-37.051 Y11.069 E97.10360
G1 X-37.071 Y10.749 E97.11955
G1 X-37.124 Y10.500 E97.13222
G1 X-37.250 Y10.204 E97.14823
G1 X-37.384 Y9.989 E97.16084
G1 X-37.574 Y9.773 E97.17515
G1 X-37.800 Y9.590 E97.18963
G1 X-38.084 Y9.439 E97.20563
G1 X-38.321 Y9.355 E97.21815
G1 X-38.602 Y9.307 E97.23233
G1 X-38.769 Y9.301 E97.24065
G1 X-38.936 Y9.312 E97.24898
G1 X-39.212 Y9.367 E97.26298
G1 X-39.449 Y9.451 E97.27550
G1 X-39.701 Y9.592 E97.28987
G1 X-39.927 Y9.774 E97.30431
G1 X-40.133 Y10.019 E97.32024
G1 X-40.268 Y10.235 E97.33291
G1 X-40.382 Y10.537 E97.34898
G1 X-40.435 Y10.784 E97.36155
G1 X-40.448 Y11.073 E97.37595
G1 X-40.400 Y11.394 E97.39210
G1 X-40.310 Y11.668 E97.40645
G1 X-40.176 Y11.919 E97.42061
G1 X-40.026 Y12.123 E97.43321
G1 X-39.817 Y12.323 E97.44761
G1 X-39.577 Y12.485 E97.46202
G1 X-39.282 Y12.611 E97.47798
G0 F9000 X-39.359 Y12.899
G0 X-38.045 Y12.979
G0 X-36.789 Y11.744
G0 X-36.895 Y10.020
G0 X-28.999 Y-3.051
G0 X-28.699 Y-3.051
G1 F1800 X-23.300 Y-3.051 E97.74667
G1 X-23.300 Y-7.449 E97.96553
G1 X-28.699 Y-7.449 E98.23422
G1 X-28.699 Y-3.051 E98.45309
G0 F9000 X-28.999 Y-3.051
G0 X-30.898 Y-34.051
G0 X-30.598 Y-34.051
G1 F1800 X-18.200 Y-34.051 E99.07008
G1 X-18.200 Y-38.051 E99.26914
G1 X-13.912 Y-38.051 E99.48254
G1 X-13.912 Y-40.449 E99.60187
G1 X-18.200 Y-40.449 E99.81527
G1 X-18.200 Y-50.449 E100.31292
G1 X-30.598 Y-50.449 E100.92991
G1 X-30.598 Y-34.051 E101.74597
G0 F9000 X-30.898 Y-34.051
G0 X-30.939 Y-33.710
G0 X-17.859 Y-33.710
G0 X-1.899 Y-34.051
G0 X-1.599 Y-34.051
G1 F1800 X10.799 Y-34.051 E102.36296
G1 X10.799 Y-50.449 E103.17902
G1 X-1.599 Y-50.449 E103.79601
G1 X-1.599 Y-34.051 E104.61206
G0 F9000 X-1.899 Y-34.051
G0 X-1.940 Y-50.790
G0 X11.140 Y-50.790
G0 X12.101 Y-40.051
G0 X12.401 Y-40.051
G1 F1800 X15.124 Y-40.051 E104.74757
G1 X15.124 Y-42.449 E104.86691
G1 X12.401 Y-42.449 E105.00242
G1 X12.401 Y-40.051 E105.12176
G0 F9000 X12.101 Y-40.051
G0 X12.060 Y-42.790
G0 X15.465 Y-42.790
G0 X17.801 Y-40.051
G0 X18.101 Y-40.051
G1 F1800 X33.998 Y-40.051 E105.91288
G1 X33.998 Y-50.449 E106.43034
G1 X18.101 Y-50.449 E107.22147
G1 X18.101 Y-40.051 E107.73893
G0 F9000 X17.222 Y-40.049
;TYPE:FILL
G1 F1800 X16.001 Y-41.270 E107.82486
G0 F9000 X16.001 Y-40.706
G1 F1800 X17.222 Y-39.485 E107.91079
G0 F9000 X17.536 Y-39.171
G1 F1800 X43.321 Y-13.386 E109.72552
G0 F9000 X43.321 Y-12.822
G1 F1800 X16.001 Y-40.142 E111.64827
G0 F9000 X16.001 Y-39.578
G1 F1800 X43.321 Y-12.258 E113.57102
G0 F9000 X43.321 Y-11.694
G1 F1800 X15.843 Y-39.172 E115.50490
G0 F9000 X15.279 Y-39.172
G1 F1800 X43.321 Y-11.129 E117.47850
G0 F9000 X43.321 Y-10.565
G1 F1800 X14.714 Y-39.172 E119.49183
G0 F9000 X14.150 Y-39.172
G1 F1800 X43.321 Y-10.001 E121.54486
G0 F9000 X43.321 Y-9.437
G1 F1800 X13.586 Y-39.172 E123.63758
G0 F9000 X13.022 Y-39.172
G1 F1800 X43.321 Y-8.872 E125.77003
G0 F9000 X43.321 Y-8.308
G1 F1800 X12.457 Y-39.172 E127.94221
G0 F9000 X11.893 Y-39.172
G1 F1800 X43.321 Y-7.744 E130.15408
G0 F9000 X43.321 Y-7.179
G1 F1800 X11.677 Y-38.824 E132.38119
G0 F9000 X11.677 Y-38.260
G1 F1800 X43.321 Y-6.615 E134.60830
G0 F9000 X43.321 Y-6.051
G1 F1800 X11.677 Y-37.695 E136.83537
G0 F9000 X11.677 Y-37.131
G1 F1800 X43.321 Y-5.487 E139.06244
G0 F9000 X43.321 Y-4.922
G1 F1800 X11.677 Y-36.567 E141.28955
G0 F9000 X11.677 Y-36.003
G1 F1800 X43.321 Y-4.358 E143.51666
G0 F9000 X43.321 Y-3.794
G1 F1800 X11.677 Y-35.438 E145.74373
G0 F9000 X11.677 Y-34.874
G1 F1800 X43.321 Y-3.230 E147.97081
G0 F9000 X43.321 Y-2.665
G1 F1800 X11.677 Y-34.310 E150.19792
G0 F9000 X11.677 Y-33.745
G1 F1800 X43.321 Y-2.101 E152.42499
G0 F9000 X43.321 Y-1.537
G1 F1800 X11.677 Y-33.181 E154.65206
G0 F9000 X11.122 Y-33.171
G1 F1800 X43.321 Y-0.972 E156.91820
G0 F9000 X43.321 Y-0.408
G1 F1800 X10.558 Y-33.171 E159.22402
G0 F9000 X9.994 Y-33.171
G1 F1800 X43.321 Y0.155 E161.56951
G0 F9000 X43.321 Y0.719
G1 F1800 X9.429 Y-33.171 E163.95473
G0 F9000 X8.865 Y-33.171
G1 F1800 X43.321 Y1.284 E166.37967
G0 F9000 X43.321 Y1.848
G1 F1800 X8.301 Y-33.171 E168.84431
G0 F9000 X7.737 Y-33.171
G1 F1800 X43.321 Y2.412 E171.34864
G0 F9000 X43.321 Y2.976
G1 F1800 X7.172 Y-33.171 E173.89270
G0 F9000 X6.608 Y-33.171
G1 F1800 X43.321 Y3.541 E176.47649
G0 F9000 X43.321 Y4.105
G1 F1800 X6.044 Y-33.171 E179.09997
G0 F9000 X5.480 Y-33.171
G1 F1800 X43.321 Y4.669 E181.76315
G0 F9000 X43.321 Y5.234
G1 F1800 X4.915 Y-33.171 E184.46609
G0 F9000 X4.351 Y-33.171
G1 F1800 X43.321 Y5.798 E187.20873
G0 F9000 X43.321 Y6.362
G1 F1800 X3.787 Y-33.171 E189.99105
G0 F9000 X3.222 Y-33.171
G1 F1800 X43.321 Y6.926 E192.81311
G0 F9000 X43.321 Y7.491
G1 F1800 X2.658 Y-33.171 E195.67490
G0 F9000 X2.094 Y-33.171
G1 F1800 X43.321 Y8.055 E198.57638
G0 F9000 X43.321 Y8.619
G1 F1800 X1.530 Y-33.171 E201.51755
G0 F9000 X0.965 Y-33.171
G1 F1800 X43.321 Y9.183 E204.49846
G0 F9000 X43.321 Y9.748
G1 F1800 X0.401 Y-33.171 E207.51909
G0 F9000 X-0.162 Y-33.171
G1 F1800 X43.321 Y10.312 E210.57938
G0 F9000 X43.321 Y10.876
G1 F1800 X-0.726 Y-33.171 E213.67936
G0 F9000 X-1.291 Y-33.171
G1 F1800 X43.321 Y11.440 E216.81908
G0 F9000 X43.321 Y12.005
G1 F1800 X-1.855 Y-33.171 E219.99852
G0 F9000 X-2.419 Y-33.171
G1 F1800 X43.321 Y12.569 E223.21766
G0 F9000 X43.321 Y13.133
G1 F1800 X-17.321 Y-47.509 E227.48558
G0 F9000 X-17.321 Y-46.945
G1 F1800 X43.321 Y13.698 E231.75354
G0 F9000 X43.321 Y14.262
G1 F1800 X-17.321 Y-46.381 E236.02150
G0 F9000 X-17.321 Y-45.816
G1 F1800 X43.321 Y14.826 E240.28942
G0 F9000 X43.321 Y15.390
G1 F1800 X-13.034 Y-40.964 E244.25560
G0 F9000 X-13.396 Y-41.326
G1 F1800 X-17.321 Y-45.252 E244.53187
G0 F9000 X-17.321 Y-44.688
G1 F1800 X-13.960 Y-41.326 E244.76845
G0 F9000 X-14.524 Y-41.326
G1 F1800 X-17.321 Y-44.124 E244.96533
G0 F9000 X-17.321 Y-43.559
G1 F1800 X-15.088 Y-41.326 E245.12249
G0 F9000 X-15.653 Y-41.326
G1 F1800 X-17.321 Y-42.995 E245.23992
G0 F9000 X-17.321 Y-42.431
G1 F1800 X-16.217 Y-41.326 E245.31765
G0 F9000 X-17.321 Y-41.867
G1 F1800 X-16.781 Y-41.326 E245.35569
G0 F9000 X-13.571 Y-40.790
G0 X-13.034 Y-40.400
G1 F1800 X43.321 Y15.955 E249.32190
G0 F9000 X43.321 Y16.519
G1 F1800 X-13.034 Y-39.836 E253.28811
G0 F9000 X-13.034 Y-39.272
G1 F1800 X43.321 Y17.083 E257.25432
G0 F9000 X43.321 Y17.647
G1 F1800 X-13.034 Y-38.707 E261.22049
G0 F9000 X-13.034 Y-38.143
G1 F1800 X43.321 Y18.212 E265.18670
G0 F9000 X43.321 Y18.776
G1 F1800 X-13.034 Y-37.579 E269.15291
G0 F9000 X-13.191 Y-37.171
G1 F1800 X43.321 Y19.340 E273.13013
G0 F9000 X43.321 Y19.905
G1 F1800 X-13.755 Y-37.171 E277.14709
G0 F9000 X-14.319 Y-37.171
G1 F1800 X43.321 Y20.469 E281.20373
G0 F9000 X43.321 Y21.033
G1 F1800 X-14.883 Y-37.171 E285.30007
G0 F9000 X-15.448 Y-37.171
G1 F1800 X43.321 Y21.597 E289.43614
G0 F9000 X43.321 Y22.162
G1 F1800 X-16.012 Y-37.171 E293.61194
G0 F9000 X-16.576 Y-37.171
G1 F1800 X43.321 Y22.726 E297.82743
G0 F9000 X43.321 Y23.290
G1 F1800 X-17.140 Y-37.171 E302.08262
G0 F9000 X-17.321 Y-36.788
G1 F1800 X43.321 Y23.854 E306.35054
G0 F9000 X43.321 Y24.419
G1 F1800 X-17.321 Y-36.224 E310.61850
G0 F9000 X-17.321 Y-35.660
G1 F1800 X43.321 Y24.983 E314.88646
G0 F9000 X43.321 Y25.547
G1 F1800 X-17.321 Y-35.095 E319.15438
G0 F9000 X-17.321 Y-34.531
G1 F1800 X43.321 Y26.112 E323.42234
G0 F9000 X43.321 Y26.676
G1 F1800 X-17.321 Y-33.967 E327.69030
G0 F9000 X-17.321 Y-33.403
G1 F1800 X43.321 Y27.240 E331.95826
G0 F9000 X43.321 Y27.804
G1 F1800 X-17.655 Y-33.171 E336.24966
G0 F9000 X-18.219 Y-33.171
G1 F1800 X43.321 Y28.369 E340.58078
G0 F9000 X43.321 Y28.933
G1 F1800 X-18.783 Y-33.171 E344.95160
G0 F9000 X-19.347 Y-33.171
G1 F1800 X43.321 Y29.497 E349.36211
G0 F9000 X43.321 Y30.061
G1 F1800 X-19.912 Y-33.171 E353.81235
G0 F9000 X-20.476 Y-33.171
G1 F1800 X43.321 Y30.626 E358.30232
G0 F9000 X43.321 Y31.190
G1 F1800 X-21.040 Y-33.171 E362.83199
G0 F9000 X-21.604 Y-33.171
G1 F1800 X43.321 Y31.754 E367.40134
G0 F9000 X43.321 Y32.319
G1 F1800 X-22.169 Y-33.171 E372.01047
G0 F9000 X-22.733 Y-33.171
G1 F1800 X43.321 Y32.883 E376.65928
G0 F9000 X43.321 Y33.447
G1 F1800 X-23.297 Y-33.171 E381.34779
G0 F9000 X-23.862 Y-33.171
G1 F1800 X43.321 Y34.011 E386.07603
G0 F9000 X43.321 Y34.576
G1 F1800 X-24.426 Y-33.171 E390.84399
G0 F9000 X-24.990 Y-33.171
G1 F1800 X43.321 Y35.140 E395.65166
G0 F9000 X43.321 Y35.704
G1 F1800 X-25.554 Y-33.171 E400.49901
G0 F9000 X-26.119 Y-33.171
G1 F1800 X43.321 Y36.268 E405.38609
G0 F9000 X43.321 Y36.833
G1 F1800 X-26.683 Y-33.171 E410.31291
G0 F9000 X-27.247 Y-33.171
G1 F1800 X43.321 Y37.397 E415.27941
G0 F9000 X43.321 Y37.961
G1 F1800 X-27.811 Y-33.171 E420.28561
G0 F9000 X-28.376 Y-33.171
G1 F1800 X43.321 Y38.526 E425.33158
G0 F9000 X43.321 Y39.090
G1 F1800 X-28.940 Y-33.171 E430.41723
G0 F9000 X-29.504 Y-33.171
G1 F1800 X43.321 Y39.654 E435.54259
G0 F9000 X43.321 Y40.218
G1 F1800 X-30.069 Y-33.171 E440.70767
G0 F9000 X-30.633 Y-33.171
G1 F1800 X43.321 Y40.783 E445.91248
G0 F9000 X43.321 Y41.347
G1 F1800 X-31.197 Y-33.171 E451.15698
G0 F9000 X-31.476 Y-33.450
G1 F1800 X-43.321 Y-45.295 E451.99062
G0 F9000 X-43.321 Y-44.731
G1 F1800 X43.321 Y41.911 E458.08840
G0 F9000 X43.321 Y42.475
G1 F1800 X-43.321 Y-44.167 E464.18617
G0 F9000 X-43.321 Y-43.603
G1 F1800 X43.321 Y43.040 E470.28399
G0 F9000 X43.321 Y43.604
G1 F1800 X-43.321 Y-43.038 E476.38177
G0 F9000 X-43.321 Y-42.474
G1 F1800 X43.321 Y44.168 E482.47955
G0 F9000 X43.321 Y44.732
G1 F1800 X-43.321 Y-41.910 E488.57732
G0 F9000 X-43.321 Y-41.345
G1 F1800 X43.321 Y45.297 E494.67510
G0 F9000 X43.321 Y45.861
G1 F1800 X-43.321 Y-40.781 E500.77288
G0 F9000 X-43.321 Y-40.217
G1 F1800 X43.321 Y46.425 E506.87066
G0 F9000 X43.321 Y46.990
G1 F1800 X-43.321 Y-39.653 E512.96847
G0 F9000 X-43.321 Y-39.088
G1 F1800 X43.321 Y47.554 E519.06625
G0 F9000 X43.321 Y48.118
G1 F1800 X-43.321 Y-38.524 E525.16403
G0 F9000 X-43.321 Y-37.960
G1 F1800 X43.321 Y48.682 E531.26181
G0 F9000 X43.321 Y49.247
G1 F1800 X-43.321 Y-37.396 E537.35962
G0 F9000 X-43.321 Y-36.831
G1 F1800 X43.321 Y49.811 E543.45740
G0 F9000 X43.321 Y50.375
G1 F1800 X-43.321 Y-36.267 E549.55518
G0 F9000 X-43.321 Y-35.703
G1 F1800 X43.202 Y50.821 E555.64462
G0 F9000 X42.638 Y50.821
G1 F1800 X-43.321 Y-35.138 E561.69433
G0 F9000 X-43.321 Y-34.574
G1 F1800 X42.074 Y50.821 E567.70434
G0 F9000 X41.509 Y50.821
G1 F1800 X-43.321 Y-34.010 E573.67463
G0 F9000 X-43.321 Y-33.446
G1 F1800 X40.945 Y50.821 E579.60522
G0 F9000 X40.381 Y50.821
G1 F1800 X-43.321 Y-32.881 E585.49609
G0 F9000 X-43.321 Y-32.317
G1 F1800 X39.817 Y50.821 E591.34726
G0 F9000 X39.252 Y50.821
G1 F1800 X-43.321 Y-31.753 E597.15870
G0 F9000 X-43.321 Y-31.189
G1 F1800 X38.688 Y50.821 E602.93045
