;Generated with Cura_SteamEngine 14.09
; Default start code
G28 ; Home extruder
G1 Z15 F1200
M107 ; Turn off fan
G90 ; Absolute positioning
M82 ; Extruder in absolute mode
M190 S50
; Activate all used extruder
M104 T0 S210
G92 E0 ; Reset extruder position
; Wait for all used extruders to reach temperature
M109 T0 S210
;Layer count: 115
;LAYER:-2
;RAFT
G0 F9000 X16.999 Y43.000 Z0.300
;TYPE:SUPPORT
G1 F1800 X16.999 Y-43.999 E7.59570
G1 X42.500 Y-43.999 E9.82213
G1 X42.500 Y-46.122 E10.00749
G1 X42.576 Y-47.045 E10.08835
G1 X42.603 Y-47.333 E10.11360
G1 X42.855 Y-48.336 E10.20389
G1 X42.931 Y-48.620 E10.22956
G1 X43.433 Y-49.763 E10.33855
G1 X44.140 Y-50.865 E10.45287
G1 X44.775 Y-51.567 E10.53551
G1 X45.072 Y-51.891 E10.57388
G1 X45.891 Y-52.528 E10.66447
G1 X46.110 Y-52.701 E10.68884
G1 X47.027 Y-53.197 E10.77986
G1 X47.283 Y-53.335 E10.80525
G1 X48.241 Y-53.664 E10.89369
G1 X48.524 Y-53.763 E10.91986
G1 X49.785 Y-53.973 E11.03148
G1 X50.857 Y-53.982 E11.12507
G1 X51.160 Y-53.982 E11.15153
G1 X52.412 Y-53.773 E11.26235
G1 X53.438 Y-53.431 E11.35677
G1 X53.725 Y-53.330 E11.38334
G1 X54.624 Y-52.844 E11.47256
G1 X54.879 Y-52.706 E11.49788
G1 X55.702 Y-52.067 E11.58885
G1 X55.931 Y-51.886 E11.61433
G1 X56.821 Y-50.920 E11.72901
G1 X57.515 Y-49.857 E11.83984
G1 X58.052 Y-48.661 E11.95431
G1 X58.318 Y-47.640 E12.04642
G1 X58.399 Y-47.337 E12.07381
G1 X58.495 Y-46.165 E12.17648
G1 X58.497 Y-43.999 E12.36558
G1 X84.000 Y-43.999 E14.59220
G1 X84.000 Y43.000 E22.18789
G1 X58.499 Y43.000 E24.41433
G1 X58.499 Y45.123 E24.59968
G1 X58.423 Y46.046 E24.68054
G1 X58.396 Y46.334 E24.70580
G1 X58.091 Y47.547 E24.81500
G1 X57.572 Y48.753 E24.92963
G1 X56.858 Y49.866 E25.04508
G1 X55.970 Y50.846 E25.16054
G1 X55.126 Y51.513 E25.25446
G1 X54.889 Y51.701 E25.28087
G1 X53.972 Y52.197 E25.37190
G1 X53.718 Y52.334 E25.39709
G1 X52.758 Y52.665 E25.48575
G1 X52.473 Y52.764 E25.51209
G1 X51.212 Y52.973 E25.62369
G1 X50.142 Y52.982 E25.71711
G1 X49.841 Y52.982 E25.74339
G1 X48.587 Y52.775 E25.85436
G1 X47.559 Y52.430 E25.94903
G1 X47.274 Y52.330 E25.97540
G1 X46.375 Y51.844 E26.06462
G1 X46.120 Y51.706 E26.08994
G1 X45.297 Y51.067 E26.18091
G1 X45.069 Y50.887 E26.20627
G1 X44.215 Y49.960 E26.31631
G1 X43.489 Y48.868 E26.43080
G1 X42.947 Y47.661 E26.54632
G1 X42.676 Y46.620 E26.64024
G1 X42.601 Y46.348 E26.66487
G1 X42.504 Y45.166 E26.76841
G1 X42.502 Y43.000 E26.95752
G1 X16.999 Y43.000 E29.18414
G0 F9000 X17.150 Y43.210
G1 F1800 X17.150 Y-44.209 E36.81650
G0 F9000 X17.850 Y-44.209
G1 F1800 X17.850 Y43.210 E44.44887
G0 F9000 X18.550 Y43.210
G1 F1800 X18.550 Y-44.209 E52.08123
G0 F9000 X19.250 Y-44.209
G1 F1800 X19.250 Y43.210 E59.71360
G0 F9000 X19.950 Y43.210
G1 F1800 X19.950 Y-44.209 E67.34596
G0 F9000 X20.650 Y-44.209
G1 F1800 X20.650 Y43.210 E74.97833
G0 F9000 X21.350 Y43.210
G1 F1800 X21.350 Y-44.209 E82.61069
G0 F9000 X22.050 Y-44.209
G1 F1800 X22.050 Y43.210 E90.24306
G0 F9000 X22.750 Y43.210
G1 F1800 X22.750 Y-44.209 E97.87542
G0 F9000 X23.450 Y-44.209
G1 F1800 X23.450 Y43.210 E105.50779
G0 F9000 X24.150 Y43.210
G1 F1800 X24.150 Y-44.209 E113.14015
G0 F9000 X24.850 Y-44.209
G1 F1800 X24.850 Y43.210 E120.77252
G0 F9000 X25.550 Y43.210
G1 F1800 X25.550 Y-44.209 E128.40488
G0 F9000 X26.250 Y-44.209
G1 F1800 X26.250 Y43.210 E136.03725
G0 F9000 X26.950 Y43.210
G1 F1800 X26.950 Y-44.209 E143.66962
G0 F9000 X27.650 Y-44.209
G1 F1800 X27.650 Y43.210 E151.30198
G0 F9000 X28.350 Y43.210
G1 F1800 X28.350 Y-44.209 E158.93435
G0 F9000 X29.050 Y-44.209
G1 F1800 X29.050 Y43.210 E166.56671
G0 F9000 X29.750 Y43.210
G1 F1800 X29.750 Y-44.209 E174.19908
G0 F9000 X30.450 Y-44.209
G1 F1800 X30.450 Y43.210 E181.83144
G0 F9000 X31.150 Y43.210
G1 F1800 X31.150 Y-44.209 E189.46381
G0 F9000 X31.850 Y-44.209
G1 F1800 X31.850 Y43.210 E197.09617
G0 F9000 X32.550 Y43.210
G1 F1800 X32.550 Y-44.209 E204.72854
G0 F9000 X33.250 Y-44.209
G1 F1800 X33.250 Y43.210 E212.36090
G0 F9000 X33.950 Y43.210
G1 F1800 X33.950 Y-44.209 E219.99327
G0 F9000 X34.650 Y-44.209
G1 F1800 X34.650 Y43.210 E227.62563
G0 F9000 X35.350 Y43.210
G1 F1800 X35.350 Y-44.209 E235.25800
G0 F9000 X36.050 Y-44.209
G1 F1800 X36.050 Y43.210 E242.89036
G0 F9000 X36.750 Y43.210
G1 F1800 X36.750 Y-44.209 E250.52273
G0 F9000 X37.450 Y-44.209
G1 F1800 X37.450 Y43.210 E258.15510
G0 F9000 X38.150 Y43.210
G1 F1800 X38.150 Y-44.209 E265.78746
G0 F9000 X38.850 Y-44.209
G1 F1800 X38.850 Y43.210 E273.41983
G0 F9000 X39.550 Y43.210
G1 F1800 X39.550 Y-44.209 E281.05219
G0 F9000 X40.250 Y-44.209
G1 F1800 X40.250 Y43.210 E288.68456
G0 F9000 X40.950 Y43.210
G1 F1800 X40.950 Y-44.209 E296.31692
G0 F9000 X41.650 Y-44.209
G1 F1800 X41.650 Y43.210 E303.94929
G0 F9000 X42.350 Y45.859
G1 F1800 X42.350 Y-46.858 E312.04421
G0 F9000 X43.050 Y-49.415
G1 F1800 X43.050 Y48.402 E320.58440
G0 F9000 X43.750 Y49.639
G1 F1800 X43.750 Y-50.646 E329.34007
G0 F9000 X44.450 Y-51.521
G1 F1800 X44.450 Y50.525 E338.24949
G0 F9000 X45.150 Y51.217
G1 F1800 X45.150 Y-52.218 E347.28018
G0 F9000 X45.850 Y-52.764
G1 F1800 X45.850 Y51.761 E356.40603
G0 F9000 X46.550 Y52.177
G1 F1800 X46.550 Y-53.178 E365.60435
G0 F9000 X47.250 Y-53.546
G1 F1800 X47.250 Y52.544 E374.86684
G0 F9000 X47.950 Y52.782
G1 F1800 X47.950 Y-53.787 E384.17115
G0 F9000 X48.650 Y-53.997
G1 F1800 X48.650 Y52.997 E393.51257
G0 F9000 X49.350 Y53.113
G1 F1800 X49.350 Y-54.114 E402.87433
G0 F9000 X50.050 Y-54.186
G1 F1800 X50.050 Y53.192 E412.24927
G0 F9000 X50.750 Y53.187
G1 F1800 X50.750 Y-54.192 E421.62430
G0 F9000 X51.450 Y-54.146
G1 F1800 X51.450 Y53.147 E430.99182
G0 F9000 X52.150 Y53.031
G1 F1800 X52.150 Y-54.029 E440.33900
G0 F9000 X52.850 Y-53.848
G1 F1800 X52.850 Y52.856 E449.65510
G0 F9000 X53.550 Y52.615
G1 F1800 X53.550 Y-53.614 E458.92972
G0 F9000 X54.250 Y-53.284
G1 F1800 X54.250 Y52.286 E468.14681
G0 F9000 X54.950 Y51.907
G1 F1800 X54.950 Y-52.905 E477.29772
G0 F9000 X55.650 Y-52.373
G1 F1800 X55.650 Y51.367 E486.35504
G0 F9000 X56.350 Y50.740
G1 F1800 X56.350 Y-51.740 E495.30235
G0 F9000 X57.050 Y-50.952
G1 F1800 X57.050 Y49.956 E504.11241
G0 F9000 X57.750 Y48.865
G1 F1800 X57.750 Y-49.846 E512.73066
G0 F9000 X58.450 Y-47.966
G1 F1800 X58.450 Y46.983 E521.02045
G0 F9000 X59.150 Y43.210
G1 F1800 X59.150 Y-44.209 E528.65281
G0 F9000 X59.850 Y-44.209
G1 F1800 X59.850 Y43.210 E536.28518
G0 F9000 X60.550 Y43.210
G1 F1800 X60.550 Y-44.209 E543.91754
G0 F9000 X61.250 Y-44.209
G1 F1800 X61.250 Y43.210 E551.54991
G0 F9000 X61.950 Y43.210
G1 F1800 X61.950 Y-44.209 E559.18228
G0 F9000 X62.650 Y-44.209
G1 F1800 X62.650 Y43.210 E566.81464
G0 F9000 X63.350 Y43.210
G1 F1800 X63.350 Y-44.209 E574.44701
G0 F9000 X64.050 Y-44.209
G1 F1800 X64.050 Y43.210 E582.07937
G0 F9000 X64.750 Y43.210
G1 F1800 X64.750 Y-44.209 E589.71174
G0 F9000 X65.450 Y-44.209
G1 F1800 X65.450 Y43.210 E597.34410
G0 F9000 X66.150 Y43.210
G1 F1800 X66.150 Y-44.209 E604.97647
G0 F9000 X66.850 Y-44.209
G1 F1800 X66.850 Y43.210 E612.60883
G0 F9000 X67.550 Y43.210
G1 F1800 X67.550 Y-44.209 E620.24120
G0 F9000 X68.250 Y-44.209
G1 F1800 X68.250 Y43.210 E627.87356
G0 F9000 X68.950 Y43.210
G1 F1800 X68.950 Y-44.209 E635.50593
G0 F9000 X69.650 Y-44.209
G1 F1800 X69.650 Y43.210 E643.13829
G0 F9000 X70.350 Y43.210
G1 F1800 X70.350 Y-44.209 E650.77066
G0 F9000 X71.050 Y-44.209
G1 F1800 X71.050 Y43.210 E658.40302
G0 F9000 X71.750 Y43.210
G1 F1800 X71.750 Y-44.209 E666.03539
G0 F9000 X72.450 Y-44.209
G1 F1800 X72.450 Y43.210 E673.66776
G0 F9000 X73.150 Y43.210
G1 F1800 X73.150 Y-44.209 E681.30012
G0 F9000 X73.850 Y-44.209
G1 F1800 X73.850 Y43.210 E688.93249
G0 F9000 X74.550 Y43.210
G1 F1800 X74.550 Y-44.209 E696.56485
G0 F9000 X75.250 Y-44.209
G1 F1800 X75.250 Y43.210 E704.19722
G0 F9000 X75.950 Y43.210
G1 F1800 X75.950 Y-44.209 E711.82958
G0 F9000 X76.650 Y-44.209
G1 F1800 X76.650 Y43.210 E719.46195
G0 F9000 X77.350 Y43.210
G1 F1800 X77.350 Y-44.209 E727.09431
G0 F9000 X78.050 Y-44.209
G1 F1800 X78.050 Y43.210 E734.72668
G0 F9000 X78.750 Y43.210
G1 F1800 X78.750 Y-44.209 E742.35904
G0 F9000 X79.450 Y-44.209
G1 F1800 X79.450 Y43.210 E749.99141
G0 F9000 X80.150 Y43.210
G1 F1800 X80.150 Y-44.209 E757.62377
G0 F9000 X80.850 Y-44.209
G1 F1800 X80.850 Y43.210 E765.25614
G0 F9000 X81.550 Y43.210
G1 F1800 X81.550 Y-44.209 E772.88850
G0 F9000 X82.250 Y-44.209
G1 F1800 X82.250 Y43.210 E780.52087
G0 F9000 X82.950 Y43.210
G1 F1800 X82.950 Y-44.209 E788.15324
G0 F9000 X83.650 Y-44.209
G1 F1800 X83.650 Y43.210 E795.78560
M106 S255
;LAYER:-1
;RAFT
G0 F9000 X83.506 Y43.059 Z0.500
;TYPE:SUPPORT
G1 F3060 X16.938 Y-23.507 E797.35115
G0 F9000 X16.938 Y-22.942
G1 F3060 X82.940 Y43.059 E798.90341
G0 F9000 X82.375 Y43.059
G1 F3060 X16.938 Y-22.376 E800.44236
G0 F9000 X16.938 Y-21.810
G1 F3060 X81.809 Y43.059 E801.96801
G0 F9000 X81.243 Y43.059
G1 F3060 X16.938 Y-21.245 E803.48035
G0 F9000 X16.938 Y-20.679
G1 F3060 X80.678 Y43.059 E804.97939
G0 F9000 X80.112 Y43.059
G1 F3060 X16.938 Y-20.113 E806.46513
G0 F9000 X16.938 Y-19.547
G1 F3060 X79.546 Y43.059 E807.93755
G0 F9000 X78.980 Y43.059
G1 F3060 X16.938 Y-18.982 E809.39667
G0 F9000 X16.938 Y-18.416
G1 F3060 X78.415 Y43.059 E810.84249
G0 F9000 X77.849 Y43.059
G1 F3060 X16.938 Y-17.850 E812.27500
G0 F9000 X16.938 Y-17.285
G1 F3060 X77.283 Y43.059 E813.69421
G0 F9000 X76.718 Y43.059
G1 F3060 X16.938 Y-16.719 E815.10012
G0 F9000 X16.938 Y-16.153
G1 F3060 X76.152 Y43.059 E816.49272
G0 F9000 X75.586 Y43.059
G1 F3060 X16.938 Y-15.588 E817.87202
G0 F9000 X16.938 Y-15.022
G1 F3060 X75.021 Y43.059 E819.23802
G0 F9000 X74.455 Y43.059
G1 F3060 X16.938 Y-14.456 E820.59070
G0 F9000 X16.938 Y-13.891
G1 F3060 X73.889 Y43.059 E821.93009
G0 F9000 X73.324 Y43.059
G1 F3060 X16.938 Y-13.325 E823.25618
G0 F9000 X16.938 Y-12.759
G1 F3060 X72.758 Y43.059 E824.56896
G0 F9000 X72.192 Y43.059
G1 F3060 X16.938 Y-12.194 E825.86844
G0 F9000 X16.938 Y-11.628
G1 F3060 X71.627 Y43.059 E827.15461
G0 F9000 X71.061 Y43.059
G1 F3060 X16.938 Y-11.062 E828.42748
G0 F9000 X16.938 Y-10.497
G1 F3060 X70.495 Y43.059 E829.68705
G0 F9000 X69.930 Y43.059
G1 F3060 X16.938 Y-9.931 E830.93331
G0 F9000 X16.938 Y-9.365
G1 F3060 X69.364 Y43.059 E832.16627
G0 F9000 X68.798 Y43.059
G1 F3060 X16.938 Y-8.799 E833.38591
G0 F9000 X16.938 Y-8.234
G1 F3060 X68.232 Y43.059 E834.59226
G0 F9000 X67.667 Y43.059
G1 F3060 X16.938 Y-7.668 E835.78530
G0 F9000 X16.938 Y-7.102
G1 F3060 X67.101 Y43.059 E836.96504
G0 F9000 X66.535 Y43.059
G1 F3060 X16.938 Y-6.537 E838.13147
G0 F9000 X16.938 Y-5.971
G1 F3060 X65.970 Y43.059 E839.28460
G0 F9000 X65.404 Y43.059
G1 F3060 X16.938 Y-5.405 E840.42443
G0 F9000 X16.938 Y-4.840
G1 F3060 X64.838 Y43.059 E841.55095
G0 F9000 X64.273 Y43.059
G1 F3060 X16.938 Y-4.274 E842.66417
G0 F9000 X16.938 Y-3.708
G1 F3060 X63.707 Y43.059 E843.76408
G0 F9000 X63.141 Y43.059
G1 F3060 X16.938 Y-3.143 E844.85070
G0 F9000 X16.938 Y-2.577
G1 F3060 X62.576 Y43.059 E845.92401
G0 F9000 X62.010 Y43.059
G1 F3060 X16.938 Y-2.011 E846.98401
G0 F9000 X16.938 Y-1.446
G1 F3060 X61.444 Y43.059 E848.03071
G0 F9000 X60.879 Y43.059
G1 F3060 X16.938 Y-0.880 E849.06411
G0 F9000 X16.938 Y-0.314
G1 F3060 X60.313 Y43.059 E850.08420
G0 F9000 X59.747 Y43.059
G1 F3060 X16.938 Y0.251 E851.09099
G0 F9000 X16.938 Y0.816
G1 F3060 X59.182 Y43.059 E852.08450
G0 F9000 X58.616 Y43.059
G1 F3060 X16.938 Y1.382 E853.06469
G0 F9000 X16.938 Y1.948
G1 F3060 X58.558 Y43.567 E854.04351
G0 F9000 X58.558 Y44.133
G1 F3060 X16.938 Y2.513 E855.02235
G0 F9000 X16.938 Y3.079
G1 F3060 X58.558 Y44.699 E856.00119
G0 F9000 X58.547 Y45.254
G1 F3060 X16.938 Y3.645 E856.97977
G0 F9000 X16.938 Y4.210
G1 F3060 X58.503 Y45.775 E857.95732
G0 F9000 X58.458 Y46.296
G1 F3060 X16.938 Y4.776 E858.93380
G0 F9000 X16.938 Y5.342
G1 F3060 X58.351 Y46.755 E859.90777
G0 F9000 X58.238 Y47.207
G1 F3060 X16.938 Y5.907 E860.87908
G0 F9000 X16.938 Y6.473
G1 F3060 X58.112 Y47.647 E861.84743
G0 F9000 X57.942 Y48.042
G1 F3060 X16.938 Y7.039 E862.81177
G0 F9000 X16.938 Y7.604
G1 F3060 X57.772 Y48.438 E863.77213
G0 F9000 X57.595 Y48.827
G1 F3060 X16.938 Y8.170 E864.72832
G0 F9000 X16.938 Y8.736
G1 F3060 X57.374 Y49.172 E865.67931
G0 F9000 X57.153 Y49.516
G1 F3060 X16.938 Y9.301 E866.62510
G0 F9000 X16.938 Y9.867
G1 F3060 X56.932 Y49.861 E867.56570
G0 F9000 X56.669 Y50.164
G1 F3060 X16.938 Y10.433 E868.50011
G0 F9000 X16.938 Y10.999
G1 F3060 X56.400 Y50.460 E869.42819
G0 F9000 X56.131 Y50.757
G1 F3060 X16.938 Y11.564 E870.34995
G0 F9000 X16.938 Y12.130
G1 F3060 X55.835 Y51.027 E871.26475
G0 F9000 X55.519 Y51.277
G1 F3060 X16.938 Y12.696 E872.17211
G0 F9000 X16.938 Y13.261
G1 F3060 X55.203 Y51.526 E873.07205
G0 F9000 X54.882 Y51.771
G1 F3060 X16.938 Y13.827 E873.96443
G0 F9000 X16.938 Y14.393
G1 F3060 X54.515 Y51.970 E874.84818
G0 F9000 X54.148 Y52.168
G1 F3060 X16.938 Y14.958 E875.72331
G0 F9000 X16.938 Y15.524
G1 F3060 X53.781 Y52.366 E876.58979
G0 F9000 X53.366 Y52.517
G1 F3060 X16.938 Y16.090 E877.44650
G0 F9000 X16.938 Y16.655
G1 F3060 X52.946 Y52.663 E878.29336
G0 F9000 X52.525 Y52.808
G1 F3060 X16.938 Y17.221 E879.13031
G0 F9000 X16.938 Y17.787
G1 F3060 X42.210 Y43.059 E879.72467
G0 F9000 X42.442 Y43.291
G1 F3060 X52.045 Y52.894 E879.95052
G0 F9000 X51.560 Y52.975
G1 F3060 X42.442 Y43.856 E880.16497
G0 F9000 X42.443 Y44.423
G1 F3060 X51.053 Y53.033 E880.36746
G0 F9000 X50.490 Y53.036
G1 F3060 X42.443 Y44.988 E880.55673
G0 F9000 X42.478 Y45.589
G1 F3060 X49.928 Y53.040 E880.73195
G0 F9000 X49.269 Y52.946
G1 F3060 X42.528 Y46.205 E880.89049
G0 F9000 X42.694 Y46.937
G1 F3060 X48.592 Y52.835 E881.02920
G0 F9000 X47.741 Y52.550
G1 F3060 X42.905 Y47.713 E881.14295
G0 F9000 X43.365 Y48.739
G1 F3060 X46.727 Y52.101 E881.22202
G0 F9000 X41.645 Y43.059
G1 F3060 X16.938 Y18.352 E881.80309
G0 F9000 X16.938 Y18.918
G1 F3060 X41.079 Y43.059 E882.37085
G0 F9000 X40.513 Y43.059
G1 F3060 X16.938 Y19.484 E882.92530
G0 F9000 X16.938 Y20.050
G1 F3060 X39.947 Y43.059 E883.46643
G0 F9000 X39.382 Y43.059
G1 F3060 X16.938 Y20.615 E883.99428
G0 F9000 X16.938 Y21.181
G1 F3060 X38.816 Y43.059 E884.50882
G0 F9000 X38.250 Y43.059
G1 F3060 X16.938 Y21.747 E885.01004
G0 F9000 X16.938 Y22.312
G1 F3060 X37.685 Y43.059 E885.49798
G0 F9000 X37.119 Y43.059
G1 F3060 X16.938 Y22.878 E885.97261
G0 F9000 X16.938 Y23.444
G1 F3060 X36.553 Y43.059 E886.43392
G0 F9000 X35.988 Y43.059
G1 F3060 X16.938 Y24.009 E886.88195
G0 F9000 X16.938 Y24.575
G1 F3060 X35.422 Y43.059 E887.31666
G0 F9000 X34.856 Y43.059
G1 F3060 X16.938 Y25.141 E887.73807
G0 F9000 X16.938 Y25.706
G1 F3060 X34.291 Y43.059 E888.14618
G0 F9000 X33.725 Y43.059
G1 F3060 X16.938 Y26.272 E888.54099
G0 F9000 X16.938 Y26.838
G1 F3060 X33.159 Y43.059 E888.92248
G0 F9000 X32.594 Y43.059
G1 F3060 X16.938 Y27.403 E889.29069
G0 F9000 X16.938 Y27.969
G1 F3060 X32.028 Y43.059 E889.64558
G0 F9000 X31.462 Y43.059
G1 F3060 X16.938 Y28.535 E889.98716
G0 F9000 X16.938 Y29.100
G1 F3060 X30.897 Y43.059 E890.31546
G0 F9000 X30.331 Y43.059
G1 F3060 X16.938 Y29.666 E890.63044
G0 F9000 X16.938 Y30.232
G1 F3060 X29.765 Y43.059 E890.93211
G0 F9000 X29.199 Y43.059
G1 F3060 X16.938 Y30.798 E891.22047
G0 F9000 X16.938 Y31.363
G1 F3060 X28.634 Y43.059 E891.49554
G0 F9000 X28.068 Y43.059
G1 F3060 X16.938 Y31.929 E891.75730
G0 F9000 X16.938 Y32.495
G1 F3060 X27.502 Y43.059 E892.00575
G0 F9000 X26.937 Y43.059
G1 F3060 X16.938 Y33.060 E892.24091
G0 F9000 X16.938 Y33.626
G1 F3060 X26.371 Y43.059 E892.46276
G0 F9000 X25.805 Y43.059
G1 F3060 X16.938 Y34.192 E892.67130
G0 F9000 X16.938 Y34.757
G1 F3060 X25.240 Y43.059 E892.86655
G0 F9000 X24.674 Y43.059
G1 F3060 X16.938 Y35.323 E893.04849
G0 F9000 X16.938 Y35.889
G1 F3060 X24.108 Y43.059 E893.21712
G0 F9000 X23.543 Y43.059
G1 F3060 X16.938 Y36.454 E893.37246
G0 F9000 X16.938 Y37.020
G1 F3060 X22.977 Y43.059 E893.51449
G0 F9000 X22.411 Y43.059
G1 F3060 X16.938 Y37.586 E893.64320
G0 F9000 X16.938 Y38.151
G1 F3060 X21.846 Y43.059 E893.75863
G0 F9000 X21.280 Y43.059
G1 F3060 X16.938 Y38.717 E893.86075
G0 F9000 X16.938 Y39.283
G1 F3060 X20.714 Y43.059 E893.94955
G0 F9000 X20.149 Y43.059
G1 F3060 X16.938 Y39.849 E894.02506
G0 F9000 X16.938 Y40.414
G1 F3060 X19.583 Y43.059 E894.08727
G0 F9000 X19.017 Y43.059
G1 F3060 X16.938 Y40.980 E894.13616
G0 F9000 X16.938 Y41.546
