;Generated with Cura_SteamEngine 14.09
; Default start code
G28 ; Home extruder
G1 Z15 F1200
M107 ; Turn off fan
G90 ; Absolute positioning
M82 ; Extruder in absolute mode
M190 S50
; Activate all used extruder
M104 T0 S210
G92 E0 ; Reset extruder position
; Wait for all used extruders to reach temperature
M109 T0 S210
;Layer count: 20
;LAYER:0
M107
G0 F9000 X38.780 Y-2.817 Z0.300
G0 X40.570 Y-2.817
;TYPE:SKIRT
G1 F1800 X40.570 Y21.202 E1.19532
G1 X40.787 Y21.057 E1.20831
G1 X42.025 Y20.503 E1.27580
G1 X43.054 Y20.233 E1.32874
G1 X43.054 Y-2.457 E2.45792
G1 X43.226 Y-2.457 E2.46648
G1 X43.226 Y-22.049 E3.44149
G1 X42.314 Y-22.279 E3.48830
G1 X41.077 Y-22.810 E3.55529
G1 X39.937 Y-23.543 E3.62274
G1 X38.935 Y-24.452 E3.69006
G1 X38.780 Y-24.647 E3.70246
G1 X38.780 Y-2.817 E4.78884
G1 X40.570 Y-2.817 E4.87792
G0 F9000 X30.672 Y0.332
G1 F1800 X28.882 Y0.332 E4.96700
G1 X28.882 Y-22.357 E6.09613
G1 X27.970 Y-22.587 E6.14294
G1 X26.734 Y-23.116 E6.20984
G1 X26.159 Y-23.486 E6.24387
G1 X26.159 Y-2.213 E7.30253
G1 X26.621 Y-2.213 E7.32552
G1 X26.621 Y22.055 E8.53323
G1 X27.288 Y21.441 E8.57835
G1 X28.405 Y20.698 E8.64511
G1 X29.643 Y20.142 E8.71265
G1 X30.672 Y19.873 E8.76558
G1 X30.672 Y0.332 E9.73804
G0 F9000 X16.723 Y0.834
G1 F1800 X16.261 Y0.834 E9.76104
G1 X16.261 Y-21.855 E10.89017
G1 X15.573 Y-22.029 E10.92548
G1 X15.273 Y-22.109 E10.94093
G1 X14.101 Y-22.623 E11.00462
G1 X13.022 Y-23.317 E11.06847
G1 X13.022 Y1.068 E12.28200
G1 X12.460 Y1.068 E12.30997
G1 X12.460 Y22.854 E13.39416
G1 X13.338 Y22.045 E13.45357
G1 X14.458 Y21.299 E13.52054
G1 X15.696 Y20.746 E13.58802
G1 X16.723 Y20.477 E13.64085
G1 X16.723 Y0.834 E14.61839
G0 F9000 X3.124 Y-2.206
G1 F1800 X3.124 Y-21.621 E15.58459
G1 X2.211 Y-21.852 E15.63146
G1 X0.975 Y-22.382 E15.69838
G1 X-0.165 Y-23.115 E15.76583
G1 X-1.060 Y-23.927 E15.82597
G1 X-1.060 Y-2.633 E16.88568
G1 X-0.647 Y-2.633 E16.90623
G1 X-0.647 Y21.934 E18.12882
G1 X0.298 Y21.308 E18.18523
G1 X1.532 Y20.754 E18.25255
G1 X2.562 Y20.484 E18.30554
G1 X2.562 Y-2.206 E19.43471
G1 X3.124 Y-2.206 E19.46268
G0 F9000 X-10.545 Y1.453
G1 F1800 X-10.958 Y1.453 E19.48324
G1 X-10.958 Y-21.236 E20.61236
G1 X-11.648 Y-21.410 E20.64778
G1 X-11.946 Y-21.490 E20.66313
G1 X-13.115 Y-22.003 E20.72666
G1 X-14.248 Y-22.728 E20.79360
G1 X-14.441 Y-22.903 E20.80657
G1 X-14.441 Y1.430 E22.01751
G1 X-15.063 Y1.430 E22.04847
G1 X-15.063 Y22.732 E23.10857
G1 X-14.880 Y22.500 E23.12328
G1 X-13.929 Y21.624 E23.18762
G1 X-12.811 Y20.881 E23.25443
G1 X-11.576 Y20.327 E23.32179
G1 X-10.545 Y20.057 E23.37482
G1 X-10.545 Y1.453 E24.30066
G0 F9000 X-24.339 Y-3.440
G1 F1800 X-24.339 Y-21.259 E25.18743
G1 X-25.252 Y-21.490 E25.23430
G1 X-26.487 Y-22.020 E25.30118
G1 X-27.628 Y-22.752 E25.36864
G1 X-28.630 Y-23.662 E25.43600
G1 X-29.309 Y-24.516 E25.49030
G1 X-29.509 Y-24.771 E25.50643
G1 X-30.159 Y-25.973 E25.57443
G1 X-30.499 Y-26.965 E25.62662
G1 X-30.597 Y-27.244 E25.64134
G1 X-30.813 Y-28.536 E25.70652
G1 X-30.822 Y-29.626 E25.76077
G1 X-30.822 Y-29.947 E25.77675
G1 X-30.608 Y-31.230 E25.84148
G1 X-30.260 Y-32.273 E25.89619
G1 X-30.154 Y-32.576 E25.91217
G1 X-29.659 Y-33.490 E25.96390
G1 X-29.514 Y-33.759 E25.97911
G1 X-28.862 Y-34.596 E26.03191
G1 X-28.673 Y-34.836 E26.04711
G1 X-27.724 Y-35.710 E26.11131
G1 X-26.604 Y-36.456 E26.17828
G1 X-25.366 Y-37.009 E26.24576
G1 X-24.339 Y-37.278 E26.29859
G1 X-24.339 Y-59.968 E27.42777
G1 X-14.441 Y-59.968 E27.92035
G1 X-14.441 Y-35.598 E29.13313
G1 X-14.342 Y-35.689 E29.13983
G1 X-13.223 Y-36.431 E29.20664
G1 X-11.989 Y-36.985 E29.27396
G1 X-10.958 Y-37.255 E29.32700
G1 X-10.958 Y-59.945 E30.45618
G1 X-1.060 Y-59.945 E30.94876
G1 X-1.060 Y-35.336 E32.17343
G1 X-0.261 Y-36.072 E32.22750
G1 X0.859 Y-36.818 E32.29447
G1 X2.097 Y-37.371 E32.36194
G1 X3.124 Y-37.640 E32.41478
G1 X3.124 Y-60.330 E33.54395
G1 X13.022 Y-60.330 E34.03653
G1 X13.022 Y-36.403 E35.22727
G1 X13.994 Y-37.050 E35.28538
G1 X15.232 Y-37.606 E35.35292
G1 X16.261 Y-37.875 E35.40585
G1 X16.261 Y-60.564 E36.53498
G1 X26.159 Y-60.564 E37.02755
G1 X26.159 Y-37.248 E38.18789
G1 X26.615 Y-37.552 E38.21516
G1 X27.855 Y-38.107 E38.28277
G1 X28.882 Y-38.375 E38.33559
G1 X28.882 Y-61.066 E39.46482
G1 X38.780 Y-61.066 E39.95740
G1 X38.780 Y-35.484 E41.23050
G1 X38.892 Y-35.626 E41.23950
G1 X39.841 Y-36.500 E41.30370
G1 X40.959 Y-37.245 E41.37056
G1 X42.199 Y-37.800 E41.43817
G1 X43.226 Y-38.068 E41.49099
G1 X43.226 Y-60.759 E42.62022
G1 X53.124 Y-60.759 E43.11280
G1 X53.124 Y0.640 E46.16835
G1 X52.952 Y0.640 E46.17691
G1 X52.952 Y58.941 E49.07828
G1 X43.054 Y58.941 E49.57086
G1 X43.054 Y36.252 E50.69999
G1 X42.142 Y36.022 E50.74680
G1 X40.906 Y35.493 E50.81371
G1 X40.570 Y35.277 E50.83358
G1 X40.570 Y58.581 E51.99332
G1 X30.672 Y58.581 E52.48590
G1 X30.672 Y35.892 E53.61503
G1 X29.760 Y35.662 E53.66183
G1 X28.524 Y35.133 E53.72874
G1 X27.384 Y34.400 E53.79619
G1 X26.621 Y33.709 E53.84742
G1 X26.621 Y59.185 E55.11524
G1 X16.723 Y59.185 E55.60782
G1 X16.723 Y36.496 E56.73695
G1 X15.810 Y36.265 E56.78382
G1 X14.574 Y35.735 E56.85074
G1 X13.434 Y35.002 E56.91819
G1 X12.460 Y34.118 E56.98365
G1 X12.460 Y59.192 E58.23147
G1 X2.562 Y59.192 E58.72405
G1 X2.562 Y36.503 E59.85318
G1 X1.873 Y36.329 E59.88854
G1 X1.575 Y36.249 E59.90390
G1 X0.406 Y35.736 E59.96743
G1 X-0.647 Y35.062 E60.02965
G1 X-0.647 Y58.765 E61.20924
G1 X-10.545 Y58.765 E61.70182
G1 X-10.545 Y36.076 E62.83095
G1 X-11.235 Y35.902 E62.86636
G1 X-11.533 Y35.822 E62.88172
G1 X-12.703 Y35.309 E62.94529
G1 X-13.832 Y34.585 E63.01204
G1 X-14.838 Y33.674 E63.07958
G1 X-15.063 Y33.390 E63.09761
G1 X-15.063 Y57.957 E64.32020
G1 X-24.961 Y57.957 E64.81278
G1 X-24.961 Y35.268 E65.94191
G1 X-25.874 Y35.037 E65.98877
G1 X-27.110 Y34.507 E66.05570
G1 X-28.250 Y33.774 E66.12315
G1 X-29.252 Y32.865 E66.19047
G1 X-29.932 Y32.009 E66.24488
G1 X-30.131 Y31.756 E66.26090
G1 X-30.635 Y30.825 E66.31358
G1 X-30.781 Y30.554 E66.32890
G1 X-31.121 Y29.562 E66.38109
G1 X-31.219 Y29.283 E66.39581
G1 X-31.435 Y27.991 E66.46099
G1 X-31.444 Y26.901 E66.51524
G1 X-31.444 Y26.580 E66.53122
G1 X-31.230 Y25.297 E66.59595
G1 X-30.882 Y24.254 E66.65067
G1 X-30.776 Y23.951 E66.66664
G1 X-30.281 Y23.037 E66.71837
G1 X-30.136 Y22.768 E66.73358
G1 X-29.484 Y21.931 E66.78638
G1 X-29.295 Y21.691 E66.80158
G1 X-28.346 Y20.817 E66.86578
G1 X-27.226 Y20.071 E66.93275
G1 X-25.988 Y19.518 E67.00023
G1 X-24.961 Y19.249 E67.05306
G1 X-24.961 Y-3.440 E68.18219
G1 X-24.339 Y-3.440 E68.21315
G1 F2400 E64.21315
G0 F9000 X-6.349 Y1.563
;TYPE:WALL-INNER
G1 F2400 E68.21315
G1 F1800 X-4.843 Y1.563 E68.28809
G1 X-4.843 Y54.569 E70.92596
G1 X-6.349 Y54.569 E71.00091
G1 X-6.349 Y32.069 E72.12063
G1 X-8.802 Y32.069 E72.24271
G1 X-9.502 Y32.012 E72.27766
G1 X-10.143 Y31.850 E72.31056
G1 X-10.719 Y31.597 E72.34187
G1 X-11.274 Y31.241 E72.37468
G1 X-11.761 Y30.800 E72.40738
G1 X-12.196 Y30.251 E72.44224
G1 X-12.510 Y29.670 E72.47510
G1 X-12.724 Y29.046 E72.50793
G1 X-12.826 Y28.436 E72.53871
G1 X-12.832 Y27.731 E72.57380
G1 X-12.731 Y27.126 E72.60432
G1 X-12.507 Y26.456 E72.63948
G1 X-12.195 Y25.878 E72.67216
G1 X-11.791 Y25.359 E72.70490
G1 X-11.330 Y24.935 E72.73607
G1 X-10.779 Y24.569 E72.76898
G1 X-10.172 Y24.296 E72.80211
G1 X-9.500 Y24.121 E72.83666
G1 X-8.842 Y24.067 E72.86952
G1 X-7.418 Y24.063 E72.94039
G1 X-6.349 Y24.063 E72.99359
G1 X-6.349 Y1.563 E74.11331
G0 F9000 X-6.806 Y23.606
G0 X-9.134 Y24.931
G1 F1800 X-9.640 Y25.016 E74.13884
G1 X-10.148 Y25.197 E74.16568
G1 X-10.631 Y25.471 E74.19332
G1 X-11.045 Y25.810 E74.21994
G1 X-11.391 Y26.212 E74.24634
G1 X-11.659 Y26.647 E74.27177
G1 X-11.859 Y27.144 E74.29843
G1 X-11.972 Y27.666 E74.32501
G1 X-11.994 Y28.203 E74.35175
G1 X-11.920 Y28.754 E74.37942
G1 X-11.758 Y29.265 E74.40610
G1 X-11.515 Y29.739 E74.43261
G1 X-11.195 Y30.163 E74.45904
G1 X-10.823 Y30.520 E74.48470
G1 X-10.359 Y30.828 E74.51242
G1 X-9.875 Y31.041 E74.53873
G1 X-9.380 Y31.171 E74.56420
G1 X-8.843 Y31.217 E74.59102
G1 X-8.289 Y31.166 E74.61871
G1 X-7.776 Y31.028 E74.64515
G1 X-7.307 Y30.815 E74.67078
G1 X-6.852 Y30.504 E74.69821
G1 X-6.478 Y30.145 E74.72401
G1 X-6.150 Y29.694 E74.75176
G1 X-5.916 Y29.219 E74.77811
G1 X-5.767 Y28.730 E74.80355
G1 X-5.698 Y28.197 E74.83030
G1 X-5.725 Y27.645 E74.85780
G1 X-5.834 Y27.141 E74.88346
G1 X-6.046 Y26.624 E74.91127
G1 X-6.332 Y26.172 E74.93789
G1 X-6.683 Y25.779 E74.96411
G1 X-7.081 Y25.456 E74.98962
G1 X-7.548 Y25.196 E75.01622
G1 X-8.052 Y25.017 E75.04284
G1 X-8.584 Y24.926 E75.06970
G1 X-9.134 Y24.931 E75.09707
G0 F9000 X-9.099 Y25.329
G1 F1800 X-9.539 Y25.404 E75.11928
G1 X-9.982 Y25.561 E75.14267
G1 X-10.404 Y25.801 E75.16683
G1 X-10.765 Y26.097 E75.19006
G1 X-11.068 Y26.449 E75.21318
G1 X-11.302 Y26.828 E75.23534
G1 X-11.476 Y27.261 E75.25857
G1 X-11.574 Y27.717 E75.28178
G1 X-11.594 Y28.185 E75.30509
G1 X-11.529 Y28.667 E75.32929
G1 X-11.388 Y29.112 E75.35252
G1 X-11.175 Y29.526 E75.37569
G1 X-10.896 Y29.897 E75.39879
G1 X-10.572 Y30.208 E75.42114
G1 X-10.167 Y30.477 E75.44534
G1 X-9.743 Y30.663 E75.46838
G1 X-9.312 Y30.776 E75.49056
G1 X-8.844 Y30.816 E75.51393
G1 X-8.360 Y30.772 E75.53812
G1 X-7.912 Y30.651 E75.56121
G1 X-7.503 Y30.466 E75.58355
G1 X-7.105 Y30.193 E75.60757
G1 X-6.780 Y29.882 E75.62995
G1 X-6.493 Y29.487 E75.65425
G1 X-6.288 Y29.072 E75.67729
G1 X-6.158 Y28.645 E75.69950
G1 X-6.098 Y28.181 E75.72278
G1 X-6.122 Y27.698 E75.74685
G1 X-6.217 Y27.259 E75.76920
G1 X-6.402 Y26.808 E75.79346
G1 X-6.651 Y26.413 E75.81670
G1 X-6.959 Y26.069 E75.83968
G1 X-7.306 Y25.788 E75.86190
G1 X-7.713 Y25.560 E75.88511
G1 X-8.153 Y25.404 E75.90835
G1 X-8.616 Y25.326 E75.93171
G1 X-9.099 Y25.329 E75.95575
G0 F9000 X-6.748 Y23.664
G1 F1800 X-6.748 Y1.164 E77.07547
G1 X-4.444 Y1.164 E77.19013
G1 X-4.444 Y54.968 E79.86771
G1 X-6.748 Y54.968 E79.98237
G1 X-6.748 Y32.468 E81.10210
G1 X-8.821 Y32.468 E81.20526
G1 X-9.567 Y32.407 E81.24251
G1 X-10.271 Y32.229 E81.27865
G1 X-10.907 Y31.950 E81.31321
G1 X-11.519 Y31.558 E81.34938
G1 X-12.054 Y31.073 E81.38532
G1 X-12.530 Y30.472 E81.42347
G1 X-12.875 Y29.834 E81.45956
G1 X-13.111 Y29.146 E81.49576
G1 X-13.224 Y28.468 E81.52997
G1 X-13.231 Y27.702 E81.56809
G1 X-13.117 Y27.022 E81.60240
G1 X-12.876 Y26.300 E81.64028
G1 X-12.530 Y25.660 E81.67649
G1 X-12.085 Y25.088 E81.71255
G1 X-11.577 Y24.620 E81.74693
G1 X-10.974 Y24.219 E81.78297
G1 X-10.304 Y23.918 E81.81952
G1 X-9.567 Y23.726 E81.85742
G1 X-8.863 Y23.668 E81.89257
G1 X-7.419 Y23.664 E81.96444
G1 X-6.748 Y23.664 E81.99783
G0 F9000 X-7.147 Y23.264
;TYPE:WALL-OUTER
G1 F1800 X-7.147 Y0.765 E83.11750
G1 X-4.045 Y0.765 E83.27187
G1 X-4.045 Y55.367 E85.98917
G1 X-7.147 Y55.367 E86.14354
G1 X-7.147 Y32.867 E87.26326
G1 X-8.842 Y32.867 E87.34762
G1 X-9.608 Y32.804 E87.38587
G1 X-9.634 Y32.802 E87.38716
G1 X-10.380 Y32.613 E87.42546
G1 X-11.092 Y32.305 E87.46407
G1 X-11.758 Y31.878 E87.50344
G1 X-12.352 Y31.340 E87.54332
G1 X-12.864 Y30.693 E87.58438
G1 X-13.243 Y29.994 E87.62395
G1 X-13.491 Y29.269 E87.66209
G1 X-13.623 Y28.504 E87.70072
G1 X-13.630 Y27.695 E87.74098
G1 X-13.630 Y27.668 E87.74232
G1 X-13.507 Y26.931 E87.77951
G1 X-13.251 Y26.164 E87.81975
G1 X-12.864 Y25.439 E87.86065
G1 X-12.395 Y24.836 E87.89866
G1 X-11.826 Y24.306 E87.93736
G1 X-11.165 Y23.867 E87.97685
G1 X-10.442 Y23.543 E88.01628
G1 X-9.659 Y23.337 E88.05657
G1 X-8.884 Y23.269 E88.09529
G1 X-7.147 Y23.264 E88.18173
G0 F9000 X-6.847 Y23.264
G0 X-6.806 Y23.606
G0 X-9.112 Y25.432
G0 X-9.064 Y25.728
G1 F1800 X-9.438 Y25.792 E88.20061
G1 X-9.815 Y25.925 E88.22051
G1 X-10.177 Y26.131 E88.24124
G1 X-10.485 Y26.384 E88.26107
G1 X-10.745 Y26.685 E88.28087
G1 X-10.944 Y27.008 E88.29975
G1 X-11.093 Y27.379 E88.31964
G1 X-11.177 Y27.768 E88.33945
G1 X-11.194 Y28.166 E88.35927
G1 X-11.138 Y28.580 E88.38006
G1 X-11.018 Y28.960 E88.39989
G1 X-10.836 Y29.313 E88.41966
G1 X-10.596 Y29.631 E88.43948
G1 X-10.322 Y29.895 E88.45842
G1 X-9.975 Y30.125 E88.47914
G1 X-9.611 Y30.285 E88.49892
G1 X-9.244 Y30.382 E88.51782
G1 X-8.845 Y30.416 E88.53774
G1 X-8.431 Y30.378 E88.55843
G1 X-8.047 Y30.274 E88.57823
G1 X-7.700 Y30.117 E88.59719
G1 X-7.357 Y29.882 E88.61788
G1 X-7.081 Y29.618 E88.63688
G1 X-6.836 Y29.280 E88.65766
G1 X-6.660 Y28.925 E88.67738
G1 X-6.550 Y28.561 E88.69630
G1 X-6.498 Y28.165 E88.71618
G1 X-6.519 Y27.750 E88.73686
G1 X-6.599 Y27.378 E88.75579
G1 X-6.757 Y26.991 E88.77660
G1 X-6.971 Y26.655 E88.79642
G1 X-7.235 Y26.358 E88.81620
G1 X-7.530 Y26.120 E88.83506
G1 X-7.879 Y25.925 E88.85495
G1 X-8.254 Y25.792 E88.87476
G1 X-8.648 Y25.725 E88.89464
G1 X-9.064 Y25.728 E88.91535
G0 F9000 X-9.112 Y25.432
G0 X-9.845 Y24.293
;TYPE:FILL
G1 F1800 X-9.268 Y24.870 E88.95596
G0 F9000 X-10.274 Y24.429
G1 F1800 X-9.738 Y24.964 E88.99364
G0 F9000 X-10.663 Y24.603
G1 F1800 X-10.154 Y25.112 E89.02947
G0 F9000 X-11.012 Y24.819
G1 F1800 X-10.518 Y25.313 E89.06423
G0 F9000 X-11.341 Y25.054
G1 F1800 X-10.850 Y25.545 E89.09879
G0 F9000 X-11.636 Y25.324
G1 F1800 X-11.525 Y25.717 E89.13287
G1 X-11.776 Y26.029 E89.16718
G1 X-11.987 Y26.383 E89.20290
G1 X-12.163 Y26.771 E89.23951
G1 X-11.964 Y27.253 E89.26547
G0 F9000 X-12.649 Y27.132
G1 F1800 X-12.054 Y27.727 E89.30734
G0 F9000 X-12.732 Y27.613
G1 F1800 X-12.063 Y28.282 E89.35442
G0 F9000 X-12.748 Y28.161
G1 F1800 X-11.933 Y28.977 E89.41182
G0 F9000 X-12.686 Y28.787
G1 F1800 X-9.559 Y31.915 E89.63193
G0 F9000 X-9.755 Y31.154
G1 F1800 X-8.932 Y31.977 E89.68985
G0 F9000 X-9.068 Y31.277
G1 F1800 X-8.358 Y31.988 E89.73985
G0 F9000 X-8.514 Y31.266
G1 F1800 X-7.793 Y31.988 E89.79063
G0 F9000 X-8.036 Y31.180
G1 F1800 X-7.229 Y31.988 E89.84746
G0 F9000 X-7.612 Y31.041
G1 F1800 X-6.665 Y31.988 E89.91411
G0 F9000 X-7.229 Y30.859
G1 F1800 X-4.922 Y33.166 E90.07648
G0 F9000 X-4.922 Y32.602
G1 F1800 X-6.894 Y30.630 E90.21527
G0 F9000 X-6.593 Y30.366
G1 F1800 X-4.922 Y32.038 E90.33290
G0 F9000 X-4.922 Y31.474
G1 F1800 X-6.325 Y30.070 E90.43168
G0 F9000 X-6.088 Y29.743
G1 F1800 X-4.922 Y30.909 E90.51374
G0 F9000 X-5.900 Y29.366
G1 F1800 X-4.922 Y30.345 E90.58261
G0 F9000 X-5.751 Y28.951
G1 F1800 X-4.922 Y29.781 E90.64099
G0 F9000 X-5.654 Y28.485
G1 F1800 X-4.922 Y29.216 E90.69247
G0 F9000 X-5.629 Y27.944
G1 F1800 X-4.922 Y28.652 E90.74226
G0 F9000 X-5.720 Y27.290
G1 F1800 X-4.922 Y28.088 E90.79843
G0 F9000 X-4.922 Y27.524
G1 F1800 X-6.175 Y26.270 E90.88665
G0 F9000 X-7.174 Y24.143
G1 F1800 X-4.922 Y26.395 E91.04514
G0 F9000 X-4.922 Y26.959
G1 F1800 X-7.737 Y24.144 E91.24326
G0 F9000 X-6.611 Y24.142
G1 F1800 X-4.922 Y25.831 E91.36213
G0 F9000 X-4.922 Y25.267
G1 F1800 X-6.268 Y23.920 E91.45689
G0 F9000 X-6.268 Y23.356
G1 F1800 X-4.922 Y24.702 E91.55162
G0 F9000 X-4.922 Y24.138
G1 F1800 X-6.268 Y22.792 E91.64635
G0 F9000 X-6.268 Y22.227
G1 F1800 X-4.922 Y23.574 E91.74112
G0 F9000 X-4.922 Y23.009
G1 F1800 X-6.268 Y21.663 E91.83585
G0 F9000 X-6.268 Y21.099
G1 F1800 X-4.922 Y22.445 E91.93058
G0 F9000 X-4.922 Y21.881
G1 F1800 X-6.268 Y20.535 E92.02531
G0 F9000 X-6.268 Y19.970
G1 F1800 X-4.922 Y21.317 E92.12007
G0 F9000 X-4.922 Y20.752
G1 F1800 X-6.268 Y19.406 E92.21480
G0 F9000 X-6.268 Y18.842
G1 F1800 X-4.922 Y20.188 E92.30953
G0 F9000 X-4.922 Y19.624
G1 F1800 X-6.268 Y18.278 E92.40426
G0 F9000 X-6.268 Y17.713
G1 F1800 X-4.922 Y19.060 E92.49903
G0 F9000 X-4.922 Y18.495
G1 F1800 X-6.268 Y17.149 E92.59376
G0 F9000 X-6.268 Y16.585
G1 F1800 X-4.922 Y17.931 E92.68849
G0 F9000 X-4.922 Y17.367
G1 F1800 X-6.268 Y16.020 E92.78325
G0 F9000 X-6.268 Y15.456
G1 F1800 X-4.922 Y16.802 E92.87798
G0 F9000 X-4.922 Y16.238
G1 F1800 X-6.268 Y14.892 E92.97271
G0 F9000 X-6.268 Y14.328
G1 F1800 X-4.922 Y15.674 E93.06744
G0 F9000 X-4.922 Y15.110
G1 F1800 X-6.268 Y13.763 E93.16221
G0 F9000 X-6.268 Y13.199
G1 F1800 X-4.922 Y14.545 E93.25694
G0 F9000 X-4.922 Y13.981
G1 F1800 X-6.268 Y12.635 E93.35167
G0 F9000 X-6.268 Y12.071
G1 F1800 X-4.922 Y13.417 E93.44640
G0 F9000 X-4.922 Y12.853
G1 F1800 X-6.268 Y11.506 E93.54117
G0 F9000 X-6.268 Y10.942
G1 F1800 X-4.922 Y12.288 E93.63590
G0 F9000 X-4.922 Y11.724
G1 F1800 X-6.268 Y10.378 E93.73063
G0 F9000 X-6.268 Y9.813
G1 F1800 X-4.922 Y11.160 E93.82539
G0 F9000 X-4.922 Y10.595
G1 F1800 X-6.268 Y9.249 E93.92012
G0 F9000 X-6.268 Y8.685
G1 F1800 X-4.922 Y10.031 E94.01485
