;Generated with Cura_SteamEngine 14.09
; Default start code
G28 ; Home extruder
G1 Z15 F1200
M107 ; Turn off fan
G90 ; Absolute positioning
M82 ; Extruder in absolute mode
M190 S50
; Activate all used extruder
M104 T0 S210
G92 E0 ; Reset extruder position
; Wait for all used extruders to reach temperature
M109 T0 S210
;Layer count: 125
;LAYER:-2
;RAFT
G0 F9000 X-55.500 Y-7.998 Z0.300
;TYPE:SUPPORT
G1 F1800 X-55.500 Y-48.000 E3.49249
G1 X55.499 Y-48.000 E13.18357
G1 X55.499 Y-8.000 E16.67589
G1 X57.625 Y-8.000 E16.86150
G1 X58.550 Y-7.923 E16.94254
G1 X58.826 Y-7.898 E16.96674
G1 X59.850 Y-7.640 E17.05894
G1 X60.126 Y-7.565 E17.08391
G1 X61.068 Y-7.152 E17.17371
G1 X61.324 Y-7.036 E17.19825
G1 X62.384 Y-6.345 E17.30872
G1 X63.355 Y-5.461 E17.42337
G1 X64.026 Y-4.611 E17.51791
G1 X64.205 Y-4.380 E17.54343
G1 X64.704 Y-3.458 E17.63496
G1 X64.837 Y-3.210 E17.65953
G1 X65.251 Y-2.007 E17.77061
G1 X65.474 Y-0.712 E17.88533
G1 X65.482 Y0.368 E17.97963
G1 X65.482 Y0.658 E18.00495
G1 X65.273 Y1.923 E18.11689
G1 X64.852 Y3.169 E18.23172
G1 X64.211 Y4.372 E18.35073
G1 X63.393 Y5.424 E18.46708
G1 X62.452 Y6.291 E18.57879
G1 X61.357 Y7.016 E18.69345
G1 X60.389 Y7.449 E18.78603
G1 X60.114 Y7.573 E18.81237
G1 X59.086 Y7.832 E18.90492
G1 X58.844 Y7.898 E18.92682
G1 X57.657 Y7.996 E19.03081
G1 X55.499 Y7.997 E19.21922
G1 X55.499 Y48.000 E22.71180
G1 X-55.500 Y48.000 E32.40288
G1 X-55.500 Y7.999 E35.89528
G1 X-57.623 Y7.999 E36.08064
G1 X-58.548 Y7.923 E36.16167
G1 X-58.826 Y7.898 E36.18604
G1 X-59.850 Y7.640 E36.27824
G1 X-60.126 Y7.565 E36.30321
G1 X-61.068 Y7.152 E36.39301
G1 X-61.324 Y7.036 E36.41755
G1 X-62.384 Y6.345 E36.52802
G1 X-63.355 Y5.461 E36.64267
G1 X-64.026 Y4.611 E36.73722
G1 X-64.205 Y4.380 E36.76273
G1 X-64.704 Y3.458 E36.85426
G1 X-64.837 Y3.210 E36.87883
G1 X-65.251 Y2.007 E36.98991
G1 X-65.474 Y0.712 E37.10464
G1 X-65.482 Y-0.368 E37.19893
G1 X-65.482 Y-0.658 E37.22425
G1 X-65.273 Y-1.923 E37.33619
G1 X-64.852 Y-3.169 E37.45102
G1 X-64.211 Y-4.372 E37.57003
G1 X-63.393 Y-5.424 E37.68638
G1 X-62.452 Y-6.291 E37.79809
G1 X-61.357 Y-7.016 E37.91275
G1 X-60.389 Y-7.449 E38.00533
G1 X-60.114 Y-7.573 E38.03167
G1 X-59.086 Y-7.832 E38.12423
G1 X-58.846 Y-7.898 E38.14596
G1 X-57.659 Y-7.997 E38.24995
G1 X-55.500 Y-7.998 E38.43845
G0 F9000 X-56.350 Y-8.208
G1 F1800 X-56.350 Y8.209 E39.87178
G0 F9000 X-57.050 Y8.209
G1 F1800 X-57.050 Y-8.208 E41.30512
G0 F9000 X-57.750 Y-8.201
G1 F1800 X-57.750 Y8.199 E42.73696
G0 F9000 X-58.450 Y8.141
G1 F1800 X-58.450 Y-8.142 E44.15860
G0 F9000 X-59.150 Y-8.033
G1 F1800 X-59.150 Y8.033 E45.56129
G0 F9000 X-59.850 Y7.856
G1 F1800 X-59.850 Y-7.857 E46.93315
G0 F9000 X-60.550 Y-7.608
G1 F1800 X-60.550 Y7.608 E48.26163
G0 F9000 X-61.250 Y7.300
G1 F1800 X-61.250 Y-7.295 E49.53589
G0 F9000 X-61.950 Y-6.876
G1 F1800 X-61.950 Y6.878 E50.73672
G0 F9000 X-62.650 Y6.387
G1 F1800 X-62.650 Y-6.395 E51.85269
G0 F9000 X-63.350 Y-5.750
G1 F1800 X-63.350 Y5.749 E52.85664
G0 F9000 X-64.050 Y4.918
G1 F1800 X-64.050 Y-4.922 E53.71575
G0 F9000 X-64.750 Y-3.808
G1 F1800 X-64.750 Y3.813 E54.38113
G0 F9000 X-65.450 Y2.073
G1 F1800 X-65.450 Y-2.054 E54.74145
G0 F9000 X-55.650 Y-48.210
G1 F1800 X-55.650 Y48.210 E63.15967
G0 F9000 X-54.950 Y48.210
G1 F1800 X-54.950 Y-48.210 E71.57789
G0 F9000 X-54.250 Y-48.210
G1 F1800 X-54.250 Y48.210 E79.99612
G0 F9000 X-53.550 Y48.210
G1 F1800 X-53.550 Y-48.210 E88.41434
G0 F9000 X-52.850 Y-48.210
G1 F1800 X-52.850 Y48.210 E96.83256
G0 F9000 X-52.150 Y48.210
G1 F1800 X-52.150 Y-48.210 E105.25079
G0 F9000 X-51.450 Y-48.210
G1 F1800 X-51.450 Y48.210 E113.66901
G0 F9000 X-50.750 Y48.210
G1 F1800 X-50.750 Y-48.210 E122.08723
G0 F9000 X-50.050 Y-48.210
G1 F1800 X-50.050 Y48.210 E130.50546
G0 F9000 X-49.350 Y48.210
G1 F1800 X-49.350 Y-48.210 E138.92368
G0 F9000 X-48.650 Y-48.210
G1 F1800 X-48.650 Y48.210 E147.34190
G0 F9000 X-47.950 Y48.210
G1 F1800 X-47.950 Y-48.210 E155.76013
G0 F9000 X-47.250 Y-48.210
G1 F1800 X-47.250 Y48.210 E164.17835
G0 F9000 X-46.550 Y48.210
G1 F1800 X-46.550 Y-48.210 E172.59657
G0 F9000 X-45.850 Y-48.210
G1 F1800 X-45.850 Y48.210 E181.01480
G0 F9000 X-45.150 Y48.210
G1 F1800 X-45.150 Y-48.210 E189.43302
G0 F9000 X-44.450 Y-48.210
G1 F1800 X-44.450 Y48.210 E197.85124
G0 F9000 X-43.750 Y48.210
G1 F1800 X-43.750 Y-48.210 E206.26947
G0 F9000 X-43.050 Y-48.210
G1 F1800 X-43.050 Y48.210 E214.68769
G0 F9000 X-42.350 Y48.210
G1 F1800 X-42.350 Y-48.210 E223.10591
G0 F9000 X-41.650 Y-48.210
G1 F1800 X-41.650 Y48.210 E231.52414
G0 F9000 X-40.950 Y48.210
G1 F1800 X-40.950 Y-48.210 E239.94236
G0 F9000 X-40.250 Y-48.210
G1 F1800 X-40.250 Y48.210 E248.36058
G0 F9000 X-39.550 Y48.210
G1 F1800 X-39.550 Y-48.210 E256.77881
G0 F9000 X-38.850 Y-48.210
G1 F1800 X-38.850 Y48.210 E265.19703
G0 F9000 X-38.150 Y48.210
G1 F1800 X-38.150 Y-48.210 E273.61525
G0 F9000 X-37.450 Y-48.210
G1 F1800 X-37.450 Y48.210 E282.03348
G0 F9000 X-36.750 Y48.210
G1 F1800 X-36.750 Y-48.210 E290.45170
G0 F9000 X-36.050 Y-48.210
G1 F1800 X-36.050 Y48.210 E298.86992
G0 F9000 X-35.350 Y48.210
G1 F1800 X-35.350 Y-48.210 E307.28815
G0 F9000 X-34.650 Y-48.210
G1 F1800 X-34.650 Y48.210 E315.70637
G0 F9000 X-33.950 Y48.210
G1 F1800 X-33.950 Y-48.210 E324.12459
G0 F9000 X-33.250 Y-48.210
G1 F1800 X-33.250 Y48.210 E332.54282
G0 F9000 X-32.550 Y48.210
G1 F1800 X-32.550 Y-48.210 E340.96104
G0 F9000 X-31.850 Y-48.210
G1 F1800 X-31.850 Y48.210 E349.37926
G0 F9000 X-31.150 Y48.210
G1 F1800 X-31.150 Y-48.210 E357.79749
G0 F9000 X-30.450 Y-48.210
G1 F1800 X-30.450 Y48.210 E366.21571
G0 F9000 X-29.750 Y48.210
G1 F1800 X-29.750 Y-48.210 E374.63393
G0 F9000 X-29.050 Y-48.210
G1 F1800 X-29.050 Y48.210 E383.05216
G0 F9000 X-28.350 Y48.210
G1 F1800 X-28.350 Y-48.210 E391.47038
G0 F9000 X-27.650 Y-48.210
G1 F1800 X-27.650 Y48.210 E399.88860
G0 F9000 X-26.950 Y48.210
G1 F1800 X-26.950 Y-48.210 E408.30683
G0 F9000 X-26.250 Y-48.210
G1 F1800 X-26.250 Y48.210 E416.72505
G0 F9000 X-25.550 Y48.210
G1 F1800 X-25.550 Y-48.210 E425.14327
G0 F9000 X-24.850 Y-48.210
G1 F1800 X-24.850 Y48.210 E433.56150
G0 F9000 X-24.150 Y48.210
G1 F1800 X-24.150 Y-48.210 E441.97972
G0 F9000 X-23.450 Y-48.210
G1 F1800 X-23.450 Y48.210 E450.39794
G0 F9000 X-22.750 Y48.210
G1 F1800 X-22.750 Y-48.210 E458.81617
G0 F9000 X-22.050 Y-48.210
G1 F1800 X-22.050 Y48.210 E467.23439
G0 F9000 X-21.350 Y48.210
G1 F1800 X-21.350 Y-48.210 E475.65261
G0 F9000 X-20.650 Y-48.210
G1 F1800 X-20.650 Y48.210 E484.07084
G0 F9000 X-19.950 Y48.210
G1 F1800 X-19.950 Y-48.210 E492.48906
G0 F9000 X-19.250 Y-48.210
G1 F1800 X-19.250 Y48.210 E500.90728
G0 F9000 X-18.550 Y48.210
G1 F1800 X-18.550 Y-48.210 E509.32551
G0 F9000 X-17.850 Y-48.210
G1 F1800 X-17.850 Y48.210 E517.74373
G0 F9000 X-17.150 Y48.210
G1 F1800 X-17.150 Y-48.210 E526.16195
G0 F9000 X-16.450 Y-48.210
G1 F1800 X-16.450 Y48.210 E534.58018
G0 F9000 X-15.750 Y48.210
G1 F1800 X-15.750 Y-48.210 E542.99840
G0 F9000 X-15.050 Y-48.210
G1 F1800 X-15.050 Y48.210 E551.41662
G0 F9000 X-14.350 Y48.210
G1 F1800 X-14.350 Y-48.210 E559.83485
G0 F9000 X-13.650 Y-48.210
G1 F1800 X-13.650 Y48.210 E568.25307
G0 F9000 X-12.950 Y48.210
G1 F1800 X-12.950 Y-48.210 E576.67129
G0 F9000 X-12.250 Y-48.210
G1 F1800 X-12.250 Y48.210 E585.08952
G0 F9000 X-11.550 Y48.210
G1 F1800 X-11.550 Y-48.210 E593.50774
G0 F9000 X-10.850 Y-48.210
G1 F1800 X-10.850 Y48.210 E601.92596
G0 F9000 X-10.150 Y48.210
G1 F1800 X-10.150 Y-48.210 E610.34419
G0 F9000 X-9.450 Y-48.210
G1 F1800 X-9.450 Y48.210 E618.76241
G0 F9000 X-8.750 Y48.210
G1 F1800 X-8.750 Y-48.210 E627.18063
G0 F9000 X-8.050 Y-48.210
G1 F1800 X-8.050 Y48.210 E635.59886
G0 F9000 X-7.350 Y48.210
G1 F1800 X-7.350 Y-48.210 E644.01708
G0 F9000 X-6.650 Y-48.210
G1 F1800 X-6.650 Y48.210 E652.43530
G0 F9000 X-5.950 Y48.210
G1 F1800 X-5.950 Y-48.210 E660.85353
G0 F9000 X-5.250 Y-48.210
G1 F1800 X-5.250 Y48.210 E669.27175
G0 F9000 X-4.550 Y48.210
G1 F1800 X-4.550 Y-48.210 E677.68997
G0 F9000 X-3.850 Y-48.210
G1 F1800 X-3.850 Y48.210 E686.10820
G0 F9000 X-3.150 Y48.210
G1 F1800 X-3.150 Y-48.210 E694.52642
G0 F9000 X-2.450 Y-48.210
G1 F1800 X-2.450 Y48.210 E702.94464
G0 F9000 X-1.750 Y48.210
G1 F1800 X-1.750 Y-48.210 E711.36287
G0 F9000 X-1.050 Y-48.210
G1 F1800 X-1.050 Y48.210 E719.78109
G0 F9000 X-0.350 Y48.210
G1 F1800 X-0.350 Y-48.210 E728.19931
G0 F9000 X0.350 Y-48.210
G1 F1800 X0.350 Y48.210 E736.61754
G0 F9000 X1.050 Y48.210
G1 F1800 X1.050 Y-48.210 E745.03576
G0 F9000 X1.750 Y-48.210
G1 F1800 X1.750 Y48.210 E753.45398
G0 F9000 X2.450 Y48.210
G1 F1800 X2.450 Y-48.210 E761.87221
G0 F9000 X3.150 Y-48.210
G1 F1800 X3.150 Y48.210 E770.29043
G0 F9000 X3.850 Y48.210
G1 F1800 X3.850 Y-48.210 E778.70865
G0 F9000 X4.550 Y-48.210
G1 F1800 X4.550 Y48.210 E787.12688
G0 F9000 X5.250 Y48.210
G1 F1800 X5.250 Y-48.210 E795.54510
G0 F9000 X5.950 Y-48.210
G1 F1800 X5.950 Y48.210 E803.96332
G0 F9000 X6.650 Y48.210
G1 F1800 X6.650 Y-48.210 E812.38155
G0 F9000 X7.350 Y-48.210
G1 F1800 X7.350 Y48.210 E820.79977
G0 F9000 X8.050 Y48.210
G1 F1800 X8.050 Y-48.210 E829.21799
G0 F9000 X8.750 Y-48.210
G1 F1800 X8.750 Y48.210 E837.63622
G0 F9000 X9.450 Y48.210
G1 F1800 X9.450 Y-48.210 E846.05444
G0 F9000 X10.150 Y-48.210
G1 F1800 X10.150 Y48.210 E854.47266
G0 F9000 X10.850 Y48.210
G1 F1800 X10.850 Y-48.210 E862.89089
G0 F9000 X11.550 Y-48.210
G1 F1800 X11.550 Y48.210 E871.30911
G0 F9000 X12.250 Y48.210
G1 F1800 X12.250 Y-48.210 E879.72733
G0 F9000 X12.950 Y-48.210
G1 F1800 X12.950 Y48.210 E888.14556
G0 F9000 X13.650 Y48.210
G1 F1800 X13.650 Y-48.210 E896.56378
G0 F9000 X14.350 Y-48.210
G1 F1800 X14.350 Y48.210 E904.98200
G0 F9000 X15.050 Y48.210
G1 F1800 X15.050 Y-48.210 E913.40023
G0 F9000 X15.750 Y-48.210
G1 F1800 X15.750 Y48.210 E921.81845
G0 F9000 X16.450 Y48.210
G1 F1800 X16.450 Y-48.210 E930.23667
G0 F9000 X17.150 Y-48.210
G1 F1800 X17.150 Y48.210 E938.65490
G0 F9000 X17.850 Y48.210
G1 F1800 X17.850 Y-48.210 E947.07312
G0 F9000 X18.550 Y-48.210
G1 F1800 X18.550 Y48.210 E955.49134
G0 F9000 X19.250 Y48.210
G1 F1800 X19.250 Y-48.210 E963.90957
G0 F9000 X19.950 Y-48.210
G1 F1800 X19.950 Y48.210 E972.32779
G0 F9000 X20.650 Y48.210
G1 F1800 X20.650 Y-48.210 E980.74601
G0 F9000 X21.350 Y-48.210
G1 F1800 X21.350 Y48.210 E989.16424
G0 F9000 X22.050 Y48.210
G1 F1800 X22.050 Y-48.210 E997.58246
G0 F9000 X22.750 Y-48.210
G1 F1800 X22.750 Y48.210 E1006.00068
G0 F9000 X23.450 Y48.210
G1 F1800 X23.450 Y-48.210 E1014.41891
G0 F9000 X24.150 Y-48.210
G1 F1800 X24.150 Y48.210 E1022.83713
G0 F9000 X24.850 Y48.210
G1 F1800 X24.850 Y-48.210 E1031.25535
G0 F9000 X25.550 Y-48.210
G1 F1800 X25.550 Y48.210 E1039.67358
G0 F9000 X26.250 Y48.210
G1 F1800 X26.250 Y-48.210 E1048.09180
G0 F9000 X26.950 Y-48.210
G1 F1800 X26.950 Y48.210 E1056.51002
G0 F9000 X27.650 Y48.210
G1 F1800 X27.650 Y-48.210 E1064.92825
G0 F9000 X28.350 Y-48.210
G1 F1800 X28.350 Y48.210 E1073.34647
G0 F9000 X29.050 Y48.210
G1 F1800 X29.050 Y-48.210 E1081.76469
G0 F9000 X29.750 Y-48.210
G1 F1800 X29.750 Y48.210 E1090.18292
G0 F9000 X30.450 Y48.210
G1 F1800 X30.450 Y-48.210 E1098.60114
G0 F9000 X31.150 Y-48.210
G1 F1800 X31.150 Y48.210 E1107.01936
G0 F9000 X31.850 Y48.210
G1 F1800 X31.850 Y-48.210 E1115.43758
G0 F9000 X32.550 Y-48.210
G1 F1800 X32.550 Y48.210 E1123.85581
G0 F9000 X33.250 Y48.210
G1 F1800 X33.250 Y-48.210 E1132.27403
G0 F9000 X33.950 Y-48.210
G1 F1800 X33.950 Y48.210 E1140.69225
G0 F9000 X34.650 Y48.210
G1 F1800 X34.650 Y-48.210 E1149.11048
G0 F9000 X35.350 Y-48.210
G1 F1800 X35.350 Y48.210 E1157.52870
G0 F9000 X36.050 Y48.210
G1 F1800 X36.050 Y-48.210 E1165.94692
G0 F9000 X36.750 Y-48.210
G1 F1800 X36.750 Y48.210 E1174.36515
G0 F9000 X37.450 Y48.210
G1 F1800 X37.450 Y-48.210 E1182.78337
G0 F9000 X38.150 Y-48.210
G1 F1800 X38.150 Y48.210 E1191.20159
G0 F9000 X38.850 Y48.210
G1 F1800 X38.850 Y-48.210 E1199.61982
G0 F9000 X39.550 Y-48.210
G1 F1800 X39.550 Y48.210 E1208.03804
G0 F9000 X40.250 Y48.210
G1 F1800 X40.250 Y-48.210 E1216.45626
G0 F9000 X40.950 Y-48.210
G1 F1800 X40.950 Y48.210 E1224.87449
G0 F9000 X41.650 Y48.210
G1 F1800 X41.650 Y-48.210 E1233.29271
G0 F9000 X42.350 Y-48.210
G1 F1800 X42.350 Y48.210 E1241.71093
G0 F9000 X43.050 Y48.210
G1 F1800 X43.050 Y-48.210 E1250.12916
G0 F9000 X43.750 Y-48.210
G1 F1800 X43.750 Y48.210 E1258.54738
G0 F9000 X44.450 Y48.210
G1 F1800 X44.450 Y-48.210 E1266.96560
G0 F9000 X45.150 Y-48.210
G1 F1800 X45.150 Y48.210 E1275.38383
G0 F9000 X45.850 Y48.210
G1 F1800 X45.850 Y-48.210 E1283.80205
G0 F9000 X46.550 Y-48.210
G1 F1800 X46.550 Y48.210 E1292.22027
G0 F9000 X47.250 Y48.210
G1 F1800 X47.250 Y-48.210 E1300.63850
G0 F9000 X47.950 Y-48.210
G1 F1800 X47.950 Y48.210 E1309.05672
G0 F9000 X48.650 Y48.210
G1 F1800 X48.650 Y-48.210 E1317.47494
G0 F9000 X49.350 Y-48.210
G1 F1800 X49.350 Y48.210 E1325.89317
G0 F9000 X50.050 Y48.210
G1 F1800 X50.050 Y-48.210 E1334.31139
G0 F9000 X50.750 Y-48.210
G1 F1800 X50.750 Y48.210 E1342.72961
G0 F9000 X51.450 Y48.210
G1 F1800 X51.450 Y-48.210 E1351.14784
G0 F9000 X52.150 Y-48.210
G1 F1800 X52.150 Y48.210 E1359.56606
G0 F9000 X52.850 Y48.210
G1 F1800 X52.850 Y-48.210 E1367.98428
G0 F9000 X53.550 Y-48.210
G1 F1800 X53.550 Y48.210 E1376.40251
G0 F9000 X54.250 Y48.210
G1 F1800 X54.250 Y-48.210 E1384.82073
G0 F9000 X54.950 Y-48.210
G1 F1800 X54.950 Y48.210 E1393.23895
G0 F9000 X55.650 Y48.210
G1 F1800 X55.650 Y-48.210 E1401.65718
G0 F9000 X56.350 Y-8.210
G1 F1800 X56.350 Y8.207 E1403.09051
G0 F9000 X57.050 Y8.207
G1 F1800 X57.050 Y-8.210 E1404.52384
G0 F9000 X57.750 Y-8.200
G1 F1800 X57.750 Y8.200 E1405.95569
G0 F9000 X58.450 Y8.142
G1 F1800 X58.450 Y-8.141 E1407.37733
G0 F9000 X59.150 Y-8.033
G1 F1800 X59.150 Y8.033 E1408.78001
G0 F9000 X59.850 Y7.857
G1 F1800 X59.850 Y-7.856 E1410.15188
G0 F9000 X60.550 Y-7.608
G1 F1800 X60.550 Y7.608 E1411.48036
G0 F9000 X61.250 Y7.295
G1 F1800 X61.250 Y-7.300 E1412.75462
G0 F9000 X61.950 Y-6.878
G1 F1800 X61.950 Y6.876 E1413.95545
G0 F9000 X62.650 Y6.395
G1 F1800 X62.650 Y-6.387 E1415.07142
G0 F9000 X63.350 Y-5.749
G1 F1800 X63.350 Y5.750 E1416.07537
G0 F9000 X64.050 Y4.922
G1 F1800 X64.050 Y-4.918 E1416.93448
G0 F9000 X64.750 Y-3.813
G1 F1800 X64.750 Y3.808 E1417.59985
G0 F9000 X65.450 Y2.054
G1 F1800 X65.450 Y-2.073 E1417.96017
M106 S255
;LAYER:-1
;RAFT
G0 F9000 X65.370 Y-1.663 Z0.500
;TYPE:SUPPORT
G1 F3060 X59.157 Y-7.875 E1418.10628
G0 F9000 X58.481 Y-7.986
G1 F3060 X65.487 Y-0.980 E1418.27105
G0 F9000 X65.536 Y-0.366
G1 F3060 X57.863 Y-8.039 E1418.45151
G0 F9000 X57.277 Y-8.059
G1 F3060 X65.538 Y0.202 E1418.64580
G0 F9000 X65.526 Y0.755
G1 F3060 X56.711 Y-8.059 E1418.85310
G0 F9000 X56.145 Y-8.059
G1 F3060 X65.446 Y1.240 E1419.07182
G0 F9000 X65.365 Y1.726
G1 F3060 X55.580 Y-8.059 E1419.30195
G0 F9000 X55.558 Y-8.081
G1 F3060 X15.579 Y-48.059 E1420.24218
G0 F9000 X15.013 Y-48.059
G1 F3060 X65.250 Y2.176 E1421.42366
G0 F9000 X65.107 Y2.599
G1 F3060 X14.448 Y-48.059 E1422.61507
G0 F9000 X13.882 Y-48.059
G1 F3060 X64.964 Y3.021 E1423.81641
G0 F9000 X64.789 Y3.412
G1 F3060 X13.316 Y-48.059 E1425.02696
G0 F9000 X12.751 Y-48.059
G1 F3060 X64.592 Y3.781 E1426.24616
G0 F9000 X64.396 Y4.151
G1 F3060 X12.185 Y-48.059 E1427.47408
G0 F9000 X11.619 Y-48.059
G1 F3060 X64.184 Y4.504 E1428.71030
G0 F9000 X63.936 Y4.822
G1 F3060 X11.054 Y-48.059 E1429.95399
G0 F9000 X10.488 Y-48.059
G1 F3060 X63.689 Y5.140 E1431.20517
G0 F9000 X63.441 Y5.458
G1 F3060 X9.922 Y-48.059 E1432.46384
G0 F9000 X9.357 Y-48.059
G1 F3060 X63.147 Y5.730 E1433.72888
G0 F9000 X62.853 Y6.001
G1 F3060 X8.791 Y-48.059 E1435.00031
G0 F9000 X8.225 Y-48.059
G1 F3060 X62.558 Y6.272 E1436.27812
G0 F9000 X62.229 Y6.509
G1 F3060 X7.660 Y-48.059 E1437.56149
G0 F9000 X7.094 Y-48.059
G1 F3060 X61.888 Y6.734 E1438.85015
G0 F9000 X61.548 Y6.960
G1 F3060 X6.528 Y-48.059 E1440.14412
G0 F9000 X5.963 Y-48.059
G1 F3060 X61.182 Y7.159 E1441.44278
G0 F9000 X60.791 Y7.334
G1 F3060 X5.397 Y-48.059 E1442.74555
G0 F9000 X4.831 Y-48.059
G1 F3060 X60.401 Y7.509 E1444.05244
G0 F9000 X59.991 Y7.665
G1 F3060 X4.265 Y-48.059 E1445.36301
G0 F9000 X3.700 Y-48.059
G1 F3060 X59.539 Y7.779 E1446.67625
G0 F9000 X59.087 Y7.893
G1 F3060 X3.134 Y-48.059 E1447.99216
G0 F9000 X2.568 Y-48.059
G1 F3060 X58.605 Y7.976 E1449.31004
