;Generated with Cura_SteamEngine 14.09
; Default start code
G28 ; Home extruder
G1 Z15 F1200
M107 ; Turn off fan
G90 ; Absolute positioning
M82 ; Extruder in absolute mode
M190 S50
; Activate all used extruder
M104 T0 S210
G92 E0 ; Reset extruder position
; Wait for all used extruders to reach temperature
M109 T0 S210
;Layer count: 125
;LAYER:-2
;RAFT
G0 F9000 X94.000 Y29.000 Z0.300
;TYPE:SUPPORT
G1 F1800 X-94.000 Y29.000 E16.41388
G1 X-94.000 Y-29.000 E21.47773
G1 X94.000 Y-29.000 E37.89161
G1 X94.000 Y29.000 E42.95546
G0 F9000 X94.150 Y29.210
G1 F1800 X94.150 Y-29.210 E48.05599
G0 F9000 X93.450 Y-29.210
G1 F1800 X93.450 Y29.210 E53.15651
G0 F9000 X92.750 Y29.210
G1 F1800 X92.750 Y-29.210 E58.25704
G0 F9000 X92.050 Y-29.210
G1 F1800 X92.050 Y29.210 E63.35756
G0 F9000 X91.350 Y29.210
G1 F1800 X91.350 Y-29.210 E68.45809
G0 F9000 X90.650 Y-29.210
G1 F1800 X90.650 Y29.210 E73.55861
G0 F9000 X89.950 Y29.210
G1 F1800 X89.950 Y-29.210 E78.65914
G0 F9000 X89.250 Y-29.210
G1 F1800 X89.250 Y29.210 E83.75966
G0 F9000 X88.550 Y29.210
G1 F1800 X88.550 Y-29.210 E88.86019
G0 F9000 X87.850 Y-29.210
G1 F1800 X87.850 Y29.210 E93.96071
G0 F9000 X87.150 Y29.210
G1 F1800 X87.150 Y-29.210 E99.06124
G0 F9000 X86.450 Y-29.210
G1 F1800 X86.450 Y29.210 E104.16176
G0 F9000 X85.750 Y29.210
G1 F1800 X85.750 Y-29.210 E109.26229
G0 F9000 X85.050 Y-29.210
G1 F1800 X85.050 Y29.210 E114.36281
G0 F9000 X84.350 Y29.210
G1 F1800 X84.350 Y-29.210 E119.46334
G0 F9000 X83.650 Y-29.210
G1 F1800 X83.650 Y29.210 E124.56386
G0 F9000 X82.950 Y29.210
G1 F1800 X82.950 Y-29.210 E129.66439
G0 F9000 X82.250 Y-29.210
G1 F1800 X82.250 Y29.210 E134.76491
G0 F9000 X81.550 Y29.210
G1 F1800 X81.550 Y-29.210 E139.86544
G0 F9000 X80.850 Y-29.210
G1 F1800 X80.850 Y29.210 E144.96596
G0 F9000 X80.150 Y29.210
G1 F1800 X80.150 Y-29.210 E150.06649
G0 F9000 X79.450 Y-29.210
G1 F1800 X79.450 Y29.210 E155.16701
G0 F9000 X78.750 Y29.210
G1 F1800 X78.750 Y-29.210 E160.26754
G0 F9000 X78.050 Y-29.210
G1 F1800 X78.050 Y29.210 E165.36806
G0 F9000 X77.350 Y29.210
G1 F1800 X77.350 Y-29.210 E170.46859
G0 F9000 X76.650 Y-29.210
G1 F1800 X76.650 Y29.210 E175.56911
G0 F9000 X75.950 Y29.210
G1 F1800 X75.950 Y-29.210 E180.66964
G0 F9000 X75.250 Y-29.210
G1 F1800 X75.250 Y29.210 E185.77016
G0 F9000 X74.550 Y29.210
G1 F1800 X74.550 Y-29.210 E190.87069
G0 F9000 X73.850 Y-29.210
G1 F1800 X73.850 Y29.210 E195.97121
G0 F9000 X73.150 Y29.210
G1 F1800 X73.150 Y-29.210 E201.07174
G0 F9000 X72.450 Y-29.210
G1 F1800 X72.450 Y29.210 E206.17226
G0 F9000 X71.750 Y29.210
G1 F1800 X71.750 Y-29.210 E211.27278
G0 F9000 X71.050 Y-29.210
G1 F1800 X71.050 Y29.210 E216.37331
G0 F9000 X70.350 Y29.210
G1 F1800 X70.350 Y-29.210 E221.47383
G0 F9000 X69.650 Y-29.210
G1 F1800 X69.650 Y29.210 E226.57436
G0 F9000 X68.950 Y29.210
G1 F1800 X68.950 Y-29.210 E231.67488
G0 F9000 X68.250 Y-29.210
G1 F1800 X68.250 Y29.210 E236.77541
G0 F9000 X67.550 Y29.210
G1 F1800 X67.550 Y-29.210 E241.87593
G0 F9000 X66.850 Y-29.210
G1 F1800 X66.850 Y29.210 E246.97646
G0 F9000 X66.150 Y29.210
G1 F1800 X66.150 Y-29.210 E252.07698
G0 F9000 X65.450 Y-29.210
G1 F1800 X65.450 Y29.210 E257.17751
G0 F9000 X64.750 Y29.210
G1 F1800 X64.750 Y-29.210 E262.27803
G0 F9000 X64.050 Y-29.210
G1 F1800 X64.050 Y29.210 E267.37856
G0 F9000 X63.350 Y29.210
G1 F1800 X63.350 Y-29.210 E272.47908
G0 F9000 X62.650 Y-29.210
G1 F1800 X62.650 Y29.210 E277.57961
G0 F9000 X61.950 Y29.210
G1 F1800 X61.950 Y-29.210 E282.68013
G0 F9000 X61.250 Y-29.210
G1 F1800 X61.250 Y29.210 E287.78066
G0 F9000 X60.550 Y29.210
G1 F1800 X60.550 Y-29.210 E292.88118
G0 F9000 X59.850 Y-29.210
G1 F1800 X59.850 Y29.210 E297.98171
G0 F9000 X59.150 Y29.210
G1 F1800 X59.150 Y-29.210 E303.08223
G0 F9000 X58.450 Y-29.210
G1 F1800 X58.450 Y29.210 E308.18276
G0 F9000 X57.750 Y29.210
G1 F1800 X57.750 Y-29.210 E313.28328
G0 F9000 X57.050 Y-29.210
G1 F1800 X57.050 Y29.210 E318.38381
G0 F9000 X56.350 Y29.210
G1 F1800 X56.350 Y-29.210 E323.48433
G0 F9000 X55.650 Y-29.210
G1 F1800 X55.650 Y29.210 E328.58486
G0 F9000 X54.950 Y29.210
G1 F1800 X54.950 Y-29.210 E333.68538
G0 F9000 X54.250 Y-29.210
G1 F1800 X54.250 Y29.210 E338.78591
G0 F9000 X53.550 Y29.210
G1 F1800 X53.550 Y-29.210 E343.88643
G0 F9000 X52.850 Y-29.210
G1 F1800 X52.850 Y29.210 E348.98696
G0 F9000 X52.150 Y29.210
G1 F1800 X52.150 Y-29.210 E354.08748
G0 F9000 X51.450 Y-29.210
G1 F1800 X51.450 Y29.210 E359.18801
G0 F9000 X50.750 Y29.210
G1 F1800 X50.750 Y-29.210 E364.28853
G0 F9000 X50.050 Y-29.210
G1 F1800 X50.050 Y29.210 E369.38906
G0 F9000 X49.350 Y29.210
G1 F1800 X49.350 Y-29.210 E374.48958
G0 F9000 X48.650 Y-29.210
G1 F1800 X48.650 Y29.210 E379.59011
G0 F9000 X47.950 Y29.210
G1 F1800 X47.950 Y-29.210 E384.69063
G0 F9000 X47.250 Y-29.210
G1 F1800 X47.250 Y29.210 E389.79115
G0 F9000 X46.550 Y29.210
G1 F1800 X46.550 Y-29.210 E394.89168
G0 F9000 X45.850 Y-29.210
G1 F1800 X45.850 Y29.210 E399.99220
G0 F9000 X45.150 Y29.210
G1 F1800 X45.150 Y-29.210 E405.09273
G0 F9000 X44.450 Y-29.210
G1 F1800 X44.450 Y29.210 E410.19325
G0 F9000 X43.750 Y29.210
G1 F1800 X43.750 Y-29.210 E415.29378
G0 F9000 X43.050 Y-29.210
G1 F1800 X43.050 Y29.210 E420.39430
G0 F9000 X42.350 Y29.210
G1 F1800 X42.350 Y-29.210 E425.49483
G0 F9000 X41.650 Y-29.210
G1 F1800 X41.650 Y29.210 E430.59535
G0 F9000 X40.950 Y29.210
G1 F1800 X40.950 Y-29.210 E435.69588
G0 F9000 X40.250 Y-29.210
G1 F1800 X40.250 Y29.210 E440.79640
G0 F9000 X39.550 Y29.210
G1 F1800 X39.550 Y-29.210 E445.89693
G0 F9000 X38.850 Y-29.210
G1 F1800 X38.850 Y29.210 E450.99745
G0 F9000 X38.150 Y29.210
G1 F1800 X38.150 Y-29.210 E456.09798
G0 F9000 X37.450 Y-29.210
G1 F1800 X37.450 Y29.210 E461.19850
G0 F9000 X36.750 Y29.210
G1 F1800 X36.750 Y-29.210 E466.29903
G0 F9000 X36.050 Y-29.210
G1 F1800 X36.050 Y29.210 E471.39955
G0 F9000 X35.350 Y29.210
G1 F1800 X35.350 Y-29.210 E476.50008
G0 F9000 X34.650 Y-29.210
G1 F1800 X34.650 Y29.210 E481.60060
G0 F9000 X33.950 Y29.210
G1 F1800 X33.950 Y-29.210 E486.70113
G0 F9000 X33.250 Y-29.210
G1 F1800 X33.250 Y29.210 E491.80165
G0 F9000 X32.550 Y29.210
G1 F1800 X32.550 Y-29.210 E496.90218
G0 F9000 X31.850 Y-29.210
G1 F1800 X31.850 Y29.210 E502.00270
G0 F9000 X31.150 Y29.210
G1 F1800 X31.150 Y-29.210 E507.10323
G0 F9000 X30.450 Y-29.210
G1 F1800 X30.450 Y29.210 E512.20375
G0 F9000 X29.750 Y29.210
G1 F1800 X29.750 Y-29.210 E517.30428
G0 F9000 X29.050 Y-29.210
G1 F1800 X29.050 Y29.210 E522.40480
G0 F9000 X28.350 Y29.210
G1 F1800 X28.350 Y-29.210 E527.50533
G0 F9000 X27.650 Y-29.210
G1 F1800 X27.650 Y29.210 E532.60585
G0 F9000 X26.950 Y29.210
G1 F1800 X26.950 Y-29.210 E537.70638
G0 F9000 X26.250 Y-29.210
G1 F1800 X26.250 Y29.210 E542.80690
G0 F9000 X25.550 Y29.210
G1 F1800 X25.550 Y-29.210 E547.90743
G0 F9000 X24.850 Y-29.210
G1 F1800 X24.850 Y29.210 E553.00795
G0 F9000 X24.150 Y29.210
G1 F1800 X24.150 Y-29.210 E558.10848
G0 F9000 X23.450 Y-29.210
G1 F1800 X23.450 Y29.210 E563.20900
G0 F9000 X22.750 Y29.210
G1 F1800 X22.750 Y-29.210 E568.30952
G0 F9000 X22.050 Y-29.210
G1 F1800 X22.050 Y29.210 E573.41005
G0 F9000 X21.350 Y29.210
G1 F1800 X21.350 Y-29.210 E578.51057
G0 F9000 X20.650 Y-29.210
G1 F1800 X20.650 Y29.210 E583.61110
G0 F9000 X19.950 Y29.210
G1 F1800 X19.950 Y-29.210 E588.71162
G0 F9000 X19.250 Y-29.210
G1 F1800 X19.250 Y29.210 E593.81215
G0 F9000 X18.550 Y29.210
G1 F1800 X18.550 Y-29.210 E598.91267
G0 F9000 X17.850 Y-29.210
G1 F1800 X17.850 Y29.210 E604.01320
G0 F9000 X17.150 Y29.210
G1 F1800 X17.150 Y-29.210 E609.11372
G0 F9000 X16.450 Y-29.210
G1 F1800 X16.450 Y29.210 E614.21425
G0 F9000 X15.750 Y29.210
G1 F1800 X15.750 Y-29.210 E619.31477
G0 F9000 X15.050 Y-29.210
G1 F1800 X15.050 Y29.210 E624.41530
G0 F9000 X14.350 Y29.210
G1 F1800 X14.350 Y-29.210 E629.51582
G0 F9000 X13.650 Y-29.210
G1 F1800 X13.650 Y29.210 E634.61635
G0 F9000 X12.950 Y29.210
G1 F1800 X12.950 Y-29.210 E639.71687
G0 F9000 X12.250 Y-29.210
G1 F1800 X12.250 Y29.210 E644.81740
G0 F9000 X11.550 Y29.210
G1 F1800 X11.550 Y-29.210 E649.91792
G0 F9000 X10.850 Y-29.210
G1 F1800 X10.850 Y29.210 E655.01845
G0 F9000 X10.150 Y29.210
G1 F1800 X10.150 Y-29.210 E660.11897
G0 F9000 X9.450 Y-29.210
G1 F1800 X9.450 Y29.210 E665.21950
G0 F9000 X8.750 Y29.210
G1 F1800 X8.750 Y-29.210 E670.32002
G0 F9000 X8.050 Y-29.210
G1 F1800 X8.050 Y29.210 E675.42055
G0 F9000 X7.350 Y29.210
G1 F1800 X7.350 Y-29.210 E680.52107
G0 F9000 X6.650 Y-29.210
G1 F1800 X6.650 Y29.210 E685.62160
G0 F9000 X5.950 Y29.210
G1 F1800 X5.950 Y-29.210 E690.72212
G0 F9000 X5.250 Y-29.210
G1 F1800 X5.250 Y29.210 E695.82265
G0 F9000 X4.550 Y29.210
G1 F1800 X4.550 Y-29.210 E700.92317
G0 F9000 X3.850 Y-29.210
G1 F1800 X3.850 Y29.210 E706.02370
G0 F9000 X3.150 Y29.210
G1 F1800 X3.150 Y-29.210 E711.12422
G0 F9000 X2.450 Y-29.210
G1 F1800 X2.450 Y29.210 E716.22475
G0 F9000 X1.750 Y29.210
G1 F1800 X1.750 Y-29.210 E721.32527
G0 F9000 X1.050 Y-29.210
G1 F1800 X1.050 Y29.210 E726.42580
G0 F9000 X0.350 Y29.210
G1 F1800 X0.350 Y-29.210 E731.52632
G0 F9000 X-0.350 Y-29.210
G1 F1800 X-0.350 Y29.210 E736.62685
G0 F9000 X-1.050 Y29.210
G1 F1800 X-1.050 Y-29.210 E741.72737
G0 F9000 X-1.750 Y-29.210
G1 F1800 X-1.750 Y29.210 E746.82790
G0 F9000 X-2.450 Y29.210
G1 F1800 X-2.450 Y-29.210 E751.92842
G0 F9000 X-3.150 Y-29.210
G1 F1800 X-3.150 Y29.210 E757.02894
G0 F9000 X-3.850 Y29.210
G1 F1800 X-3.850 Y-29.210 E762.12947
G0 F9000 X-4.550 Y-29.210
G1 F1800 X-4.550 Y29.210 E767.22999
G0 F9000 X-5.250 Y29.210
G1 F1800 X-5.250 Y-29.210 E772.33052
G0 F9000 X-5.950 Y-29.210
G1 F1800 X-5.950 Y29.210 E777.43104
G0 F9000 X-6.650 Y29.210
G1 F1800 X-6.650 Y-29.210 E782.53157
G0 F9000 X-7.350 Y-29.210
G1 F1800 X-7.350 Y29.210 E787.63209
G0 F9000 X-8.050 Y29.210
G1 F1800 X-8.050 Y-29.210 E792.73262
G0 F9000 X-8.750 Y-29.210
G1 F1800 X-8.750 Y29.210 E797.83314
G0 F9000 X-9.450 Y29.210
G1 F1800 X-9.450 Y-29.210 E802.93367
G0 F9000 X-10.150 Y-29.210
G1 F1800 X-10.150 Y29.210 E808.03419
G0 F9000 X-10.850 Y29.210
G1 F1800 X-10.850 Y-29.210 E813.13472
G0 F9000 X-11.550 Y-29.210
G1 F1800 X-11.550 Y29.210 E818.23524
G0 F9000 X-12.250 Y29.210
G1 F1800 X-12.250 Y-29.210 E823.33577
G0 F9000 X-12.950 Y-29.210
G1 F1800 X-12.950 Y29.210 E828.43629
G0 F9000 X-13.650 Y29.210
G1 F1800 X-13.650 Y-29.210 E833.53682
G0 F9000 X-14.350 Y-29.210
G1 F1800 X-14.350 Y29.210 E838.63734
G0 F9000 X-15.050 Y29.210
G1 F1800 X-15.050 Y-29.210 E843.73787
G0 F9000 X-15.750 Y-29.210
G1 F1800 X-15.750 Y29.210 E848.83839
G0 F9000 X-16.450 Y29.210
G1 F1800 X-16.450 Y-29.210 E853.93892
G0 F9000 X-17.150 Y-29.210
G1 F1800 X-17.150 Y29.210 E859.03944
G0 F9000 X-17.850 Y29.210
G1 F1800 X-17.850 Y-29.210 E864.13997
G0 F9000 X-18.550 Y-29.210
G1 F1800 X-18.550 Y29.210 E869.24049
G0 F9000 X-19.250 Y29.210
G1 F1800 X-19.250 Y-29.210 E874.34102
G0 F9000 X-19.950 Y-29.210
G1 F1800 X-19.950 Y29.210 E879.44154
G0 F9000 X-20.650 Y29.210
G1 F1800 X-20.650 Y-29.210 E884.54207
G0 F9000 X-21.350 Y-29.210
G1 F1800 X-21.350 Y29.210 E889.64259
G0 F9000 X-22.050 Y29.210
G1 F1800 X-22.050 Y-29.210 E894.74312
G0 F9000 X-22.750 Y-29.210
G1 F1800 X-22.750 Y29.210 E899.84364
G0 F9000 X-23.450 Y29.210
G1 F1800 X-23.450 Y-29.210 E904.94417
G0 F9000 X-24.150 Y-29.210
G1 F1800 X-24.150 Y29.210 E910.04469
G0 F9000 X-24.850 Y29.210
G1 F1800 X-24.850 Y-29.210 E915.14522
G0 F9000 X-25.550 Y-29.210
G1 F1800 X-25.550 Y29.210 E920.24574
G0 F9000 X-26.250 Y29.210
G1 F1800 X-26.250 Y-29.210 E925.34627
G0 F9000 X-26.950 Y-29.210
G1 F1800 X-26.950 Y29.210 E930.44679
G0 F9000 X-27.650 Y29.210
G1 F1800 X-27.650 Y-29.210 E935.54731
G0 F9000 X-28.350 Y-29.210
G1 F1800 X-28.350 Y29.210 E940.64784
G0 F9000 X-29.050 Y29.210
G1 F1800 X-29.050 Y-29.210 E945.74836
G0 F9000 X-29.750 Y-29.210
G1 F1800 X-29.750 Y29.210 E950.84889
G0 F9000 X-30.450 Y29.210
G1 F1800 X-30.450 Y-29.210 E955.94941
G0 F9000 X-31.150 Y-29.210
G1 F1800 X-31.150 Y29.210 E961.04994
G0 F9000 X-31.850 Y29.210
G1 F1800 X-31.850 Y-29.210 E966.15046
G0 F9000 X-32.550 Y-29.210
G1 F1800 X-32.550 Y29.210 E971.25099
G0 F9000 X-33.250 Y29.210
G1 F1800 X-33.250 Y-29.210 E976.35151
G0 F9000 X-33.950 Y-29.210
G1 F1800 X-33.950 Y29.210 E981.45204
G0 F9000 X-34.650 Y29.210
G1 F1800 X-34.650 Y-29.210 E986.55256
G0 F9000 X-35.350 Y-29.210
G1 F1800 X-35.350 Y29.210 E991.65309
G0 F9000 X-36.050 Y29.210
G1 F1800 X-36.050 Y-29.210 E996.75361
G0 F9000 X-36.750 Y-29.210
G1 F1800 X-36.750 Y29.210 E1001.85414
G0 F9000 X-37.450 Y29.210
G1 F1800 X-37.450 Y-29.210 E1006.95466
G0 F9000 X-38.150 Y-29.210
G1 F1800 X-38.150 Y29.210 E1012.05519
G0 F9000 X-38.850 Y29.210
G1 F1800 X-38.850 Y-29.210 E1017.15571
G0 F9000 X-39.550 Y-29.210
G1 F1800 X-39.550 Y29.210 E1022.25624
G0 F9000 X-40.250 Y29.210
G1 F1800 X-40.250 Y-29.210 E1027.35676
G0 F9000 X-40.950 Y-29.210
G1 F1800 X-40.950 Y29.210 E1032.45729
G0 F9000 X-41.650 Y29.210
G1 F1800 X-41.650 Y-29.210 E1037.55781
G0 F9000 X-42.350 Y-29.210
G1 F1800 X-42.350 Y29.210 E1042.65834
G0 F9000 X-43.050 Y29.210
G1 F1800 X-43.050 Y-29.210 E1047.75886
G0 F9000 X-43.750 Y-29.210
G1 F1800 X-43.750 Y29.210 E1052.85939
G0 F9000 X-44.450 Y29.210
G1 F1800 X-44.450 Y-29.210 E1057.95991
G0 F9000 X-45.150 Y-29.210
G1 F1800 X-45.150 Y29.210 E1063.06044
G0 F9000 X-45.850 Y29.210
G1 F1800 X-45.850 Y-29.210 E1068.16096
G0 F9000 X-46.550 Y-29.210
G1 F1800 X-46.550 Y29.210 E1073.26149
G0 F9000 X-47.250 Y29.210
G1 F1800 X-47.250 Y-29.210 E1078.36201
G0 F9000 X-47.950 Y-29.210
G1 F1800 X-47.950 Y29.210 E1083.46254
G0 F9000 X-48.650 Y29.210
G1 F1800 X-48.650 Y-29.210 E1088.56306
G0 F9000 X-49.350 Y-29.210
G1 F1800 X-49.350 Y29.210 E1093.66359
G0 F9000 X-50.050 Y29.210
G1 F1800 X-50.050 Y-29.210 E1098.76411
G0 F9000 X-50.750 Y-29.210
G1 F1800 X-50.750 Y29.210 E1103.86464
G0 F9000 X-51.450 Y29.210
G1 F1800 X-51.450 Y-29.210 E1108.96516
G0 F9000 X-52.150 Y-29.210
G1 F1800 X-52.150 Y29.210 E1114.06568
G0 F9000 X-52.850 Y29.210
G1 F1800 X-52.850 Y-29.210 E1119.16621
G0 F9000 X-53.550 Y-29.210
G1 F1800 X-53.550 Y29.210 E1124.26673
G0 F9000 X-54.250 Y29.210
G1 F1800 X-54.250 Y-29.210 E1129.36726
G0 F9000 X-54.950 Y-29.210
G1 F1800 X-54.950 Y29.210 E1134.46778
G0 F9000 X-55.650 Y29.210
G1 F1800 X-55.650 Y-29.210 E1139.56831
G0 F9000 X-56.350 Y-29.210
G1 F1800 X-56.350 Y29.210 E1144.66883
G0 F9000 X-57.050 Y29.210
G1 F1800 X-57.050 Y-29.210 E1149.76936
G0 F9000 X-57.750 Y-29.210
G1 F1800 X-57.750 Y29.210 E1154.86988
G0 F9000 X-58.450 Y29.210
G1 F1800 X-58.450 Y-29.210 E1159.97041
G0 F9000 X-59.150 Y-29.210
G1 F1800 X-59.150 Y29.210 E1165.07093
G0 F9000 X-59.850 Y29.210
G1 F1800 X-59.850 Y-29.210 E1170.17146
G0 F9000 X-60.550 Y-29.210
G1 F1800 X-60.550 Y29.210 E1175.27198
G0 F9000 X-61.250 Y29.210
G1 F1800 X-61.250 Y-29.210 E1180.37251
G0 F9000 X-61.950 Y-29.210
G1 F1800 X-61.950 Y29.210 E1185.47303
G0 F9000 X-62.650 Y29.210
G1 F1800 X-62.650 Y-29.210 E1190.57356
G0 F9000 X-63.350 Y-29.210
G1 F1800 X-63.350 Y29.210 E1195.67408
G0 F9000 X-64.050 Y29.210
G1 F1800 X-64.050 Y-29.210 E1200.77461
G0 F9000 X-64.750 Y-29.210
G1 F1800 X-64.750 Y29.210 E1205.87513
G0 F9000 X-65.450 Y29.210
G1 F1800 X-65.450 Y-29.210 E1210.97566
G0 F9000 X-66.150 Y-29.210
G1 F1800 X-66.150 Y29.210 E1216.07618
G0 F9000 X-66.850 Y29.210
G1 F1800 X-66.850 Y-29.210 E1221.17671
G0 F9000 X-67.550 Y-29.210
G1 F1800 X-67.550 Y29.210 E1226.27723
G0 F9000 X-68.250 Y29.210
G1 F1800 X-68.250 Y-29.210 E1231.37776
G0 F9000 X-68.950 Y-29.210
G1 F1800 X-68.950 Y29.210 E1236.47828
G0 F9000 X-69.650 Y29.210
G1 F1800 X-69.650 Y-29.210 E1241.57881
G0 F9000 X-70.350 Y-29.210
G1 F1800 X-70.350 Y29.210 E1246.67933
G0 F9000 X-71.050 Y29.210
G1 F1800 X-71.050 Y-29.210 E1251.77986
G0 F9000 X-71.750 Y-29.210
G1 F1800 X-71.750 Y29.210 E1256.88038
G0 F9000 X-72.450 Y29.210
G1 F1800 X-72.450 Y-29.210 E1261.98091
G0 F9000 X-73.150 Y-29.210
G1 F1800 X-73.150 Y29.210 E1267.08143
G0 F9000 X-73.850 Y29.210
G1 F1800 X-73.850 Y-29.210 E1272.18196
G0 F9000 X-74.550 Y-29.210
G1 F1800 X-74.550 Y29.210 E1277.28248
G0 F9000 X-75.250 Y29.210
G1 F1800 X-75.250 Y-29.210 E1282.38301
G0 F9000 X-75.950 Y-29.210
G1 F1800 X-75.950 Y29.210 E1287.48353
G0 F9000 X-76.650 Y29.210
G1 F1800 X-76.650 Y-29.210 E1292.58406
G0 F9000 X-77.350 Y-29.210
G1 F1800 X-77.350 Y29.210 E1297.68458
