;Generated with Cura_SteamEngine 14.09
; Default start code
G28 ; Home extruder
G1 Z15 F1200
M107 ; Turn off fan
G90 ; Absolute positioning
M82 ; Extruder in absolute mode
M190 S50
; Activate all used extruder
M104 T0 S210
G92 E0 ; Reset extruder position
; Wait for all used extruders to reach temperature
M109 T0 S210
;Layer count: 27
;LAYER:0
M107
G0 F9000 X94.999 Y29.849 Z0.300
;TYPE:SKIRT
G1 F1800 X-95.199 Y29.849 E9.46529
G1 X-95.199 Y-30.349 E12.46108
G1 X94.999 Y-30.349 E21.92637
G1 X94.999 Y29.849 E24.92215
G1 F2400 E20.92215
G0 F9000 X90.803 Y25.653
;TYPE:WALL-INNER
G1 F2400 E24.92215
G1 F1800 X-91.003 Y25.653 E33.96982
G1 X-91.003 Y13.747 E34.56232
G1 X-63.103 Y13.747 E35.95078
G1 X-63.103 Y5.753 E36.34860
G1 X-91.003 Y5.753 E37.73706
G1 X-91.003 Y-26.153 E39.32488
G1 X90.803 Y-26.153 E48.37254
G1 X90.803 Y25.653 E50.95069
G0 F9000 X71.846 Y11.696
G1 F1800 X71.846 Y-2.796 E51.67189
G1 X34.553 Y-2.796 E53.52780
G1 X34.553 Y11.696 E54.24900
G1 X71.846 Y11.696 E56.10490
G0 F9000 X35.010 Y11.239
G0 X34.547 Y5.197
G1 F1800 X34.547 Y-2.796 E56.50268
G1 X22.552 Y-2.796 E57.09961
G1 X22.552 Y5.197 E57.49739
G1 X34.547 Y5.197 E58.09433
G0 F9000 X23.009 Y4.740
G0 X2.312 Y0.720
G1 F1800 X2.442 Y0.298 E58.11630
G1 X2.499 Y-0.148 E58.13868
G1 X2.470 Y-0.636 E58.16301
G1 X2.365 Y-1.066 E58.18503
G1 X2.194 Y-1.469 E58.20682
G1 X1.954 Y-1.841 E58.22885
G1 X1.661 Y-2.158 E58.25033
G1 X1.355 Y-2.404 E58.26987
G1 X0.964 Y-2.623 E58.29218
G1 X0.511 Y-2.774 E58.31594
G1 X0.122 Y-2.841 E58.33558
G1 X-0.240 Y-2.842 E58.35360
G1 X-0.346 Y-2.837 E58.35888
G1 X-0.756 Y-2.766 E58.37959
G1 X-1.181 Y-2.615 E58.40203
G1 X-1.590 Y-2.377 E58.42558
G1 X-1.907 Y-2.121 E58.44586
G1 X-2.214 Y-1.757 E58.46956
G1 X-2.427 Y-1.411 E58.48978
G1 X-2.594 Y-0.968 E58.51334
G1 X-2.680 Y-0.582 E58.53302
G1 X-2.698 Y-0.130 E58.55553
G1 X-2.628 Y0.353 E58.57982
G1 X-2.487 Y0.773 E58.60186
G1 X-2.287 Y1.149 E58.62306
G1 X-2.052 Y1.468 E58.64278
G1 X-1.725 Y1.780 E58.66527
G1 X-1.328 Y2.037 E58.68880
G1 X-0.967 Y2.201 E58.70854
G1 X-0.540 Y2.312 E58.73049
G1 X-0.099 Y2.351 E58.75252
G1 X0.349 Y2.311 E58.77491
G1 X0.807 Y2.184 E58.79856
G1 X1.177 Y2.015 E58.81880
G1 X1.576 Y1.736 E58.84303
G1 X1.889 Y1.421 E58.86513
G1 X2.135 Y1.070 E58.88646
G1 X2.312 Y0.720 E58.90598
G0 F9000 X-3.352 Y9.097
G1 F1800 X-3.352 Y-8.896 E59.80141
G1 X-16.047 Y-8.896 E60.43318
G1 X-16.047 Y9.097 E61.32861
G1 X-3.352 Y9.097 E61.96039
G0 F9000 X-15.590 Y8.640
G0 X-29.053 Y3.796
G1 F1800 X-29.053 Y-8.196 E62.55718
G1 X-35.047 Y-8.196 E62.85547
G1 X-35.047 Y3.796 E63.45226
G1 X-29.053 Y3.796 E63.75055
G0 F9000 X-39.103 Y5.753
G1 F1800 X-62.097 Y5.753 E64.89486
G1 X-62.097 Y13.747 E65.29268
G1 X-39.103 Y13.747 E66.43699
G1 X-39.103 Y5.753 E66.83482
G0 F9000 X-73.103 Y5.247
G1 F1800 X-73.103 Y-10.747 E67.63077
G1 X-81.096 Y-10.747 E68.02854
G1 X-81.096 Y5.247 E68.82449
G1 X-73.103 Y5.247 E69.22227
G0 F9000 X-73.502 Y4.848
G1 F1800 X-73.502 Y-10.348 E69.97850
G1 X-80.697 Y-10.348 E70.33656
G1 X-80.697 Y4.848 E71.09280
G1 X-73.502 Y4.848 E71.45086
G0 F9000 X-63.502 Y6.152
G1 F1800 X-90.686 Y6.152 E72.80369
G1 X-90.698 Y7.547 E72.87311
G1 X-90.698 Y13.348 E73.16180
G1 X-63.502 Y13.348 E74.51522
G1 X-63.502 Y6.152 E74.87334
G0 F9000 X-61.698 Y6.152
G1 F1800 X-61.698 Y13.348 E75.23145
G1 X-39.502 Y13.348 E76.33604
G1 X-39.502 Y6.152 E76.69416
G1 X-61.698 Y6.152 E77.79875
G0 F9000 X-34.648 Y3.397
G1 F1800 X-29.452 Y3.397 E78.05733
G1 X-29.452 Y-7.797 E78.61441
G1 X-34.648 Y-7.797 E78.87299
G1 X-34.648 Y3.397 E79.43006
G0 F9000 X-15.648 Y8.698
G1 F1800 X-3.751 Y8.698 E80.02212
G1 X-3.751 Y-8.497 E80.87784
G1 X-15.648 Y-8.497 E81.46990
G1 X-15.648 Y8.698 E82.32562
G0 F9000 X-3.809 Y8.640
G0 X-2.238 Y0.260
G1 F1800 X-2.119 Y0.615 E82.34425
G1 X-1.948 Y0.936 E82.36235
G1 X-1.752 Y1.204 E82.37887
G1 X-1.477 Y1.466 E82.39778
G1 X-1.136 Y1.686 E82.41797
G1 X-0.833 Y1.824 E82.43454
G1 X-0.472 Y1.917 E82.45309
G1 X-0.099 Y1.950 E82.47173
G1 X0.278 Y1.917 E82.49056
G1 X0.670 Y1.808 E82.51081
G1 X0.978 Y1.667 E82.52767
G1 X1.318 Y1.429 E82.54832
G1 X1.582 Y1.164 E82.56694
G1 X1.792 Y0.864 E82.58516
G1 X1.941 Y0.571 E82.60152
G1 X2.051 Y0.214 E82.62011
G1 X2.098 Y-0.162 E82.63897
G1 X2.074 Y-0.577 E82.65965
G1 X1.985 Y-0.940 E82.67825
G1 X1.840 Y-1.281 E82.69669
G1 X1.637 Y-1.596 E82.71534
G1 X1.388 Y-1.865 E82.73358
G1 X1.131 Y-2.072 E82.75001
G1 X0.802 Y-2.256 E82.76877
G1 X0.414 Y-2.386 E82.78913
G1 X0.087 Y-2.442 E82.80564
G1 X-0.231 Y-2.443 E82.82147
G1 X-0.302 Y-2.439 E82.82501
G1 X-0.655 Y-2.379 E82.84282
G1 X-1.012 Y-2.252 E82.86168
G1 X-1.363 Y-2.047 E82.88191
G1 X-1.627 Y-1.835 E82.89876
G1 X-1.890 Y-1.522 E82.91911
G1 X-2.067 Y-1.235 E82.93589
G1 X-2.211 Y-0.854 E82.95616
G1 X-2.282 Y-0.530 E82.97266
G1 X-2.298 Y-0.151 E82.99154
G1 X-2.238 Y0.260 E83.01221
G0 F9000 X-1.136 Y1.686
G0 X0.670 Y1.807
G0 X1.940 Y0.570
G0 X22.951 Y-2.397
G1 F1800 X22.951 Y4.798 E83.37027
G1 X34.148 Y4.798 E83.92750
G1 X34.148 Y-2.397 E84.28556
G1 X22.951 Y-2.397 E84.84278
G0 F9000 X34.952 Y-2.397
G1 F1800 X34.952 Y11.297 E85.52427
G1 X71.447 Y11.297 E87.34046
G1 X71.447 Y-2.397 E88.02195
G1 X34.952 Y-2.397 E89.83814
G0 F9000 X91.202 Y-26.552
G1 F1800 X91.202 Y26.052 E92.45601
G1 X-91.402 Y26.052 E101.54338
G1 X-91.402 Y-26.552 E104.16124
G1 X91.202 Y-26.552 E113.24862
G0 F9000 X91.601 Y-26.951
;TYPE:WALL-OUTER
G1 F1800 X91.601 Y26.451 E115.90620
G1 X-91.801 Y26.451 E125.03328
G1 X-91.801 Y-26.951 E127.69086
G1 X91.601 Y-26.951 E136.81795
G0 F9000 X91.301 Y-26.741
G0 X71.048 Y-2.298
G0 X71.048 Y-1.998
G1 F1800 X35.351 Y-1.998 E138.59443
G1 X35.351 Y10.898 E139.23620
G1 X71.048 Y10.898 E141.01268
G1 X71.048 Y-1.998 E141.65446
G0 F9000 X71.048 Y-2.298
G0 X33.749 Y-2.298
G0 X33.749 Y-1.998
G1 F1800 X23.350 Y-1.998 E142.17197
G1 X23.350 Y4.399 E142.49032
G1 X33.749 Y4.399 E143.00783
G1 X33.749 Y-1.998 E143.32618
G0 F9000 X33.749 Y-2.298
G0 X23.009 Y-2.339
G0 X1.944 Y0.218
G0 X1.659 Y0.129
G1 F1800 X1.698 Y-0.175 E143.34143
G1 X1.678 Y-0.518 E143.35853
G1 X1.605 Y-0.814 E143.37370
G1 X1.486 Y-1.094 E143.38884
G1 X1.321 Y-1.350 E143.40400
G1 X1.115 Y-1.573 E143.41911
G1 X0.907 Y-1.741 E143.43241
G1 X0.640 Y-1.890 E143.44763
G1 X0.317 Y-1.998 E143.46458
G1 X0.052 Y-2.043 E143.47795
G1 X-0.221 Y-2.044 E143.49154
G1 X-0.257 Y-2.042 E143.49333
G1 X-0.554 Y-1.991 E143.50833
G1 X-0.843 Y-1.888 E143.52360
G1 X-1.136 Y-1.717 E143.54048
G1 X-1.347 Y-1.548 E143.55394
G1 X-1.566 Y-1.288 E143.57085
G1 X-1.707 Y-1.058 E143.58428
G1 X-1.827 Y-0.740 E143.60119
G1 X-1.885 Y-0.479 E143.61450
G1 X-1.898 Y-0.172 E143.62979
G1 X-1.848 Y0.167 E143.64684
G1 X-1.751 Y0.457 E143.66206
G1 X-1.610 Y0.723 E143.67704
G1 X-1.451 Y0.939 E143.69039
G1 X-1.229 Y1.151 E143.70567
G1 X-0.944 Y1.335 E143.72255
G1 X-0.700 Y1.446 E143.73589
G1 X-0.404 Y1.523 E143.75111
G1 X-0.099 Y1.550 E143.76635
G1 X0.206 Y1.523 E143.78159
G1 X0.533 Y1.432 E143.79848
G1 X0.779 Y1.319 E143.81195
G1 X1.060 Y1.123 E143.82900
G1 X1.275 Y0.906 E143.84420
G1 X1.449 Y0.659 E143.85924
G1 X1.569 Y0.421 E143.87250
G1 X1.659 Y0.129 E143.88771
G0 F9000 X1.944 Y0.218
G0 X1.317 Y1.429
G0 X-3.809 Y8.640
G0 X-4.150 Y8.599
G0 X-4.150 Y8.299
G1 F1800 X-4.150 Y-8.098 E144.70371
G1 X-15.249 Y-8.098 E145.25606
G1 X-15.249 Y8.299 E146.07207
G1 X-4.150 Y8.299 E146.62441
G0 F9000 X-4.150 Y8.599
G0 X-15.590 Y8.640
G0 X-29.851 Y3.298
G0 X-29.851 Y2.998
G1 F1800 X-29.851 Y-7.398 E147.14177
G1 X-34.249 Y-7.398 E147.36064
G1 X-34.249 Y2.998 E147.87800
G1 X-29.851 Y2.998 E148.09687
G0 F9000 X-29.851 Y3.298
G0 X-39.901 Y6.251
G0 X-39.901 Y6.551
G1 F1800 X-61.299 Y6.551 E149.16175
G1 X-61.299 Y12.949 E149.48015
G1 X-39.901 Y12.949 E150.54504
G1 X-39.901 Y6.551 E150.86344
G0 F9000 X-39.901 Y6.251
G0 X-63.901 Y6.251
G0 X-63.901 Y6.551
G1 F1800 X-90.290 Y6.551 E152.17670
G1 X-90.299 Y7.549 E152.22636
G1 X-90.299 Y12.949 E152.49510
G1 X-63.901 Y12.949 E153.80881
G1 X-63.901 Y6.551 E154.12721
G0 F9000 X-63.901 Y6.251
G0 X-73.901 Y4.749
G0 X-73.901 Y4.449
G1 F1800 X-73.901 Y-9.949 E154.84373
G1 X-80.298 Y-9.949 E155.16208
G1 X-80.298 Y4.449 E155.87860
G1 X-73.901 Y4.449 E156.19695
G0 F9000 X-73.954 Y5.326
;TYPE:FILL
G1 F1800 X-73.498 Y5.499 E156.22135
G1 X-73.032 Y5.401 E156.24570
G1 X-72.479 Y5.673 E156.27637
G0 F9000 X-73.022 Y4.565
G1 F1800 X-71.914 Y5.673 E156.35435
G0 F9000 X-73.022 Y4.001
G1 F1800 X-71.350 Y5.673 E156.47202
G0 F9000 X-70.786 Y5.673
G1 F1800 X-73.022 Y3.437 E156.62939
G0 F9000 X-73.022 Y2.872
G1 F1800 X-70.222 Y5.673 E156.82648
G0 F9000 X-69.657 Y5.673
G1 F1800 X-73.022 Y2.308 E157.06331
G0 F9000 X-73.022 Y1.744
G1 F1800 X-69.093 Y5.673 E157.33983
G0 F9000 X-68.529 Y5.673
G1 F1800 X-73.022 Y1.180 E157.65604
G0 F9000 X-73.022 Y0.615
G1 F1800 X-67.964 Y5.673 E158.01202
G0 F9000 X-67.400 Y5.673
G1 F1800 X-73.022 Y0.051 E158.40769
G0 F9000 X-73.022 Y-0.512
G1 F1800 X-66.836 Y5.673 E158.84302
G0 F9000 X-66.272 Y5.673
G1 F1800 X-73.022 Y-1.076 E159.31804
G0 F9000 X-73.022 Y-1.641
G1 F1800 X-65.707 Y5.673 E159.83283
G0 F9000 X-65.143 Y5.673
G1 F1800 X-73.022 Y-2.205 E160.38731
G0 F9000 X-73.022 Y-2.769
G1 F1800 X-64.579 Y5.673 E160.98149
G0 F9000 X-64.015 Y5.673
G1 F1800 X-73.022 Y-3.334 E161.61539
G0 F9000 X-73.022 Y-3.898
G1 F1800 X-63.450 Y5.673 E162.28902
G0 F9000 X-63.022 Y6.101
G1 F1800 X-62.175 Y6.948 E162.34863
G0 F9000 X-63.022 Y6.665
G1 F1800 X-62.175 Y7.512 E162.40824
G0 F9000 X-63.022 Y7.230
G1 F1800 X-62.175 Y8.076 E162.46782
G0 F9000 X-63.022 Y7.794
G1 F1800 X-62.175 Y8.640 E162.52740
G0 F9000 X-63.022 Y8.358
G1 F1800 X-62.175 Y9.205 E162.58701
G0 F9000 X-63.022 Y8.922
G1 F1800 X-62.175 Y9.769 E162.64662
G0 F9000 X-63.022 Y9.487
G1 F1800 X-62.175 Y10.333 E162.70619
G0 F9000 X-63.022 Y10.051
G1 F1800 X-62.175 Y10.897 E162.76577
G0 F9000 X-63.022 Y10.615
G1 F1800 X-62.175 Y11.462 E162.82538
G0 F9000 X-63.022 Y11.180
G1 F1800 X-62.175 Y12.026 E162.88496
G0 F9000 X-63.022 Y11.744
G1 F1800 X-62.175 Y12.590 E162.94453
G0 F9000 X-63.022 Y12.308
G1 F1800 X-62.175 Y13.155 E163.00414
G0 F9000 X-63.022 Y12.872
G1 F1800 X-62.175 Y13.719 E163.06375
G0 F9000 X-62.068 Y13.826
G1 F1800 X-50.322 Y25.572 E163.89043
G0 F9000 X-50.886 Y25.572
G1 F1800 X-63.022 Y13.437 E164.74451
G0 F9000 X-63.196 Y13.827
G1 F1800 X-51.451 Y25.572 E165.57111
G0 F9000 X-52.015 Y25.572
G1 F1800 X-63.760 Y13.827 E166.39771
G0 F9000 X-64.324 Y13.827
G1 F1800 X-52.579 Y25.572 E167.22431
G0 F9000 X-53.144 Y25.572
G1 F1800 X-64.889 Y13.827 E168.05092
G0 F9000 X-65.453 Y13.827
G1 F1800 X-53.708 Y25.572 E168.87752
G0 F9000 X-54.272 Y25.572
G1 F1800 X-66.017 Y13.827 E169.70412
G0 F9000 X-66.581 Y13.827
G1 F1800 X-54.836 Y25.572 E170.53072
G0 F9000 X-55.401 Y25.572
G1 F1800 X-67.146 Y13.827 E171.35732
G0 F9000 X-67.710 Y13.827
G1 F1800 X-55.965 Y25.572 E172.18392
G0 F9000 X-56.529 Y25.572
G1 F1800 X-68.274 Y13.827 E173.01053
G0 F9000 X-68.838 Y13.827
G1 F1800 X-57.093 Y25.572 E173.83713
G0 F9000 X-57.658 Y25.572
G1 F1800 X-69.403 Y13.827 E174.66373
G0 F9000 X-69.967 Y13.827
G1 F1800 X-58.222 Y25.572 E175.49033
G0 F9000 X-58.786 Y25.572
G1 F1800 X-70.531 Y13.827 E176.31693
G0 F9000 X-71.096 Y13.827
G1 F1800 X-59.351 Y25.572 E177.14353
G0 F9000 X-59.915 Y25.572
G1 F1800 X-71.660 Y13.827 E177.97013
G0 F9000 X-72.224 Y13.827
G1 F1800 X-60.479 Y25.572 E178.79674
G0 F9000 X-61.043 Y25.572
G1 F1800 X-72.788 Y13.827 E179.62334
G0 F9000 X-73.353 Y13.827
G1 F1800 X-61.608 Y25.572 E180.44994
G0 F9000 X-62.172 Y25.572
G1 F1800 X-73.917 Y13.827 E181.27654
G0 F9000 X-74.481 Y13.827
G1 F1800 X-62.736 Y25.572 E182.10314
G0 F9000 X-63.300 Y25.572
G1 F1800 X-75.045 Y13.827 E182.92974
G0 F9000 X-75.610 Y13.827
G1 F1800 X-63.865 Y25.572 E183.75634
G0 F9000 X-64.429 Y25.572
G1 F1800 X-76.174 Y13.827 E184.58295
G0 F9000 X-76.738 Y13.827
G1 F1800 X-64.993 Y25.572 E185.40955
G0 F9000 X-65.557 Y25.572
G1 F1800 X-77.303 Y13.827 E186.23618
G0 F9000 X-77.867 Y13.827
G1 F1800 X-66.122 Y25.572 E187.06279
G0 F9000 X-66.686 Y25.572
G1 F1800 X-78.431 Y13.827 E187.88939
G0 F9000 X-78.995 Y13.827
G1 F1800 X-67.250 Y25.572 E188.71599
G0 F9000 X-67.815 Y25.572
G1 F1800 X-79.560 Y13.827 E189.54259
G0 F9000 X-80.124 Y13.827
G1 F1800 X-68.379 Y25.572 E190.36919
G0 F9000 X-68.943 Y25.572
G1 F1800 X-80.688 Y13.827 E191.19579
G0 F9000 X-81.252 Y13.827
G1 F1800 X-69.507 Y25.572 E192.02240
G0 F9000 X-70.072 Y25.572
G1 F1800 X-81.817 Y13.827 E192.84900
G0 F9000 X-82.381 Y13.827
G1 F1800 X-70.636 Y25.572 E193.67560
G0 F9000 X-71.200 Y25.572
G1 F1800 X-82.945 Y13.827 E194.50220
G0 F9000 X-83.510 Y13.827
G1 F1800 X-71.764 Y25.572 E195.32884
G0 F9000 X-72.329 Y25.572
G1 F1800 X-84.074 Y13.827 E196.15544
G0 F9000 X-84.638 Y13.827
G1 F1800 X-72.893 Y25.572 E196.98204
G0 F9000 X-73.457 Y25.572
G1 F1800 X-85.202 Y13.827 E197.80864
G0 F9000 X-85.767 Y13.827
G1 F1800 X-74.022 Y25.572 E198.63524
G0 F9000 X-74.586 Y25.572
G1 F1800 X-86.331 Y13.827 E199.46184
G0 F9000 X-86.895 Y13.827
G1 F1800 X-75.150 Y25.572 E200.28845
G0 F9000 X-75.714 Y25.572
G1 F1800 X-87.459 Y13.827 E201.11505
G0 F9000 X-88.024 Y13.827
G1 F1800 X-76.279 Y25.572 E201.94165
G0 F9000 X-76.843 Y25.572
G1 F1800 X-88.588 Y13.827 E202.76825
G0 F9000 X-89.152 Y13.827
G1 F1800 X-77.407 Y25.572 E203.59485
G0 F9000 X-77.971 Y25.572
G1 F1800 X-89.717 Y13.827 E204.42149
G0 F9000 X-90.281 Y13.827
G1 F1800 X-78.536 Y25.572 E205.24809
G0 F9000 X-79.100 Y25.572
G1 F1800 X-90.845 Y13.827 E206.07469
G0 F9000 X-90.922 Y14.314
G1 F1800 X-79.664 Y25.572 E206.86702
G0 F9000 X-80.229 Y25.572
G1 F1800 X-90.922 Y14.878 E207.61962
G0 F9000 X-90.922 Y15.443
G1 F1800 X-80.793 Y25.572 E208.33248
G0 F9000 X-81.357 Y25.572
G1 F1800 X-90.922 Y16.007 E209.00566
G0 F9000 X-90.922 Y16.571
G1 F1800 X-81.921 Y25.572 E209.63914
G0 F9000 X-82.486 Y25.572
G1 F1800 X-90.922 Y17.136 E210.23286
G0 F9000 X-90.922 Y17.700
G1 F1800 X-83.050 Y25.572 E210.78688
G0 F9000 X-83.614 Y25.572
G1 F1800 X-90.922 Y18.264 E211.30121
G0 F9000 X-90.922 Y18.828
G1 F1800 X-84.178 Y25.572 E211.77585
G0 F9000 X-84.743 Y25.572
G1 F1800 X-90.922 Y19.393 E212.21072
G0 F9000 X-90.922 Y19.957
G1 F1800 X-85.307 Y25.572 E212.60590
G0 F9000 X-85.871 Y25.572
G1 F1800 X-90.922 Y20.521 E212.96138
G0 F9000 X-90.922 Y21.085
G1 F1800 X-86.436 Y25.572 E213.27714
G0 F9000 X-87.000 Y25.572
G1 F1800 X-90.922 Y21.650 E213.55316
G0 F9000 X-90.922 Y22.214
G1 F1800 X-87.564 Y25.572 E213.78950
G0 F9000 X-88.128 Y25.572
G1 F1800 X-90.922 Y22.778 E213.98614
G0 F9000 X-90.922 Y23.343
G1 F1800 X-88.693 Y25.572 E214.14301
G0 F9000 X-89.257 Y25.572
G1 F1800 X-90.922 Y23.907 E214.26019
G0 F9000 X-90.922 Y24.471
G1 F1800 X-89.821 Y25.572 E214.33768
G0 F9000 X-90.922 Y25.035
G1 F1800 X-90.385 Y25.572 E214.37547
G0 F9000 X-90.640 Y13.290
G0 X-90.535 Y5.673
G1 F1800 X-90.921 Y5.287 E214.40264
G0 F9000 X-90.921 Y4.722
G1 F1800 X-89.971 Y5.673 E214.46953
G0 F9000 X-90.921 Y4.158
G1 F1800 X-89.407 Y5.673 E214.57612
G0 F9000 X-88.843 Y5.673
G1 F1800 X-90.921 Y3.594 E214.72241
G0 F9000 X-90.921 Y3.029
G1 F1800 X-88.278 Y5.673 E214.90845
G0 F9000 X-87.714 Y5.673
G1 F1800 X-90.921 Y2.465 E215.13419
G0 F9000 X-90.921 Y1.901
G1 F1800 X-87.150 Y5.673 E215.39963
G0 F9000 X-86.585 Y5.673
G1 F1800 X-90.921 Y1.337 E215.70479
G0 F9000 X-90.921 Y0.772
G1 F1800 X-86.021 Y5.673 E216.04968
G0 F9000 X-85.457 Y5.673
G1 F1800 X-90.921 Y0.208 E216.43427
G0 F9000 X-90.921 Y-0.355
G1 F1800 X-84.893 Y5.673 E216.85852
G0 F9000 X-84.328 Y5.673
G1 F1800 X-90.921 Y-0.919 E217.32249
G0 F9000 X-90.921 Y-1.484
G1 F1800 X-83.764 Y5.673 E217.82619
G0 F9000 X-83.200 Y5.673
G1 F1800 X-90.921 Y-2.048 E218.36959
G0 F9000 X-90.921 Y-2.612
G1 F1800 X-82.636 Y5.673 E218.95268
G0 F9000 X-82.071 Y5.673
G1 F1800 X-90.921 Y-3.177 E219.57553
G0 F9000 X-90.921 Y-3.741
G1 F1800 X-81.507 Y5.673 E220.23808
G0 F9000 X-80.943 Y5.673
G1 F1800 X-90.921 Y-4.305 E220.94032
G0 F9000 X-80.725 Y5.326
G1 F1800 X-80.269 Y5.499 E220.96471
G1 X-79.705 Y5.499 E220.98905
G1 X-79.141 Y5.499 E221.01339
G1 X-78.577 Y5.499 E221.03773
G1 X-78.012 Y5.499 E221.06212
G1 X-77.448 Y5.499 E221.08646
G1 X-76.884 Y5.499 E221.11079
G1 X-76.320 Y5.499 E221.13513
G1 X-75.755 Y5.499 E221.15952
G1 X-75.191 Y5.499 E221.18386
G1 X-74.627 Y5.499 E221.20820
