;Generated with Cura_SteamEngine 14.09
; Default start code
G28 ; Home extruder
G1 Z15 F1200
M107 ; Turn off fan
G90 ; Absolute positioning
M82 ; Extruder in absolute mode
M190 S50
; Activate all used extruder
M104 T0 S210
G92 E0 ; Reset extruder position
; Wait for all used extruders to reach temperature
M109 T0 S210
;Layer count: 27
;LAYER:0
M107
G0 F9000 X16.801 Y-41.998 Z0.300
;TYPE:SKIRT
G1 F1800 X82.298 Y-41.998 E3.25949
G1 X82.298 Y43.498 E7.51424
G1 X16.801 Y43.498 E10.77373
G1 X16.801 Y-41.998 E15.02848
G1 F2400 E11.02848
G0 F9000 X20.997 Y-37.802
;TYPE:WALL-INNER
G1 F2400 E15.02848
G1 F1800 X78.102 Y-37.802 E17.87033
G1 X78.102 Y39.302 E21.70745
G1 X20.997 Y39.302 E24.54931
G1 X20.997 Y-37.802 E28.38643
G0 F9000 X63.268 Y-10.891
G1 F1800 X62.910 Y-10.337 E28.41925
G1 X62.682 Y-9.801 E28.44824
G1 X62.549 Y-9.290 E28.47452
G1 X62.499 Y-8.690 E28.50448
G1 X62.566 Y-8.034 E28.53730
G1 X62.726 Y-7.472 E28.56638
G1 X62.948 Y-6.983 E28.59310
G1 X63.328 Y-6.444 E28.62592
G1 X63.749 Y-6.024 E28.65552
G1 X64.224 Y-5.689 E28.68444
G1 X64.694 Y-5.452 E28.71064
G1 X65.262 Y-5.278 E28.74020
G1 X65.850 Y-5.202 E28.76971
G1 X66.444 Y-5.227 E28.79929
G1 X67.025 Y-5.352 E28.82887
G1 X67.585 Y-5.578 E28.85892
G1 X68.131 Y-5.930 E28.89125
G1 X68.534 Y-6.284 E28.91794
G1 X68.939 Y-6.806 E28.95082
G1 X69.211 Y-7.321 E28.97981
G1 X69.387 Y-7.818 E29.00605
G1 X69.487 Y-8.400 E29.03543
G1 X69.489 Y-8.915 E29.06106
G1 X69.481 Y-9.039 E29.06725
G1 X69.364 Y-9.653 E29.09835
G1 X69.157 Y-10.201 E29.12751
G1 X68.894 Y-10.669 E29.15422
G1 X68.477 Y-11.165 E29.18647
G1 X68.082 Y-11.513 E29.21267
G1 X67.576 Y-11.825 E29.24225
G1 X67.025 Y-12.047 E29.27181
G1 X66.444 Y-12.172 E29.30139
G1 X65.850 Y-12.197 E29.33098
G1 X65.253 Y-12.120 E29.36093
G1 X64.625 Y-11.915 E29.39381
G1 X64.101 Y-11.635 E29.42337
G1 X63.641 Y-11.279 E29.45232
G1 X63.268 Y-10.891 E29.47911
G0 F9000 X29.781 Y19.231
G1 F1800 X29.476 Y18.871 E29.50259
G1 X29.114 Y18.564 E29.52621
G1 X28.703 Y18.324 E29.54989
G1 X28.270 Y18.161 E29.57292
G1 X27.855 Y18.072 E29.59404
G1 X27.371 Y18.051 E29.61815
G1 X26.862 Y18.126 E29.64375
G1 X26.453 Y18.251 E29.66504
G1 X26.031 Y18.465 E29.68858
G1 X25.641 Y18.752 E29.71268
G1 X25.293 Y19.132 E29.73832
G1 X25.055 Y19.483 E29.75943
G1 X24.859 Y19.916 E29.78308
G1 X24.738 Y20.377 E29.80680
G1 X24.700 Y20.849 E29.83037
G1 X24.738 Y21.322 E29.85398
G1 X24.861 Y21.792 E29.87816
G1 X25.082 Y22.257 E29.90378
G1 X25.320 Y22.608 E29.92488
G1 X25.649 Y22.952 E29.94857
G1 X26.031 Y23.234 E29.97220
G1 X26.454 Y23.448 E29.99579
G1 X26.910 Y23.587 E30.01952
G1 X27.389 Y23.649 E30.04355
G1 X27.914 Y23.617 E30.06973
G1 X28.379 Y23.506 E30.09352
G1 X28.814 Y23.319 E30.11708
G1 X29.213 Y23.062 E30.14070
G1 X29.563 Y22.739 E30.16440
G1 X29.844 Y22.373 E30.18737
G1 X30.052 Y22.004 E30.20845
G1 X30.209 Y21.555 E30.23212
G1 X30.290 Y21.089 E30.25566
G1 X30.291 Y20.696 E30.27522
G1 X30.286 Y20.588 E30.28060
G1 X30.208 Y20.135 E30.30347
G1 X30.025 Y19.642 E30.32964
G1 X29.781 Y19.231 E30.35343
G0 F9000 X29.687 Y21.838
G0 X28.703 Y25.424
G1 F1800 X28.270 Y25.261 E30.37645
G1 X27.855 Y25.172 E30.39758
G1 X27.371 Y25.151 E30.42168
G1 X26.862 Y25.226 E30.44729
G1 X26.453 Y25.351 E30.46857
G1 X26.031 Y25.565 E30.49212
G1 X25.641 Y25.852 E30.51622
G1 X25.293 Y26.232 E30.54186
G1 X25.055 Y26.583 E30.56296
G1 X24.859 Y27.016 E30.58662
G1 X24.738 Y27.477 E30.61034
G1 X24.700 Y27.950 E30.63395
G1 X24.738 Y28.422 E30.65752
G1 X24.861 Y28.892 E30.68169
G1 X25.082 Y29.357 E30.70732
G1 X25.320 Y29.708 E30.72842
G1 X25.649 Y30.052 E30.75211
G1 X26.031 Y30.334 E30.77574
G1 X26.454 Y30.548 E30.79933
G1 X26.910 Y30.687 E30.82305
G1 X27.389 Y30.749 E30.84709
G1 X27.914 Y30.717 E30.87326
G1 X28.379 Y30.606 E30.89706
G1 X28.814 Y30.419 E30.92062
G1 X29.213 Y30.162 E30.94424
G1 X29.563 Y29.839 E30.96794
G1 X29.844 Y29.473 E30.99090
G1 X30.052 Y29.104 E31.01198
G1 X30.209 Y28.655 E31.03565
G1 X30.290 Y28.189 E31.05919
G1 X30.291 Y27.796 E31.07875
G1 X30.286 Y27.688 E31.08413
G1 X30.208 Y27.235 E31.10701
G1 X30.025 Y26.742 E31.13318
G1 X29.781 Y26.331 E31.15696
G1 X29.476 Y25.971 E31.18044
G1 X29.114 Y25.664 E31.20407
G1 X28.703 Y25.424 E31.22775
G0 F9000 X26.950 Y25.616
G1 F1800 X26.603 Y25.722 E31.24581
G1 X26.241 Y25.906 E31.26602
G1 X25.909 Y26.151 E31.28655
G1 X25.607 Y26.480 E31.30877
G1 X25.404 Y26.779 E31.32676
G1 X25.236 Y27.150 E31.34703
G1 X25.133 Y27.544 E31.36729
G1 X25.100 Y27.950 E31.38757
G1 X25.133 Y28.355 E31.40779
G1 X25.238 Y28.755 E31.42837
G1 X25.429 Y29.158 E31.45056
G1 X25.632 Y29.457 E31.46855
G1 X25.914 Y29.752 E31.48886
G1 X26.241 Y29.993 E31.50907
G1 X26.604 Y30.177 E31.52933
G1 X26.994 Y30.296 E31.54962
G1 X27.403 Y30.348 E31.57014
G1 X27.855 Y30.321 E31.59267
G1 X28.253 Y30.226 E31.61303
G1 X28.626 Y30.066 E31.63323
G1 X28.968 Y29.845 E31.65349
G1 X29.267 Y29.569 E31.67374
G1 X29.510 Y29.253 E31.69358
G1 X29.687 Y28.938 E31.71156
G1 X29.822 Y28.554 E31.73182
G1 X29.891 Y28.154 E31.75202
G1 X29.892 Y27.805 E31.76939
G1 X29.889 Y27.732 E31.77302
G1 X29.821 Y27.340 E31.79282
G1 X29.663 Y26.915 E31.81539
G1 X29.455 Y26.563 E31.83574
G1 X29.193 Y26.254 E31.85590
G1 X28.883 Y25.991 E31.87613
G1 X28.531 Y25.785 E31.89643
G1 X28.157 Y25.645 E31.91630
G1 X27.804 Y25.569 E31.93427
G1 X27.392 Y25.551 E31.95479
G1 X26.950 Y25.616 E31.97702
G0 F9000 X25.914 Y22.652
G1 F1800 X26.241 Y22.893 E31.99724
G1 X26.604 Y23.077 E32.01749
G1 X26.994 Y23.196 E32.03779
G1 X27.403 Y23.248 E32.05830
G1 X27.855 Y23.221 E32.08084
G1 X28.253 Y23.126 E32.10120
G1 X28.626 Y22.966 E32.12140
G1 X28.968 Y22.745 E32.14166
G1 X29.267 Y22.469 E32.16191
G1 X29.510 Y22.153 E32.18175
G1 X29.687 Y21.838 E32.19973
G1 X29.822 Y21.454 E32.21999
G1 X29.891 Y21.054 E32.24019
G1 X29.892 Y20.705 E32.25756
G1 X29.889 Y20.632 E32.26119
G1 X29.821 Y20.240 E32.28099
G1 X29.663 Y19.815 E32.30356
G1 X29.455 Y19.463 E32.32390
G1 X29.193 Y19.154 E32.34407
G1 X28.883 Y18.891 E32.36430
G1 X28.531 Y18.685 E32.38459
G1 X28.157 Y18.545 E32.40447
G1 X27.804 Y18.469 E32.42244
G1 X27.392 Y18.451 E32.44296
G1 X26.950 Y18.516 E32.46519
G1 X26.603 Y18.622 E32.48325
G1 X26.241 Y18.806 E32.50346
G1 X25.909 Y19.051 E32.52399
G1 X25.607 Y19.380 E32.54622
G1 X25.404 Y19.679 E32.56420
G1 X25.236 Y20.050 E32.58447
G1 X25.133 Y20.444 E32.60474
G1 X25.100 Y20.849 E32.62496
G1 X25.133 Y21.255 E32.64523
G1 X25.238 Y21.655 E32.66581
G1 X25.429 Y22.058 E32.68800
G1 X25.632 Y22.357 E32.70599
G1 X25.914 Y22.652 E32.72630
G0 F9000 X20.598 Y39.701
G1 F1800 X20.598 Y-38.201 E36.60313
G1 X78.501 Y-38.201 E39.48470
G1 X78.501 Y39.701 E43.36153
G1 X20.598 Y39.701 E46.24310
G0 F9000 X63.634 Y-6.702
G1 F1800 X64.007 Y-6.331 E46.26928
G1 X64.430 Y-6.032 E46.29506
G1 X64.843 Y-5.823 E46.31809
G1 X65.347 Y-5.669 E46.34432
G1 X65.867 Y-5.602 E46.37041
G1 X66.393 Y-5.625 E46.39661
G1 X66.908 Y-5.735 E46.42282
G1 X67.401 Y-5.933 E46.44926
G1 X67.890 Y-6.249 E46.47824
G1 X68.242 Y-6.559 E46.50158
G1 X68.602 Y-7.023 E46.53080
G1 X68.845 Y-7.482 E46.55665
G1 X69.000 Y-7.919 E46.57972
G1 X69.088 Y-8.435 E46.60577
G1 X69.090 Y-8.902 E46.62902
G1 X69.084 Y-8.988 E46.63331
G1 X68.979 Y-9.545 E46.66151
G1 X68.794 Y-10.032 E46.68744
G1 X68.565 Y-10.441 E46.71077
G1 X68.191 Y-10.885 E46.73966
G1 X67.843 Y-11.191 E46.76272
G1 X67.396 Y-11.468 E46.78889
G1 X66.908 Y-11.664 E46.81506
G1 X66.393 Y-11.774 E46.84127
G1 X65.867 Y-11.797 E46.86747
G1 X65.341 Y-11.729 E46.89386
G1 X64.782 Y-11.546 E46.92313
G1 X64.318 Y-11.299 E46.94929
G1 X63.908 Y-10.982 E46.97508
G1 X63.583 Y-10.643 E46.99846
G1 X63.264 Y-10.150 E47.02768
G1 X63.061 Y-9.672 E47.05352
G1 X62.943 Y-9.223 E47.07663
G1 X62.899 Y-8.694 E47.10304
G1 X62.959 Y-8.110 E47.13226
G1 X63.102 Y-7.610 E47.15814
G1 X63.296 Y-7.182 E47.18152
G1 X63.634 Y-6.702 E47.21074
G0 F9000 X63.055 Y-8.153
G0 X63.353 Y-8.185
;TYPE:WALL-OUTER
G1 F1800 X63.478 Y-7.747 E47.23341
G1 X63.643 Y-7.381 E47.25339
G1 X63.940 Y-6.960 E47.27903
G1 X64.264 Y-6.637 E47.30179
G1 X64.636 Y-6.375 E47.32444
G1 X64.992 Y-6.195 E47.34429
G1 X65.431 Y-6.061 E47.36713
G1 X65.884 Y-6.002 E47.38987
G1 X66.342 Y-6.022 E47.41268
G1 X66.790 Y-6.118 E47.43548
G1 X67.217 Y-6.289 E47.45837
G1 X67.648 Y-6.568 E47.48392
G1 X67.950 Y-6.833 E47.50392
G1 X68.266 Y-7.241 E47.52960
G1 X68.479 Y-7.643 E47.55224
G1 X68.612 Y-8.020 E47.57214
G1 X68.689 Y-8.470 E47.59486
G1 X68.691 Y-8.889 E47.61571
G1 X68.688 Y-8.937 E47.61810
G1 X68.593 Y-9.436 E47.64338
G1 X68.432 Y-9.862 E47.66604
G1 X68.235 Y-10.213 E47.68607
G1 X67.905 Y-10.606 E47.71161
G1 X67.605 Y-10.869 E47.73147
G1 X67.215 Y-11.110 E47.75428
G1 X66.790 Y-11.281 E47.77708
G1 X66.342 Y-11.377 E47.79988
G1 X65.884 Y-11.397 E47.82270
G1 X65.429 Y-11.338 E47.84553
G1 X64.939 Y-11.178 E47.87118
G1 X64.536 Y-10.963 E47.89391
G1 X64.176 Y-10.684 E47.91658
G1 X63.897 Y-10.394 E47.93660
G1 X63.618 Y-9.962 E47.96220
G1 X63.439 Y-9.542 E47.98492
G1 X63.338 Y-9.156 E48.00477
G1 X63.300 Y-8.698 E48.02764
G1 X63.353 Y-8.185 E48.05331
G0 F9000 X63.055 Y-8.153
G0 X63.060 Y-9.671
G0 X64.319 Y-11.299
G0 X78.600 Y-38.390
G0 X78.900 Y-38.600
G1 F1800 X78.900 Y40.100 E51.96985
G1 X20.199 Y40.100 E54.89114
G1 X20.199 Y-38.600 E58.80768
G1 X78.900 Y-38.600 E61.72896
G0 F9000 X78.600 Y-38.390
G0 X29.104 Y19.209
G0 X28.910 Y19.437
G1 F1800 X28.651 Y19.218 E61.74584
G1 X28.359 Y19.047 E61.76268
G1 X28.044 Y18.929 E61.77942
G1 X27.753 Y18.866 E61.79424
G1 X27.413 Y18.851 E61.81118
G1 X27.038 Y18.906 E61.83004
G1 X26.753 Y18.994 E61.84488
G1 X26.451 Y19.147 E61.86173
G1 X26.176 Y19.349 E61.87871
G1 X25.920 Y19.628 E61.89755
G1 X25.754 Y19.874 E61.91232
G1 X25.614 Y20.183 E61.92921
G1 X25.528 Y20.511 E61.94608
G1 X25.500 Y20.849 E61.96296
G1 X25.528 Y21.188 E61.97989
G1 X25.614 Y21.517 E61.99681
G1 X25.777 Y21.859 E62.01566
G1 X25.944 Y22.105 E62.03046
G1 X26.178 Y22.351 E62.04736
G1 X26.451 Y22.552 E62.06423
G1 X26.753 Y22.705 E62.08108
G1 X27.078 Y22.804 E62.09798
G1 X27.416 Y22.848 E62.11495
G1 X27.796 Y22.825 E62.13389
G1 X28.127 Y22.746 E62.15083
G1 X28.438 Y22.612 E62.16768
G1 X28.722 Y22.429 E62.18449
G1 X28.971 Y22.199 E62.20136
G1 X29.176 Y21.932 E62.21811
G1 X29.322 Y21.673 E62.23291
G1 X29.434 Y21.353 E62.24978
G1 X29.492 Y21.019 E62.26665
G1 X29.493 Y20.714 E62.28183
G1 X29.491 Y20.675 E62.28377
G1 X29.434 Y20.344 E62.30049
G1 X29.301 Y19.987 E62.31945
G1 X29.129 Y19.695 E62.33631
G1 X28.910 Y19.437 E62.35315
G0 F9000 X29.104 Y19.209
G0 X29.888 Y20.631
G0 X29.510 Y22.153
G0 X28.252 Y23.125
G0 X26.951 Y25.720
G0 X27.038 Y26.006
G1 F1800 X26.753 Y26.094 E62.36800
G1 X26.451 Y26.247 E62.38485
G1 X26.176 Y26.449 E62.40183
G1 X25.920 Y26.728 E62.42067
G1 X25.754 Y26.974 E62.43544
G1 X25.614 Y27.283 E62.45232
G1 X25.528 Y27.611 E62.46920
G1 X25.500 Y27.950 E62.48612
G1 X25.528 Y28.288 E62.50300
G1 X25.614 Y28.617 E62.51993
G1 X25.777 Y28.959 E62.53878
G1 X25.944 Y29.205 E62.55358
G1 X26.178 Y29.451 E62.57047
G1 X26.451 Y29.652 E62.58734
G1 X26.753 Y29.805 E62.60419
G1 X27.078 Y29.904 E62.62110
G1 X27.416 Y29.948 E62.63806
G1 X27.796 Y29.925 E62.65701
G1 X28.127 Y29.846 E62.67394
G1 X28.438 Y29.712 E62.69080
G1 X28.722 Y29.529 E62.70761
G1 X28.971 Y29.299 E62.72448
G1 X29.176 Y29.032 E62.74123
G1 X29.322 Y28.773 E62.75603
G1 X29.434 Y28.453 E62.77290
G1 X29.492 Y28.119 E62.78977
G1 X29.493 Y27.814 E62.80495
G1 X29.491 Y27.775 E62.80689
G1 X29.434 Y27.444 E62.82361
G1 X29.301 Y27.087 E62.84256
G1 X29.129 Y26.795 E62.85943
G1 X28.910 Y26.537 E62.87627
G1 X28.651 Y26.318 E62.89315
G1 X28.359 Y26.147 E62.90999
G1 X28.044 Y26.029 E62.92673
G1 X27.753 Y25.966 E62.94155
G1 X27.413 Y25.951 E62.95848
G1 X27.038 Y26.006 E62.97735
G0 F9000 X26.624 Y25.214
;TYPE:FILL
G1 F1800 X21.076 Y19.666 E63.36781
G0 F9000 X21.076 Y19.102
G1 F1800 X27.086 Y25.112 E63.79079
G0 F9000 X27.620 Y25.081
G1 F1800 X21.076 Y18.538 E64.25131
G0 F9000 X21.076 Y17.973
G1 F1800 X24.735 Y21.632 E64.50883
G0 F9000 X24.628 Y20.961
G1 F1800 X21.076 Y17.409 E64.75881
G0 F9000 X21.076 Y16.845
G1 F1800 X24.653 Y20.422 E65.01056
G0 F9000 X24.762 Y19.967
G1 F1800 X21.076 Y16.281 E65.26998
G0 F9000 X21.076 Y15.716
G1 F1800 X24.928 Y19.568 E65.54108
G0 F9000 X25.139 Y19.215
G1 F1800 X21.076 Y15.152 E65.82703
G0 F9000 X21.076 Y14.588
G1 F1800 X25.392 Y18.903 E66.13075
G0 F9000 X25.676 Y18.623
G1 F1800 X21.076 Y14.024 E66.45446
G0 F9000 X21.076 Y13.459
G1 F1800 X26.004 Y18.387 E66.80128
G0 F9000 X26.379 Y18.198
G1 F1800 X21.076 Y12.895 E67.17450
G0 F9000 X21.076 Y12.331
G1 F1800 X26.805 Y18.059 E67.57767
G0 F9000 X27.291 Y17.981
G1 F1800 X21.076 Y11.766 E68.01508
G0 F9000 X21.076 Y11.202
G1 F1800 X27.867 Y17.993 E68.49302
G0 F9000 X28.659 Y18.221
G1 F1800 X21.076 Y10.638 E69.02670
G0 F9000 X21.076 Y10.074
G1 F1800 X50.224 Y39.221 E71.07808
G0 F9000 X49.660 Y39.221
G1 F1800 X30.125 Y19.687 E72.45289
G0 F9000 X30.346 Y20.472
G1 F1800 X49.095 Y39.221 E73.77243
G0 F9000 X48.530 Y39.221
G1 F1800 X30.369 Y21.059 E75.05062
G0 F9000 X30.291 Y21.545
G1 F1800 X47.966 Y39.221 E76.29460
G0 F9000 X47.402 Y39.221
G1 F1800 X30.148 Y21.966 E77.50896
G0 F9000 X29.954 Y22.337
G1 F1800 X46.838 Y39.221 E78.69724
G0 F9000 X46.273 Y39.221
G1 F1800 X29.718 Y22.666 E79.86236
G0 F9000 X29.445 Y22.956
G1 F1800 X45.709 Y39.221 E81.00704
G0 F9000 X45.145 Y39.221
G1 F1800 X29.132 Y23.208 E82.13402
G0 F9000 X28.780 Y23.420
G1 F1800 X44.580 Y39.221 E83.24604
G0 F9000 X44.016 Y39.221
G1 F1800 X28.382 Y23.586 E84.34638
G0 F9000 X27.927 Y23.696
G1 F1800 X43.452 Y39.221 E85.43902
G0 F9000 X42.888 Y39.221
G1 F1800 X27.396 Y23.729 E86.52933
G0 F9000 X26.713 Y23.610
G1 F1800 X28.285 Y25.182 E86.63997
G0 F9000 X26.223 Y25.377
G1 F1800 X21.076 Y20.231 E87.00217
G0 F9000 X21.076 Y20.795
G1 F1800 X25.866 Y25.585 E87.33929
G0 F9000 X25.549 Y25.832
G1 F1800 X21.076 Y21.359 E87.65409
G0 F9000 X21.076 Y21.923
G1 F1800 X25.279 Y26.126 E87.94990
G0 F9000 X25.045 Y26.456
G1 F1800 X21.076 Y22.488 E88.22920
G0 F9000 X21.076 Y23.052
G1 F1800 X24.854 Y26.830 E88.49509
G0 F9000 X24.714 Y27.254
G1 F1800 X21.076 Y23.616 E88.75113
G0 F9000 X21.076 Y24.180
G1 F1800 X24.637 Y27.741 E89.00175
G0 F9000 X24.649 Y28.318
G1 F1800 X21.076 Y24.745 E89.25321
G0 F9000 X21.076 Y25.309
G1 F1800 X24.876 Y29.108 E89.52061
G0 F9000 X26.352 Y30.585
G1 F1800 X34.988 Y39.221 E90.12841
G0 F9000 X34.424 Y39.221
G1 F1800 X21.076 Y25.873 E91.06783
G0 F9000 X21.076 Y26.438
G1 F1800 X33.859 Y39.221 E91.96748
G0 F9000 X33.295 Y39.221
G1 F1800 X21.076 Y27.002 E92.82744
G0 F9000 X21.076 Y27.566
G1 F1800 X32.731 Y39.221 E93.64771
G0 F9000 X32.166 Y39.221
G1 F1800 X21.076 Y28.130 E94.42825
G0 F9000 X21.076 Y28.695
G1 F1800 X31.602 Y39.221 E95.16906
G0 F9000 X31.038 Y39.221
G1 F1800 X21.076 Y29.259 E95.87017
G0 F9000 X21.076 Y29.823
G1 F1800 X30.474 Y39.221 E96.53160
G0 F9000 X29.909 Y39.221
G1 F1800 X21.076 Y30.387 E97.15329
G0 F9000 X21.076 Y30.952
G1 F1800 X29.345 Y39.221 E97.73525
G0 F9000 X28.781 Y39.221
G1 F1800 X21.076 Y31.516 E98.27752
G0 F9000 X21.076 Y32.080
G1 F1800 X28.217 Y39.221 E98.78010
G0 F9000 X27.652 Y39.221
G1 F1800 X21.076 Y32.644 E99.24295
G0 F9000 X21.076 Y33.209
G1 F1800 X27.088 Y39.221 E99.66607
G0 F9000 X26.524 Y39.221
G1 F1800 X21.076 Y33.773 E100.04949
G0 F9000 X21.076 Y34.337
G1 F1800 X25.960 Y39.221 E100.39322
G0 F9000 X25.395 Y39.221
G1 F1800 X21.076 Y34.902 E100.69719
G0 F9000 X21.076 Y35.466
G1 F1800 X24.831 Y39.221 E100.96146
G0 F9000 X24.267 Y39.221
G1 F1800 X21.076 Y36.030 E101.18604
G0 F9000 X21.076 Y36.594
G1 F1800 X23.702 Y39.221 E101.37089
G0 F9000 X23.138 Y39.221
G1 F1800 X21.076 Y37.159 E101.51601
G0 F9000 X21.076 Y37.723
G1 F1800 X22.574 Y39.221 E101.62144
G0 F9000 X21.076 Y38.287
G1 F1800 X22.010 Y39.221 E101.68718
G0 F9000 X21.076 Y38.851
G1 F1800 X21.445 Y39.221 E101.71318
G0 F9000 X27.127 Y30.795
G1 F1800 X35.552 Y39.221 E102.30616
G0 F9000 X36.116 Y39.221
G1 F1800 X27.705 Y30.809 E102.89815
G0 F9000 X28.192 Y30.732
G1 F1800 X36.681 Y39.221 E103.49560
G0 F9000 X37.245 Y39.221
G1 F1800 X28.615 Y30.591 E104.10297
G0 F9000 X28.989 Y30.401
G1 F1800 X37.809 Y39.221 E104.72371
G0 F9000 X38.373 Y39.221
G1 F1800 X29.322 Y30.169 E105.36075
G0 F9000 X29.616 Y29.899
G1 F1800 X38.938 Y39.221 E106.01682
