;Generated with Cura_SteamEngine 14.09
; Default start code
G28 ; Home extruder
G1 Z15 F1200
M107 ; Turn off fan
G90 ; Absolute positioning
M82 ; Extruder in absolute mode
M190 S50
; Activate all used extruder
M104 T0 S210
G92 E0 ; Reset extruder position
; Wait for all used extruders to reach temperature
M109 T0 S210
;Layer count: 27
;LAYER:0
M107
G0 F9000 X17.698 Y-42.699 Z0.300
;TYPE:SKIRT
G1 F1800 X80.699 Y-42.699 E3.13527
G1 X80.699 Y44.199 E7.45980
G1 X17.699 Y44.199 E10.59502
G1 X17.699 Y66.199 E11.68986
G1 X-69.199 Y66.199 E16.01438
G1 X-69.199 Y-62.699 E22.42905
G1 X17.698 Y-62.699 E26.75352
G1 X17.698 Y-42.699 E27.74883
G1 F2400 E23.74883
G0 F9000 X13.502 Y-58.503
;TYPE:WALL-INNER
G1 F2400 E27.74883
G1 F1800 X13.502 Y0.003 E30.66041
G1 X-65.003 Y0.003 E34.56725
G1 X-65.003 Y-58.503 E37.47883
G1 X13.502 Y-58.503 E41.38567
G0 F9000 X-32.427 Y-46.844
G1 F1800 X-32.552 Y-47.425 E41.41524
G1 X-32.778 Y-47.985 E41.44530
G1 X-33.130 Y-48.531 E41.47762
G1 X-33.484 Y-48.934 E41.50432
G1 X-34.006 Y-49.339 E41.53720
G1 X-34.521 Y-49.611 E41.56618
G1 X-35.018 Y-49.787 E41.59242
G1 X-35.601 Y-49.887 E41.62186
G1 X-36.115 Y-49.889 E41.64744
G1 X-36.239 Y-49.881 E41.65362
G1 X-36.853 Y-49.764 E41.68473
G1 X-37.401 Y-49.557 E41.71388
G1 X-37.869 Y-49.294 E41.74060
G1 X-38.364 Y-48.877 E41.77281
G1 X-38.714 Y-48.482 E41.79907
G1 X-39.026 Y-47.975 E41.82870
G1 X-39.247 Y-47.425 E41.85819
G1 X-39.372 Y-46.844 E41.88777
G1 X-39.397 Y-46.250 E41.91736
G1 X-39.320 Y-45.653 E41.94731
G1 X-39.115 Y-45.025 E41.98019
G1 X-38.835 Y-44.501 E42.00975
G1 X-38.479 Y-44.041 E42.03870
G1 X-38.091 Y-43.668 E42.06548
G1 X-37.537 Y-43.310 E42.09831
G1 X-37.001 Y-43.082 E42.12730
G1 X-36.490 Y-42.949 E42.15358
G1 X-35.890 Y-42.899 E42.18354
G1 X-35.234 Y-42.966 E42.21635
G1 X-34.672 Y-43.126 E42.24543
G1 X-34.183 Y-43.348 E42.27216
G1 X-33.644 Y-43.728 E42.30498
G1 X-33.224 Y-44.149 E42.33457
G1 X-32.889 Y-44.624 E42.36350
G1 X-32.652 Y-45.094 E42.38969
G1 X-32.478 Y-45.662 E42.41926
G1 X-32.402 Y-46.250 E42.44876
G1 X-32.427 Y-46.844 E42.47835
G0 F9000 X-6.607 Y-9.025
G1 F1800 X-7.018 Y-8.781 E42.50214
G1 X-7.378 Y-8.476 E42.52562
G1 X-7.685 Y-8.114 E42.54924
G1 X-7.925 Y-7.703 E42.57292
G1 X-8.088 Y-7.270 E42.59595
G1 X-8.177 Y-6.855 E42.61707
G1 X-8.198 Y-6.371 E42.64118
G1 X-8.123 Y-5.862 E42.66678
G1 X-7.998 Y-5.453 E42.68807
G1 X-7.784 Y-5.031 E42.71162
G1 X-7.497 Y-4.641 E42.73571
G1 X-7.117 Y-4.293 E42.76136
G1 X-6.766 Y-4.055 E42.78246
G1 X-6.333 Y-3.859 E42.80611
G1 X-5.874 Y-3.739 E42.82972
G1 X-5.400 Y-3.698 E42.85340
G1 X-4.926 Y-3.739 E42.87708
G1 X-4.457 Y-3.861 E42.90119
G1 X-3.992 Y-4.082 E42.92682
G1 X-3.641 Y-4.320 E42.94792
G1 X-3.297 Y-4.649 E42.97161
G1 X-3.015 Y-5.031 E42.99524
G1 X-2.801 Y-5.454 E43.01883
G1 X-2.662 Y-5.910 E43.04255
G1 X-2.600 Y-6.389 E43.06659
G1 X-2.632 Y-6.914 E43.09277
G1 X-2.743 Y-7.379 E43.11656
G1 X-2.930 Y-7.814 E43.14012
G1 X-3.187 Y-8.213 E43.16374
G1 X-3.510 Y-8.563 E43.18744
G1 X-3.876 Y-8.844 E43.21040
G1 X-4.245 Y-9.052 E43.23148
G1 X-4.694 Y-9.209 E43.25515
G1 X-5.160 Y-9.290 E43.27869
G1 X-5.553 Y-9.291 E43.29825
G1 X-5.661 Y-9.286 E43.30363
G1 X-6.114 Y-9.208 E43.32651
G1 X-6.607 Y-9.025 E43.35268
G0 F9000 X-0.586 Y-8.114
G1 F1800 X-0.827 Y-7.702 E43.37643
G1 X-0.989 Y-7.268 E43.39948
G1 X-1.077 Y-6.855 E43.42050
G1 X-1.098 Y-6.371 E43.44461
G1 X-1.024 Y-5.864 E43.47011
G1 X-0.900 Y-5.455 E43.49138
G1 X-0.685 Y-5.031 E43.51503
G1 X-0.398 Y-4.641 E43.53913
G1 X-0.018 Y-4.293 E43.56477
G1 X0.333 Y-4.055 E43.58588
G1 X0.766 Y-3.859 E43.60953
G1 X1.225 Y-3.739 E43.63314
G1 X1.699 Y-3.698 E43.65682
G1 X2.173 Y-3.739 E43.68050
G1 X2.642 Y-3.861 E43.70461
G1 X3.107 Y-4.082 E43.73023
G1 X3.458 Y-4.320 E43.75134
G1 X3.802 Y-4.649 E43.77503
G1 X4.084 Y-5.031 E43.79866
G1 X4.298 Y-5.454 E43.82225
G1 X4.437 Y-5.910 E43.84597
G1 X4.499 Y-6.389 E43.87001
G1 X4.467 Y-6.914 E43.89618
G1 X4.356 Y-7.379 E43.91997
G1 X4.169 Y-7.814 E43.94354
G1 X3.912 Y-8.213 E43.96716
G1 X3.589 Y-8.563 E43.99086
G1 X3.223 Y-8.844 E44.01382
G1 X2.854 Y-9.052 E44.03490
G1 X2.405 Y-9.209 E44.05857
G1 X1.939 Y-9.290 E44.08211
G1 X1.546 Y-9.291 E44.10167
G1 X1.438 Y-9.286 E44.10705
G1 X0.985 Y-9.208 E44.12993
G1 X0.492 Y-9.025 E44.15610
G1 X0.081 Y-8.781 E44.17988
G1 X-0.279 Y-8.476 E44.20336
G1 X-0.586 Y-8.114 E44.22698
G0 F9000 X-0.259 Y-7.883
G1 F1800 X-0.465 Y-7.530 E44.24732
G1 X-0.605 Y-7.156 E44.26720
G1 X-0.680 Y-6.804 E44.28511
G1 X-0.698 Y-6.392 E44.30563
G1 X-0.633 Y-5.951 E44.32781
G1 X-0.528 Y-5.604 E44.34586
G1 X-0.344 Y-5.241 E44.36611
G1 X-0.099 Y-4.909 E44.38664
G1 X0.230 Y-4.607 E44.40887
G1 X0.529 Y-4.404 E44.42685
G1 X0.900 Y-4.236 E44.44712
G1 X1.293 Y-4.134 E44.46733
G1 X1.699 Y-4.099 E44.48761
G1 X2.106 Y-4.133 E44.50793
G1 X2.505 Y-4.238 E44.52846
G1 X2.908 Y-4.429 E44.55066
G1 X3.207 Y-4.632 E44.56864
G1 X3.502 Y-4.914 E44.58895
G1 X3.743 Y-5.241 E44.60917
G1 X3.927 Y-5.604 E44.62942
G1 X4.046 Y-5.994 E44.64971
G1 X4.098 Y-6.403 E44.67023
G1 X4.071 Y-6.855 E44.69277
G1 X3.976 Y-7.253 E44.71313
G1 X3.816 Y-7.626 E44.73333
G1 X3.595 Y-7.968 E44.75359
G1 X3.319 Y-8.267 E44.77384
G1 X3.003 Y-8.510 E44.79368
G1 X2.688 Y-8.687 E44.81166
G1 X2.304 Y-8.822 E44.83192
G1 X1.904 Y-8.891 E44.85212
G1 X1.555 Y-8.892 E44.86949
G1 X1.482 Y-8.889 E44.87312
G1 X1.090 Y-8.821 E44.89292
G1 X0.665 Y-8.663 E44.91549
G1 X0.313 Y-8.455 E44.93583
G1 X0.004 Y-8.193 E44.95599
G1 X-0.259 Y-7.883 E44.97623
G0 F9000 X-3.053 Y-5.994
G1 F1800 X-3.001 Y-6.403 E44.99674
G1 X-3.028 Y-6.855 E45.01928
G1 X-3.123 Y-7.253 E45.03964
G1 X-3.283 Y-7.626 E45.05984
G1 X-3.504 Y-7.968 E45.08010
G1 X-3.780 Y-8.267 E45.10035
G1 X-4.096 Y-8.510 E45.12019
G1 X-4.411 Y-8.687 E45.13817
G1 X-4.795 Y-8.822 E45.15843
G1 X-5.195 Y-8.891 E45.17863
G1 X-5.544 Y-8.892 E45.19600
G1 X-5.617 Y-8.889 E45.19963
G1 X-6.009 Y-8.821 E45.21943
G1 X-6.434 Y-8.663 E45.24200
G1 X-6.786 Y-8.455 E45.26234
G1 X-7.095 Y-8.193 E45.28251
G1 X-7.358 Y-7.883 E45.30274
G1 X-7.564 Y-7.531 E45.32303
G1 X-7.704 Y-7.157 E45.34291
G1 X-7.780 Y-6.804 E45.36088
G1 X-7.798 Y-6.392 E45.38140
G1 X-7.733 Y-5.950 E45.40363
G1 X-7.627 Y-5.603 E45.42169
G1 X-7.443 Y-5.241 E45.44190
G1 X-7.198 Y-4.909 E45.46243
G1 X-6.869 Y-4.607 E45.48466
G1 X-6.570 Y-4.404 E45.50264
G1 X-6.199 Y-4.236 E45.52291
G1 X-5.806 Y-4.134 E45.54312
G1 X-5.400 Y-4.099 E45.56340
G1 X-4.993 Y-4.133 E45.58372
G1 X-4.594 Y-4.238 E45.60425
G1 X-4.191 Y-4.429 E45.62645
G1 X-3.892 Y-4.632 E45.64443
G1 X-3.597 Y-4.914 E45.66474
G1 X-3.356 Y-5.241 E45.68496
G1 X-3.172 Y-5.604 E45.70521
G1 X-3.053 Y-5.994 E45.72550
G0 F9000 X1.294 Y-4.133
G0 X13.901 Y0.402
G1 F1800 X-65.402 Y0.402 E49.67205
G1 X-65.402 Y-58.902 E52.62335
G1 X13.901 Y-58.902 E56.56990
G1 X13.901 Y0.402 E59.52119
G0 F9000 X-33.902 Y-44.034
G1 F1800 X-33.531 Y-44.407 E59.54737
G1 X-33.232 Y-44.830 E59.57315
G1 X-33.023 Y-45.243 E59.59618
G1 X-32.869 Y-45.747 E59.62241
G1 X-32.802 Y-46.267 E59.64850
G1 X-32.825 Y-46.793 E59.67470
G1 X-32.935 Y-47.308 E59.70091
G1 X-33.133 Y-47.801 E59.72735
G1 X-33.449 Y-48.290 E59.75632
G1 X-33.759 Y-48.642 E59.77967
G1 X-34.223 Y-49.002 E59.80889
G1 X-34.682 Y-49.245 E59.83474
G1 X-35.119 Y-49.400 E59.85781
G1 X-35.636 Y-49.488 E59.88391
G1 X-36.102 Y-49.490 E59.90710
G1 X-36.188 Y-49.484 E59.91139
G1 X-36.745 Y-49.379 E59.93960
G1 X-37.232 Y-49.194 E59.96553
G1 X-37.641 Y-48.965 E59.98885
G1 X-38.085 Y-48.591 E60.01774
G1 X-38.392 Y-48.243 E60.04084
G1 X-38.668 Y-47.795 E60.06703
G1 X-38.864 Y-47.308 E60.09315
G1 X-38.974 Y-46.793 E60.11936
G1 X-38.997 Y-46.267 E60.14556
G1 X-38.929 Y-45.741 E60.17195
G1 X-38.746 Y-45.182 E60.20123
G1 X-38.499 Y-44.718 E60.22738
G1 X-38.182 Y-44.308 E60.25318
G1 X-37.843 Y-43.983 E60.27655
G1 X-37.350 Y-43.664 E60.30577
G1 X-36.872 Y-43.461 E60.33161
G1 X-36.423 Y-43.343 E60.35472
G1 X-35.894 Y-43.299 E60.38113
G1 X-35.310 Y-43.359 E60.41035
G1 X-34.810 Y-43.502 E60.43623
G1 X-34.382 Y-43.696 E60.45962
G1 X-33.902 Y-44.034 E60.48883
G0 F9000 X-35.353 Y-43.455
G0 X-35.385 Y-43.753
;TYPE:WALL-OUTER
G1 F1800 X-34.947 Y-43.878 E60.51150
G1 X-34.581 Y-44.043 E60.53148
G1 X-34.160 Y-44.340 E60.55712
G1 X-33.837 Y-44.664 E60.57989
G1 X-33.575 Y-45.036 E60.60253
G1 X-33.395 Y-45.392 E60.62238
G1 X-33.261 Y-45.831 E60.64522
G1 X-33.202 Y-46.284 E60.66796
G1 X-33.222 Y-46.742 E60.69077
G1 X-33.318 Y-47.190 E60.71357
G1 X-33.489 Y-47.617 E60.73646
G1 X-33.768 Y-48.048 E60.76201
G1 X-34.033 Y-48.350 E60.78201
G1 X-34.441 Y-48.666 E60.80769
G1 X-34.843 Y-48.879 E60.83033
G1 X-35.220 Y-49.012 E60.85023
G1 X-35.671 Y-49.089 E60.87300
G1 X-36.089 Y-49.091 E60.89380
G1 X-36.137 Y-49.088 E60.89619
G1 X-36.636 Y-48.993 E60.92147
G1 X-37.062 Y-48.832 E60.94413
G1 X-37.413 Y-48.635 E60.96417
G1 X-37.805 Y-48.305 E60.98967
G1 X-38.070 Y-48.005 E61.00959
G1 X-38.310 Y-47.615 E61.03237
G1 X-38.481 Y-47.190 E61.05517
G1 X-38.577 Y-46.742 E61.07797
G1 X-38.597 Y-46.284 E61.10079
G1 X-38.538 Y-45.829 E61.12362
G1 X-38.378 Y-45.339 E61.14927
G1 X-38.163 Y-44.936 E61.17200
G1 X-37.884 Y-44.576 E61.19467
G1 X-37.594 Y-44.297 E61.21470
G1 X-37.162 Y-44.018 E61.24029
G1 X-36.742 Y-43.839 E61.26301
G1 X-36.356 Y-43.738 E61.28287
G1 X-35.898 Y-43.700 E61.30574
G1 X-35.385 Y-43.753 E61.33140
G0 F9000 X-35.353 Y-43.455
G0 X-36.871 Y-43.460
G0 X-38.499 Y-44.719
G0 X-65.501 Y-59.091
G0 X-65.801 Y-59.301
G1 F1800 X14.300 Y-59.301 E65.31767
G1 X14.300 Y0.801 E68.30867
G1 X-65.801 Y0.801 E72.29494
G1 X-65.801 Y-59.301 E75.28594
G0 F9000 X-65.501 Y-59.091
G0 X-7.040 Y-8.104
G0 X-6.812 Y-7.910
G1 F1800 X-7.031 Y-7.651 E75.30282
G1 X-7.202 Y-7.359 E75.31966
G1 X-7.320 Y-7.044 E75.33640
G1 X-7.383 Y-6.753 E75.35122
G1 X-7.398 Y-6.413 E75.36815
G1 X-7.343 Y-6.038 E75.38702
G1 X-7.255 Y-5.753 E75.40186
G1 X-7.102 Y-5.451 E75.41871
G1 X-6.900 Y-5.176 E75.43569
G1 X-6.621 Y-4.920 E75.45453
G1 X-6.375 Y-4.754 E75.46930
G1 X-6.066 Y-4.614 E75.48618
G1 X-5.738 Y-4.528 E75.50306
G1 X-5.400 Y-4.499 E75.51994
G1 X-5.061 Y-4.528 E75.53687
G1 X-4.732 Y-4.614 E75.55380
G1 X-4.390 Y-4.777 E75.57265
G1 X-4.144 Y-4.944 E75.58745
G1 X-3.898 Y-5.178 E75.60434
G1 X-3.697 Y-5.451 E75.62121
G1 X-3.544 Y-5.753 E75.63806
G1 X-3.445 Y-6.078 E75.65497
G1 X-3.401 Y-6.416 E75.67193
G1 X-3.424 Y-6.796 E75.69088
G1 X-3.503 Y-7.127 E75.70781
G1 X-3.637 Y-7.438 E75.72467
G1 X-3.820 Y-7.722 E75.74148
G1 X-4.050 Y-7.971 E75.75835
G1 X-4.317 Y-8.176 E75.77510
G1 X-4.576 Y-8.322 E75.78990
G1 X-4.896 Y-8.434 E75.80677
G1 X-5.230 Y-8.492 E75.82364
G1 X-5.535 Y-8.493 E75.83882
G1 X-5.574 Y-8.491 E75.84076
G1 X-5.905 Y-8.434 E75.85748
G1 X-6.262 Y-8.301 E75.87643
G1 X-6.554 Y-8.129 E75.89330
G1 X-6.812 Y-7.910 E75.91014
G0 F9000 X-7.040 Y-8.104
G0 X-5.618 Y-8.888
G0 X-4.096 Y-8.510
G0 X-0.361 Y-7.511
G0 X-0.103 Y-7.359
G1 F1800 X-0.221 Y-7.044 E75.92688
G1 X-0.283 Y-6.753 E75.94169
G1 X-0.298 Y-6.413 E75.95862
G1 X-0.243 Y-6.038 E75.97749
G1 X-0.156 Y-5.754 E75.99227
G1 X-0.003 Y-5.451 E76.00916
G1 X0.199 Y-5.176 E76.02614
G1 X0.478 Y-4.920 E76.04498
G1 X0.724 Y-4.754 E76.05975
G1 X1.033 Y-4.614 E76.07664
G1 X1.361 Y-4.528 E76.09351
G1 X1.699 Y-4.499 E76.11039
G1 X2.038 Y-4.528 E76.12733
G1 X2.367 Y-4.614 E76.14425
G1 X2.709 Y-4.777 E76.16310
G1 X2.955 Y-4.944 E76.17790
G1 X3.201 Y-5.178 E76.19480
G1 X3.402 Y-5.451 E76.21167
G1 X3.555 Y-5.753 E76.22851
G1 X3.654 Y-6.078 E76.24542
G1 X3.698 Y-6.416 E76.26238
G1 X3.675 Y-6.796 E76.28133
G1 X3.596 Y-7.127 E76.29827
G1 X3.462 Y-7.438 E76.31512
G1 X3.279 Y-7.722 E76.33193
G1 X3.049 Y-7.971 E76.34880
G1 X2.782 Y-8.176 E76.36555
G1 X2.523 Y-8.322 E76.38035
G1 X2.203 Y-8.434 E76.39722
G1 X1.869 Y-8.492 E76.41409
G1 X1.564 Y-8.493 E76.42927
G1 X1.525 Y-8.491 E76.43121
G1 X1.194 Y-8.434 E76.44793
G1 X0.837 Y-8.301 E76.46689
G1 X0.545 Y-8.129 E76.48375
G1 X0.287 Y-7.910 E76.50059
G1 X0.068 Y-7.651 E76.51747
G1 X-0.103 Y-7.359 E76.53431
G0 F9000 X-0.818 Y-7.871
;TYPE:FILL
G1 F1800 X-35.776 Y-42.829 E78.99462
G0 F9000 X-35.264 Y-42.881
G1 F1800 X-0.601 Y-8.217 E81.43421
G0 F9000 X-0.341 Y-8.522
G1 F1800 X-34.818 Y-42.999 E83.86066
G0 F9000 X-34.409 Y-43.155
G1 F1800 X-0.038 Y-8.784 E86.27966
G0 F9000 X0.303 Y-9.006
G1 F1800 X-34.039 Y-43.349 E88.69665
G0 F9000 X-33.708 Y-43.582
G1 F1800 X0.690 Y-9.183 E91.11758
G0 F9000 X1.125 Y-9.312
G1 F1800 X-33.410 Y-43.848 E93.54816
G0 F9000 X-33.134 Y-44.136
G1 F1800 X1.632 Y-9.369 E95.99499
G0 F9000 X2.249 Y-9.317
G1 F1800 X-32.900 Y-44.467 E98.46878
G0 F9000 X-32.696 Y-44.827
G1 F1800 X3.163 Y-8.967 E100.99253
G0 F9000 X4.166 Y-7.964
G1 F1800 X12.054 Y-0.077 E101.54765
G0 F9000 X12.618 Y-0.077
G1 F1800 X-32.529 Y-45.224 E104.72505
G0 F9000 X-32.397 Y-45.657
G1 F1800 X13.182 Y-0.077 E107.93289
G0 F9000 X13.422 Y-0.401
G1 F1800 X-32.333 Y-46.157 E111.15312
G0 F9000 X-32.343 Y-46.731
G1 F1800 X13.422 Y-0.965 E114.37405
G0 F9000 X13.422 Y-1.530
G1 F1800 X-32.470 Y-47.422 E117.60388
G0 F9000 X-33.087 Y-48.604
G1 F1800 X13.422 Y-2.094 E120.87717
G0 F9000 X13.422 Y-2.658
G1 F1800 X-42.341 Y-58.422 E124.80175
G0 F9000 X-42.905 Y-58.422
G1 F1800 X-33.638 Y-49.155 E125.45396
G0 F9000 X-34.863 Y-49.816
G1 F1800 X-43.470 Y-58.422 E126.05967
G0 F9000 X-44.034 Y-58.422
G1 F1800 X-35.575 Y-49.963 E126.65501
G0 F9000 X-36.142 Y-49.966
G1 F1800 X-44.598 Y-58.422 E127.25013
G0 F9000 X-45.162 Y-58.422
G1 F1800 X-36.628 Y-49.887 E127.85078
G0 F9000 X-37.071 Y-49.766
G1 F1800 X-45.727 Y-58.422 E128.45998
G0 F9000 X-46.291 Y-58.422
G1 F1800 X-37.475 Y-49.606 E129.08044
G0 F9000 X-37.836 Y-49.403
G1 F1800 X-46.855 Y-58.422 E129.71519
G0 F9000 X-47.419 Y-58.422
G1 F1800 X-38.155 Y-49.158 E130.36718
G0 F9000 X-38.455 Y-48.893
G1 F1800 X-47.984 Y-58.422 E131.03783
G0 F9000 X-48.548 Y-58.422
G1 F1800 X-38.720 Y-48.594 E131.72951
G0 F9000 X-38.946 Y-48.256
G1 F1800 X-49.112 Y-58.422 E132.44498
G0 F9000 X-49.677 Y-58.422
G1 F1800 X-39.145 Y-47.890 E133.18622
G0 F9000 X-39.307 Y-47.488
G1 F1800 X-50.241 Y-58.422 E133.95574
G0 F9000 X-50.805 Y-58.422
G1 F1800 X-39.412 Y-47.029 E134.75757
G0 F9000 X-39.465 Y-46.518
G1 F1800 X-51.369 Y-58.422 E135.59536
G0 F9000 X-51.934 Y-58.422
G1 F1800 X-39.436 Y-45.924 E136.47496
G0 F9000 X-39.246 Y-45.170
G1 F1800 X-52.498 Y-58.422 E137.40762
G0 F9000 X-53.062 Y-58.422
G1 F1800 X-1.170 Y-6.530 E141.05973
G0 F9000 X-1.118 Y-7.042
G1 F1800 X-37.120 Y-43.045 E143.59355
G0 F9000 X-36.370 Y-42.858
G1 F1800 X-0.994 Y-7.482 E146.08328
G0 F9000 X-2.711 Y-7.506
G1 F1800 X-1.110 Y-5.905 E146.19595
G0 F9000 X-2.543 Y-6.774
G1 F1800 X-0.744 Y-4.975 E146.32256
G0 F9000 X0.147 Y-4.084
G1 F1800 X4.154 Y-0.077 E146.60457
G0 F9000 X4.718 Y-0.077
G1 F1800 X1.110 Y-3.684 E146.85846
G0 F9000 X1.740 Y-3.619
G1 F1800 X5.282 Y-0.077 E147.10775
G0 F9000 X5.847 Y-0.077
G1 F1800 X2.250 Y-3.674 E147.36090
G0 F9000 X2.693 Y-3.795
G1 F1800 X6.411 Y-0.077 E147.62257
G0 F9000 X6.975 Y-0.077
G1 F1800 X3.075 Y-3.977 E147.89705
G0 F9000 X3.420 Y-4.196
G1 F1800 X7.539 Y-0.077 E148.18694
G0 F9000 X8.104 Y-0.077
G1 F1800 X3.721 Y-4.459 E148.49538
G0 F9000 X3.983 Y-4.761
G1 F1800 X8.668 Y-0.077 E148.82507
G0 F9000 X9.232 Y-0.077
G1 F1800 X4.209 Y-5.100 E149.17858
G0 F9000 X4.389 Y-5.484
G1 F1800 X9.796 Y-0.077 E149.55912
G0 F9000 X10.361 Y-0.077
G1 F1800 X4.518 Y-5.919 E149.97031
G0 F9000 X4.575 Y-6.426
G1 F1800 X10.925 Y-0.077 E150.41718
G0 F9000 X11.489 Y-0.077
G1 F1800 X4.516 Y-7.050 E150.90793
G0 F9000 X2.688 Y-8.687
G0 X1.091 Y-8.821
G0 X-0.259 Y-7.882
G0 X-2.542 Y-6.209
G1 F1800 X3.589 Y-0.077 E151.33946
G0 F9000 X3.025 Y-0.077
G1 F1800 X-2.632 Y-5.735 E151.73763
G0 F9000 X-2.780 Y-5.318
G1 F1800 X2.461 Y-0.077 E152.10649
G0 F9000 X1.897 Y-0.077
G1 F1800 X-2.975 Y-4.949 E152.44937
G0 F9000 X-3.215 Y-4.625
G1 F1800 X1.332 Y-0.077 E152.76942
G0 F9000 X0.768 Y-0.077
G1 F1800 X-3.498 Y-4.344 E153.06969
G0 F9000 X-3.819 Y-4.101
G1 F1800 X0.204 Y-0.077 E153.35286
G0 F9000 X-0.359 Y-0.077
G1 F1800 X-4.183 Y-3.901 E153.62199
G0 F9000 X-4.590 Y-3.743
G1 F1800 X-0.924 Y-0.077 E153.88000
G0 F9000 X-1.488 Y-0.077
G1 F1800 X-5.057 Y-3.646 E154.13119
G0 F9000 X-5.610 Y-3.635
G1 F1800 X-2.052 Y-0.077 E154.38159
G0 F9000 X-2.617 Y-0.077
G1 F1800 X-6.310 Y-3.771 E154.64154
G0 F9000 X-3.181 Y-0.077
